; MeshVase Slicer - Klipper GCode Output
; Model: mesh
; Generated: 2025-12-03 00:13:23
; Nozzle: 1.0mm, Layer: 0.5mm
; Nozzle temp: 260°C, Bed: 65°C

; --- START GCODE ---
SET_GCODE_VARIABLE MACRO=START_PRINT VARIABLE=bed_temp VALUE=65
SET_GCODE_VARIABLE MACRO=START_PRINT VARIABLE=extruder_temp VALUE=260
SET_GCODE_VARIABLE MACRO=START_PRINT VARIABLE=fan_speed VALUE=100.0
START_PRINT

; Absolute positioning for X/Y/Z, relative for E
G90
M83

; --- PURGE LINE ---
; 50mm purge line (20mm away from print base) to ensure good extrusion start
G1 X45.000 Y85.000 Z0.500 F2400
G1 X45.000 Y135.000 Z0.500 E12.47255 F60
; Retract to stop extrusion
G10

; --- UNRETRACT BEFORE PRINT (SPIRAL) ---
G11

G1 X155.000 Y110.000 Z0.500 F2400
G1 X155.304 Y111.978 Z0.503 E0.49922 F1442
G1 X155.510 Y113.982 Z0.506 E0.50244 F1433
G1 X155.825 Y114.009 Z0.508 E0.07882 F2100
G1 X155.890 Y116.041 Z0.511 E0.50722 F1420
G1 X155.825 Y118.080 Z0.514 E0.50882 F1415
G1 X155.624 Y120.115 Z0.517 E0.50996 F1412
G1 X155.282 Y122.133 Z0.519 E0.51074 F1410
G1 X155.369 Y122.157 Z0.522 E0.02252 F2100
G1 X154.825 Y124.133 Z0.525 E0.51141 F1408
G1 X154.137 Y126.065 Z0.528 E0.51140 F1408
G1 X153.311 Y127.940 Z0.531 E0.51121 F1408
G1 X152.354 Y129.750 Z0.533 E0.51073 F1410
G1 X152.172 Y129.665 Z0.536 E0.04989 F2100
G1 X151.056 Y131.372 Z0.539 E0.50882 F1415
G1 X149.837 Y133.000 Z0.542 E0.50723 F1419
G1 X148.530 Y134.546 Z0.544 E0.50510 F1425
G1 X147.146 Y136.010 Z0.547 E0.50243 F1433
G1 X146.862 Y135.811 Z0.550 E0.08664 F2100
G1 X145.425 Y137.183 Z0.553 E0.49550 F1453
G1 X143.948 Y138.486 Z0.556 E0.49136 F1465
G1 X142.440 Y139.726 Z0.558 E0.48702 F1478
G1 X140.911 Y140.911 Z0.561 E0.48260 F1492
G1 X140.736 Y140.736 Z0.564 E0.06150 F2100
G1 X139.231 Y141.900 Z0.567 E0.47462 F1517
G1 X137.717 Y143.032 Z0.569 E0.47155 F1527
G1 X136.195 Y144.138 Z0.572 E0.46934 F1534
G1 X134.664 Y145.223 Z0.575 E0.46823 F1538
G1 X134.681 Y145.248 Z0.578 E0.00761 F2100
G1 X133.169 Y146.368 Z0.581 E0.46934 F1534
G1 X131.634 Y147.471 Z0.583 E0.47154 F1527
G1 X130.071 Y148.557 Z0.586 E0.47463 F1517
G1 X128.474 Y149.619 Z0.589 E0.47839 F1505
G1 X128.595 Y149.877 Z0.592 E0.07124 F2100
G1 X126.959 Y150.943 Z0.594 E0.48701 F1478
G1 X125.272 Y151.960 Z0.597 E0.49139 F1465
G1 X123.532 Y152.917 Z0.600 E0.49549 F1453
G1 X121.737 Y153.802 Z0.603 E0.49922 F1442
G1 X121.824 Y154.127 Z0.606 E0.08400 F2100
G1 X119.956 Y154.910 Z0.608 E0.50511 F1425
G1 X118.037 Y155.582 Z0.611 E0.50722 F1420
G1 X116.074 Y156.134 Z0.614 E0.50882 F1415
G1 X114.073 Y156.554 Z0.617 E0.50997 F1412
G1 X114.086 Y156.701 Z0.619 E0.03676 F2100
G1 X112.049 Y156.925 Z0.622 E0.51120 F1408
G1 X110.000 Y157.000 Z0.625 E0.51141 F1408
G1 X107.951 Y156.925 Z0.628 E0.51141 F1408
G1 X105.914 Y156.701 Z0.631 E0.51120 F1408
G1 X105.927 Y156.554 Z0.633 E0.03676 F2100
G1 X103.926 Y156.134 Z0.636 E0.50997 F1412
G1 X101.963 Y155.582 Z0.639 E0.50882 F1415
G1 X100.044 Y154.910 Z0.642 E0.50722 F1420
G1 X98.176 Y154.127 Z0.644 E0.50511 F1425
G1 X98.263 Y153.802 Z0.647 E0.08400 F2100
G1 X96.468 Y152.917 Z0.650 E0.49922 F1442
G1 X94.728 Y151.960 Z0.653 E0.49549 F1453
G1 X93.041 Y150.943 Z0.656 E0.49139 F1465
G1 X91.405 Y149.877 Z0.658 E0.48701 F1478
G1 X91.526 Y149.619 Z0.661 E0.07124 F2100
G1 X89.929 Y148.557 Z0.664 E0.47839 F1505
G1 X88.366 Y147.471 Z0.667 E0.47463 F1517
G1 X86.831 Y146.368 Z0.669 E0.47154 F1527
G1 X85.319 Y145.248 Z0.672 E0.46934 F1534
G1 X85.336 Y145.223 Z0.675 E0.00761 F2100
G1 X83.805 Y144.138 Z0.678 E0.46823 F1538
G1 X82.283 Y143.032 Z0.681 E0.46934 F1534
G1 X80.769 Y141.900 Z0.683 E0.47155 F1527
G1 X79.264 Y140.736 Z0.686 E0.47462 F1517
G1 X79.089 Y140.911 Z0.689 E0.06150 F2100
G1 X77.560 Y139.726 Z0.692 E0.48260 F1492
G1 X76.052 Y138.486 Z0.694 E0.48702 F1478
G1 X74.575 Y137.183 Z0.697 E0.49136 F1465
G1 X73.138 Y135.811 Z0.700 E0.49550 F1453
G1 X72.854 Y136.010 Z0.703 E0.08664 F2100
G1 X71.470 Y134.546 Z0.706 E0.50243 F1433
G1 X70.163 Y133.000 Z0.708 E0.50510 F1425
G1 X68.944 Y131.372 Z0.711 E0.50723 F1419
G1 X67.828 Y129.665 Z0.714 E0.50882 F1415
G1 X67.646 Y129.750 Z0.717 E0.04989 F2100
G1 X66.689 Y127.940 Z0.719 E0.51073 F1410
G1 X65.863 Y126.065 Z0.722 E0.51121 F1408
G1 X65.175 Y124.133 Z0.725 E0.51140 F1408
G1 X64.631 Y122.157 Z0.728 E0.51141 F1408
G1 X64.718 Y122.133 Z0.731 E0.02252 F2100
G1 X64.376 Y120.115 Z0.733 E0.51074 F1410
G1 X64.175 Y118.080 Z0.736 E0.50996 F1412
G1 X64.110 Y116.041 Z0.739 E0.50882 F1415
G1 X64.175 Y114.009 Z0.742 E0.50722 F1420
G1 X64.490 Y113.982 Z0.744 E0.07882 F2100
G1 X64.696 Y111.978 Z0.747 E0.50244 F1433
G1 X65.000 Y110.000 Z0.750 E0.49922 F1442
G1 X65.390 Y108.052 Z0.753 E0.49549 F1453
G1 X65.853 Y106.138 Z0.756 E0.49138 F1465
G1 X66.167 Y106.165 Z0.758 E0.07882 F2100
G1 X66.660 Y104.294 Z0.761 E0.48261 F1492
G1 X67.193 Y102.452 Z0.764 E0.47839 F1505
G1 X67.758 Y100.635 Z0.767 E0.47462 F1517
G1 X68.349 Y98.840 Z0.769 E0.47154 F1527
G1 X68.436 Y98.863 Z0.772 E0.02252 F2100
G1 X68.990 Y97.070 Z0.775 E0.46822 F1538
G1 X69.565 Y95.283 Z0.778 E0.46821 F1538
G1 X70.162 Y93.498 Z0.781 E0.46936 F1534
G1 X70.786 Y91.714 Z0.783 E0.47153 F1527
G1 X70.605 Y91.630 Z0.786 E0.04989 F2100
G1 X71.225 Y89.815 Z0.789 E0.47839 F1505
G1 X71.895 Y88.000 Z0.792 E0.48261 F1492
G1 X72.624 Y86.189 Z0.794 E0.48701 F1478
G1 X73.423 Y84.388 Z0.797 E0.49136 F1465
G1 X73.138 Y84.189 Z0.800 E0.08664 F2100
G1 X74.024 Y82.394 Z0.803 E0.49923 F1442
G1 X75.004 Y80.635 Z0.806 E0.50242 F1433
G1 X76.085 Y78.923 Z0.808 E0.50512 F1425
G1 X77.271 Y77.271 Z0.811 E0.50721 F1420
G1 X77.097 Y77.097 Z0.814 E0.06150 F2100
G1 X78.428 Y75.545 Z0.817 E0.50996 F1412
G1 X79.867 Y74.088 Z0.819 E0.51075 F1410
G1 X81.407 Y72.736 Z0.822 E0.51118 F1408
G1 X83.042 Y71.500 Z0.825 E0.51142 F1408
G1 X83.059 Y71.525 Z0.828 E0.00761 F2100
G1 X84.812 Y70.462 Z0.831 E0.51119 F1408
G1 X86.634 Y69.529 Z0.833 E0.51073 F1410
G1 X88.514 Y68.726 Z0.836 E0.50997 F1412
G1 X90.439 Y68.051 Z0.839 E0.50882 F1415
G1 X90.560 Y68.310 Z0.842 E0.07124 F2100
G1 X92.517 Y67.793 Z0.844 E0.50509 F1425
G1 X94.490 Y67.387 Z0.847 E0.50245 F1433
G1 X96.468 Y67.083 Z0.850 E0.49921 F1442
G1 X98.443 Y66.869 Z0.853 E0.49550 F1453
G1 X98.530 Y67.194 Z0.856 E0.08400 F2100
G1 X100.477 Y67.043 Z0.858 E0.48702 F1478
G1 X102.409 Y66.950 Z0.861 E0.48260 F1492
G1 X104.326 Y66.904 Z0.864 E0.47839 F1505
G1 X106.229 Y66.897 Z0.867 E0.47462 F1517
G1 X106.242 Y67.043 Z0.869 E0.03676 F2100
G1 X108.123 Y67.011 Z0.872 E0.46935 F1534
G1 X110.000 Y67.000 Z0.875 E0.46822 F1538
G1 X111.877 Y67.011 Z0.878 E0.46822 F1538
G1 X113.758 Y67.043 Z0.881 E0.46935 F1534
G1 X113.771 Y66.897 Z0.883 E0.03676 F2100
G1 X115.674 Y66.904 Z0.886 E0.47462 F1517
G1 X117.591 Y66.950 Z0.889 E0.47839 F1505
G1 X119.523 Y67.043 Z0.892 E0.48260 F1492
G1 X121.470 Y67.194 Z0.894 E0.48702 F1478
G1 X121.557 Y66.869 Z0.897 E0.08400 F2100
G1 X123.532 Y67.083 Z0.900 E0.49550 F1453
G1 X125.510 Y67.387 Z0.903 E0.49921 F1442
G1 X127.483 Y67.793 Z0.906 E0.50245 F1433
G1 X129.440 Y68.310 Z0.908 E0.50509 F1425
G1 X129.561 Y68.051 Z0.911 E0.07124 F2100
G1 X131.486 Y68.726 Z0.914 E0.50882 F1415
G1 X133.366 Y69.529 Z0.917 E0.50997 F1412
G1 X135.188 Y70.462 Z0.919 E0.51073 F1410
G1 X136.941 Y71.525 Z0.922 E0.51119 F1408
G1 X136.958 Y71.500 Z0.925 E0.00761 F2100
G1 X138.593 Y72.736 Z0.928 E0.51142 F1408
G1 X140.133 Y74.088 Z0.931 E0.51118 F1408
G1 X141.572 Y75.545 Z0.933 E0.51075 F1410
G1 X142.903 Y77.097 Z0.936 E0.50996 F1412
G1 X142.729 Y77.271 Z0.939 E0.06150 F2100
G1 X143.915 Y78.923 Z0.942 E0.50721 F1420
G1 X144.996 Y80.635 Z0.944 E0.50512 F1425
G1 X145.976 Y82.394 Z0.947 E0.50242 F1433
G1 X146.862 Y84.189 Z0.950 E0.49923 F1442
G1 X146.577 Y84.388 Z0.953 E0.08664 F2100
G1 X147.376 Y86.189 Z0.956 E0.49136 F1465
G1 X148.105 Y88.000 Z0.958 E0.48701 F1478
G1 X148.775 Y89.815 Z0.961 E0.48261 F1492
G1 X149.395 Y91.630 Z0.964 E0.47839 F1505
G1 X149.214 Y91.714 Z0.967 E0.04989 F2100
G1 X149.838 Y93.498 Z0.969 E0.47153 F1527
G1 X150.435 Y95.283 Z0.972 E0.46936 F1534
G1 X151.010 Y97.070 Z0.975 E0.46821 F1538
G1 X151.564 Y98.863 Z0.978 E0.46822 F1538
G1 X151.651 Y98.840 Z0.981 E0.02252 F2100
G1 X152.242 Y100.635 Z0.983 E0.47154 F1527
G1 X152.807 Y102.452 Z0.986 E0.47462 F1517
G1 X153.340 Y104.294 Z0.989 E0.47839 F1505
G1 X153.833 Y106.165 Z0.992 E0.48261 F1492
G1 X154.147 Y106.138 Z0.994 E0.07882 F2100
G1 X154.610 Y108.052 Z0.997 E0.49138 F1465
G1 X155.000 Y110.000 Z1.000 E0.49549 F1453
G1 X155.304 Y111.978 Z1.003 E0.49922 F1442
G1 X155.510 Y113.982 Z1.006 E0.50244 F1433
G1 X155.825 Y114.009 Z1.008 E0.07882 F2100
G1 X155.890 Y116.041 Z1.011 E0.50722 F1420
G1 X155.825 Y118.080 Z1.014 E0.50882 F1415
G1 X155.624 Y120.115 Z1.017 E0.50996 F1412
G1 X155.282 Y122.133 Z1.019 E0.51074 F1410
G1 X155.369 Y122.157 Z1.022 E0.02252 F2100
G1 X154.825 Y124.133 Z1.025 E0.51141 F1408
G1 X154.137 Y126.065 Z1.028 E0.51140 F1408
G1 X153.311 Y127.940 Z1.031 E0.51121 F1408
G1 X152.354 Y129.750 Z1.033 E0.51073 F1410
G1 X152.172 Y129.665 Z1.036 E0.04989 F2100
G1 X151.056 Y131.372 Z1.039 E0.50882 F1415
G1 X149.837 Y133.000 Z1.042 E0.50723 F1419
G1 X148.530 Y134.546 Z1.044 E0.50510 F1425
G1 X147.146 Y136.010 Z1.047 E0.50243 F1433
G1 X146.862 Y135.811 Z1.050 E0.08664 F2100
G1 X145.425 Y137.183 Z1.053 E0.49550 F1453
G1 X143.948 Y138.486 Z1.056 E0.49136 F1465
G1 X142.440 Y139.726 Z1.058 E0.48702 F1478
G1 X140.911 Y140.911 Z1.061 E0.48260 F1492
G1 X140.736 Y140.736 Z1.064 E0.06150 F2100
G1 X139.231 Y141.900 Z1.067 E0.47462 F1517
G1 X137.717 Y143.032 Z1.069 E0.47155 F1527
G1 X136.195 Y144.138 Z1.072 E0.46934 F1534
G1 X134.664 Y145.223 Z1.075 E0.46823 F1538
G1 X134.681 Y145.248 Z1.078 E0.00761 F2100
G1 X133.169 Y146.368 Z1.081 E0.46934 F1534
G1 X131.634 Y147.471 Z1.083 E0.47154 F1527
G1 X130.071 Y148.557 Z1.086 E0.47463 F1517
G1 X128.474 Y149.619 Z1.089 E0.47839 F1505
G1 X128.595 Y149.877 Z1.092 E0.07124 F2100
G1 X126.959 Y150.943 Z1.094 E0.48701 F1478
G1 X125.272 Y151.960 Z1.097 E0.49139 F1465
G1 X123.532 Y152.917 Z1.100 E0.49549 F1453
G1 X121.737 Y153.802 Z1.103 E0.49922 F1442
G1 X121.824 Y154.127 Z1.106 E0.08400 F2100
G1 X119.956 Y154.910 Z1.108 E0.50511 F1425
G1 X118.037 Y155.582 Z1.111 E0.50722 F1420
G1 X116.074 Y156.134 Z1.114 E0.50882 F1415
G1 X114.073 Y156.554 Z1.117 E0.50997 F1412
G1 X114.086 Y156.701 Z1.119 E0.03676 F2100
G1 X112.049 Y156.925 Z1.122 E0.51120 F1408
G1 X110.000 Y157.000 Z1.125 E0.51141 F1408
G1 X107.951 Y156.925 Z1.128 E0.51141 F1408
G1 X105.914 Y156.701 Z1.131 E0.51120 F1408
G1 X105.927 Y156.554 Z1.133 E0.03676 F2100
G1 X103.926 Y156.134 Z1.136 E0.50997 F1412
G1 X101.963 Y155.582 Z1.139 E0.50882 F1415
G1 X100.044 Y154.910 Z1.142 E0.50722 F1420
G1 X98.176 Y154.127 Z1.144 E0.50511 F1425
G1 X98.263 Y153.802 Z1.147 E0.08400 F2100
G1 X96.468 Y152.917 Z1.150 E0.49922 F1442
G1 X94.728 Y151.960 Z1.153 E0.49549 F1453
G1 X93.041 Y150.943 Z1.156 E0.49139 F1465
G1 X91.405 Y149.877 Z1.158 E0.48701 F1478
G1 X91.526 Y149.619 Z1.161 E0.07124 F2100
G1 X89.929 Y148.557 Z1.164 E0.47839 F1505
G1 X88.366 Y147.471 Z1.167 E0.47463 F1517
G1 X86.831 Y146.368 Z1.169 E0.47154 F1527
G1 X85.319 Y145.248 Z1.172 E0.46934 F1534
G1 X85.336 Y145.223 Z1.175 E0.00761 F2100
G1 X83.805 Y144.138 Z1.178 E0.46823 F1538
G1 X82.283 Y143.032 Z1.181 E0.46934 F1534
G1 X80.769 Y141.900 Z1.183 E0.47155 F1527
G1 X79.264 Y140.736 Z1.186 E0.47462 F1517
G1 X79.089 Y140.911 Z1.189 E0.06150 F2100
G1 X77.560 Y139.726 Z1.192 E0.48260 F1492
G1 X76.052 Y138.486 Z1.194 E0.48702 F1478
G1 X74.575 Y137.183 Z1.197 E0.49136 F1465
G1 X73.138 Y135.811 Z1.200 E0.49550 F1453
G1 X72.854 Y136.010 Z1.203 E0.08664 F2100
G1 X71.470 Y134.546 Z1.206 E0.50243 F1433
G1 X70.163 Y133.000 Z1.208 E0.50510 F1425
G1 X68.944 Y131.372 Z1.211 E0.50723 F1419
G1 X67.828 Y129.665 Z1.214 E0.50882 F1415
G1 X67.646 Y129.750 Z1.217 E0.04989 F2100
G1 X66.689 Y127.940 Z1.219 E0.51073 F1410
G1 X65.863 Y126.065 Z1.222 E0.51121 F1408
G1 X65.175 Y124.133 Z1.225 E0.51140 F1408
G1 X64.631 Y122.157 Z1.228 E0.51141 F1408
G1 X64.718 Y122.133 Z1.231 E0.02252 F2100
G1 X64.376 Y120.115 Z1.233 E0.51074 F1410
G1 X64.175 Y118.080 Z1.236 E0.50996 F1412
G1 X64.110 Y116.041 Z1.239 E0.50882 F1415
G1 X64.175 Y114.009 Z1.242 E0.50722 F1420
G1 X64.490 Y113.982 Z1.244 E0.07882 F2100
G1 X64.696 Y111.978 Z1.247 E0.50244 F1433
G1 X65.000 Y110.000 Z1.250 E0.49922 F1442
G1 X65.390 Y108.052 Z1.253 E0.49549 F1453
G1 X65.853 Y106.138 Z1.256 E0.49138 F1465
G1 X66.167 Y106.165 Z1.258 E0.07882 F2100
G1 X66.660 Y104.294 Z1.261 E0.48261 F1492
G1 X67.193 Y102.452 Z1.264 E0.47839 F1505
G1 X67.758 Y100.635 Z1.267 E0.47462 F1517
G1 X68.349 Y98.840 Z1.269 E0.47154 F1527
G1 X68.436 Y98.863 Z1.272 E0.02252 F2100
G1 X68.990 Y97.070 Z1.275 E0.46822 F1538
G1 X69.565 Y95.283 Z1.278 E0.46821 F1538
G1 X70.162 Y93.498 Z1.281 E0.46936 F1534
G1 X70.786 Y91.714 Z1.283 E0.47153 F1527
G1 X70.605 Y91.630 Z1.286 E0.04989 F2100
G1 X71.225 Y89.815 Z1.289 E0.47839 F1505
G1 X71.895 Y88.000 Z1.292 E0.48261 F1492
G1 X72.624 Y86.189 Z1.294 E0.48701 F1478
G1 X73.423 Y84.388 Z1.297 E0.49136 F1465
G1 X73.138 Y84.189 Z1.300 E0.08664 F2100
G1 X74.024 Y82.394 Z1.303 E0.49923 F1442
G1 X75.004 Y80.635 Z1.306 E0.50242 F1433
G1 X76.085 Y78.923 Z1.308 E0.50512 F1425
G1 X77.271 Y77.271 Z1.311 E0.50721 F1420
G1 X77.097 Y77.097 Z1.314 E0.06150 F2100
G1 X78.428 Y75.545 Z1.317 E0.50996 F1412
G1 X79.867 Y74.088 Z1.319 E0.51075 F1410
G1 X81.407 Y72.736 Z1.322 E0.51118 F1408
G1 X83.042 Y71.500 Z1.325 E0.51142 F1408
G1 X83.059 Y71.525 Z1.328 E0.00761 F2100
G1 X84.812 Y70.462 Z1.331 E0.51119 F1408
G1 X86.634 Y69.529 Z1.333 E0.51073 F1410
G1 X88.514 Y68.726 Z1.336 E0.50997 F1412
G1 X90.439 Y68.051 Z1.339 E0.50882 F1415
G1 X90.560 Y68.310 Z1.342 E0.07124 F2100
G1 X92.517 Y67.793 Z1.344 E0.50509 F1425
G1 X94.490 Y67.387 Z1.347 E0.50245 F1433
G1 X96.468 Y67.083 Z1.350 E0.49921 F1442
G1 X98.443 Y66.869 Z1.353 E0.49550 F1453
G1 X98.530 Y67.194 Z1.356 E0.08400 F2100
G1 X100.477 Y67.043 Z1.358 E0.48702 F1478
G1 X102.409 Y66.950 Z1.361 E0.48260 F1492
G1 X104.326 Y66.904 Z1.364 E0.47839 F1505
G1 X106.229 Y66.897 Z1.367 E0.47462 F1517
G1 X106.242 Y67.043 Z1.369 E0.03676 F2100
G1 X108.123 Y67.011 Z1.372 E0.46935 F1534
G1 X110.000 Y67.000 Z1.375 E0.46822 F1538
G1 X111.877 Y67.011 Z1.378 E0.46822 F1538
G1 X113.758 Y67.043 Z1.381 E0.46935 F1534
G1 X113.771 Y66.897 Z1.383 E0.03676 F2100
G1 X115.674 Y66.904 Z1.386 E0.47462 F1517
G1 X117.591 Y66.950 Z1.389 E0.47839 F1505
G1 X119.523 Y67.043 Z1.392 E0.48260 F1492
G1 X121.470 Y67.194 Z1.394 E0.48702 F1478
G1 X121.557 Y66.869 Z1.397 E0.08400 F2100
G1 X123.532 Y67.083 Z1.400 E0.49550 F1453
G1 X125.510 Y67.387 Z1.403 E0.49921 F1442
G1 X127.483 Y67.793 Z1.406 E0.50245 F1433
G1 X129.440 Y68.310 Z1.408 E0.50509 F1425
G1 X129.561 Y68.051 Z1.411 E0.07124 F2100
G1 X131.486 Y68.726 Z1.414 E0.50882 F1415
G1 X133.366 Y69.529 Z1.417 E0.50997 F1412
G1 X135.188 Y70.462 Z1.419 E0.51073 F1410
G1 X136.941 Y71.525 Z1.422 E0.51119 F1408
G1 X136.958 Y71.500 Z1.425 E0.00761 F2100
G1 X138.593 Y72.736 Z1.428 E0.51142 F1408
G1 X140.133 Y74.088 Z1.431 E0.51118 F1408
G1 X141.572 Y75.545 Z1.433 E0.51075 F1410
G1 X142.903 Y77.097 Z1.436 E0.50996 F1412
G1 X142.729 Y77.271 Z1.439 E0.06150 F2100
G1 X143.915 Y78.923 Z1.442 E0.50721 F1420
G1 X144.996 Y80.635 Z1.444 E0.50512 F1425
G1 X145.976 Y82.394 Z1.447 E0.50242 F1433
G1 X146.862 Y84.189 Z1.450 E0.49923 F1442
G1 X146.577 Y84.388 Z1.453 E0.08664 F2100
G1 X147.376 Y86.189 Z1.456 E0.49136 F1465
G1 X148.105 Y88.000 Z1.458 E0.48701 F1478
G1 X148.775 Y89.815 Z1.461 E0.48261 F1492
G1 X149.395 Y91.630 Z1.464 E0.47839 F1505
G1 X149.214 Y91.714 Z1.467 E0.04989 F2100
G1 X149.838 Y93.498 Z1.469 E0.47153 F1527
G1 X150.435 Y95.283 Z1.472 E0.46936 F1534
G1 X151.010 Y97.070 Z1.475 E0.46821 F1538
G1 X151.564 Y98.863 Z1.478 E0.46822 F1538
G1 X151.651 Y98.840 Z1.481 E0.02252 F2100
G1 X152.242 Y100.635 Z1.483 E0.47154 F1527
G1 X152.807 Y102.452 Z1.486 E0.47462 F1517
G1 X153.340 Y104.294 Z1.489 E0.47839 F1505
G1 X153.833 Y106.165 Z1.492 E0.48261 F1492
G1 X154.147 Y106.138 Z1.494 E0.07882 F2100
G1 X154.610 Y108.052 Z1.497 E0.49138 F1465
G1 X155.000 Y110.000 Z1.500 E0.49549 F1453
G1 X155.304 Y111.978 Z1.503 E0.49922 F1442
G1 X155.510 Y113.982 Z1.506 E0.50244 F1433
G1 X155.825 Y114.009 Z1.508 E0.07882 F2100
G1 X155.890 Y116.041 Z1.511 E0.50722 F1420
G1 X155.825 Y118.080 Z1.514 E0.50882 F1415
G1 X155.624 Y120.115 Z1.517 E0.50996 F1412
G1 X155.282 Y122.133 Z1.519 E0.51074 F1410
G1 X155.369 Y122.157 Z1.522 E0.02252 F2100
G1 X154.825 Y124.133 Z1.525 E0.51141 F1408
G1 X154.137 Y126.065 Z1.528 E0.51140 F1408
G1 X153.311 Y127.940 Z1.531 E0.51121 F1408
G1 X152.354 Y129.750 Z1.533 E0.51073 F1410
G1 X152.172 Y129.665 Z1.536 E0.04989 F2100
G1 X151.056 Y131.372 Z1.539 E0.50882 F1415
G1 X149.837 Y133.000 Z1.542 E0.50723 F1419
G1 X148.530 Y134.546 Z1.544 E0.50510 F1425
G1 X147.146 Y136.010 Z1.547 E0.50243 F1433
G1 X146.862 Y135.811 Z1.550 E0.08664 F2100
G1 X145.425 Y137.183 Z1.553 E0.49550 F1453
G1 X143.948 Y138.486 Z1.556 E0.49136 F1465
G1 X142.440 Y139.726 Z1.558 E0.48702 F1478
G1 X140.911 Y140.911 Z1.561 E0.48260 F1492
G1 X140.736 Y140.736 Z1.564 E0.06150 F2100
G1 X139.231 Y141.900 Z1.567 E0.47462 F1517
G1 X137.717 Y143.032 Z1.569 E0.47155 F1527
G1 X136.195 Y144.138 Z1.572 E0.46934 F1534
G1 X134.664 Y145.223 Z1.575 E0.46823 F1538
G1 X134.681 Y145.248 Z1.578 E0.00761 F2100
G1 X133.169 Y146.368 Z1.581 E0.46934 F1534
G1 X131.634 Y147.471 Z1.583 E0.47154 F1527
G1 X130.071 Y148.557 Z1.586 E0.47463 F1517
G1 X128.474 Y149.619 Z1.589 E0.47839 F1505
G1 X128.595 Y149.877 Z1.592 E0.07124 F2100
G1 X126.959 Y150.943 Z1.594 E0.48701 F1478
G1 X125.272 Y151.960 Z1.597 E0.49139 F1465
G1 X123.532 Y152.917 Z1.600 E0.49549 F1453
G1 X121.737 Y153.802 Z1.603 E0.49922 F1442
G1 X121.824 Y154.127 Z1.606 E0.08400 F2100
G1 X119.956 Y154.910 Z1.608 E0.50511 F1425
G1 X118.037 Y155.582 Z1.611 E0.50722 F1420
G1 X116.074 Y156.134 Z1.614 E0.50882 F1415
G1 X114.073 Y156.554 Z1.617 E0.50997 F1412
G1 X114.086 Y156.701 Z1.619 E0.03676 F2100
G1 X112.049 Y156.925 Z1.622 E0.51120 F1408
G1 X110.000 Y157.000 Z1.625 E0.51141 F1408
G1 X107.951 Y156.925 Z1.628 E0.51141 F1408
G1 X105.914 Y156.701 Z1.631 E0.51120 F1408
G1 X105.927 Y156.554 Z1.633 E0.03676 F2100
G1 X103.926 Y156.134 Z1.636 E0.50997 F1412
G1 X101.963 Y155.582 Z1.639 E0.50882 F1415
G1 X100.044 Y154.910 Z1.642 E0.50722 F1420
G1 X98.176 Y154.127 Z1.644 E0.50511 F1425
G1 X98.263 Y153.802 Z1.647 E0.08400 F2100
G1 X96.468 Y152.917 Z1.650 E0.49922 F1442
G1 X94.728 Y151.960 Z1.653 E0.49549 F1453
G1 X93.041 Y150.943 Z1.656 E0.49139 F1465
G1 X91.405 Y149.877 Z1.658 E0.48701 F1478
G1 X91.526 Y149.619 Z1.661 E0.07124 F2100
G1 X89.929 Y148.557 Z1.664 E0.47839 F1505
G1 X88.366 Y147.471 Z1.667 E0.47463 F1517
G1 X86.831 Y146.368 Z1.669 E0.47154 F1527
G1 X85.319 Y145.248 Z1.672 E0.46934 F1534
G1 X85.336 Y145.223 Z1.675 E0.00761 F2100
G1 X83.805 Y144.138 Z1.678 E0.46823 F1538
G1 X82.283 Y143.032 Z1.681 E0.46934 F1534
G1 X80.769 Y141.900 Z1.683 E0.47155 F1527
G1 X79.264 Y140.736 Z1.686 E0.47462 F1517
G1 X79.089 Y140.911 Z1.689 E0.06150 F2100
G1 X77.560 Y139.726 Z1.692 E0.48260 F1492
G1 X76.052 Y138.486 Z1.694 E0.48702 F1478
G1 X74.575 Y137.183 Z1.697 E0.49136 F1465
G1 X73.138 Y135.811 Z1.700 E0.49550 F1453
G1 X72.854 Y136.010 Z1.703 E0.08664 F2100
G1 X71.470 Y134.546 Z1.706 E0.50243 F1433
G1 X70.163 Y133.000 Z1.708 E0.50510 F1425
G1 X68.944 Y131.372 Z1.711 E0.50723 F1419
G1 X67.828 Y129.665 Z1.714 E0.50882 F1415
G1 X67.646 Y129.750 Z1.717 E0.04989 F2100
G1 X66.689 Y127.940 Z1.719 E0.51073 F1410
G1 X65.863 Y126.065 Z1.722 E0.51121 F1408
G1 X65.175 Y124.133 Z1.725 E0.51140 F1408
G1 X64.631 Y122.157 Z1.728 E0.51141 F1408
G1 X64.718 Y122.133 Z1.731 E0.02252 F2100
G1 X64.376 Y120.115 Z1.733 E0.51074 F1410
G1 X64.175 Y118.080 Z1.736 E0.50996 F1412
G1 X64.110 Y116.041 Z1.739 E0.50882 F1415
G1 X64.175 Y114.009 Z1.742 E0.50722 F1420
G1 X64.490 Y113.982 Z1.744 E0.07882 F2100
G1 X64.696 Y111.978 Z1.747 E0.50244 F1433
G1 X65.000 Y110.000 Z1.750 E0.49922 F1442
G1 X65.390 Y108.052 Z1.753 E0.49549 F1453
G1 X65.853 Y106.138 Z1.756 E0.49138 F1465
G1 X66.167 Y106.165 Z1.758 E0.07882 F2100
G1 X66.660 Y104.294 Z1.761 E0.48261 F1492
G1 X67.193 Y102.452 Z1.764 E0.47839 F1505
G1 X67.758 Y100.635 Z1.767 E0.47462 F1517
G1 X68.349 Y98.840 Z1.769 E0.47154 F1527
G1 X68.436 Y98.863 Z1.772 E0.02252 F2100
G1 X68.990 Y97.070 Z1.775 E0.46822 F1538
G1 X69.565 Y95.283 Z1.778 E0.46821 F1538
G1 X70.162 Y93.498 Z1.781 E0.46936 F1534
G1 X70.786 Y91.714 Z1.783 E0.47153 F1527
G1 X70.605 Y91.630 Z1.786 E0.04989 F2100
G1 X71.225 Y89.815 Z1.789 E0.47839 F1505
G1 X71.895 Y88.000 Z1.792 E0.48261 F1492
G1 X72.624 Y86.189 Z1.794 E0.48701 F1478
G1 X73.423 Y84.388 Z1.797 E0.49136 F1465
G1 X73.138 Y84.189 Z1.800 E0.08664 F2100
G1 X74.024 Y82.394 Z1.803 E0.49923 F1442
G1 X75.004 Y80.635 Z1.806 E0.50242 F1433
G1 X76.085 Y78.923 Z1.808 E0.50512 F1425
G1 X77.271 Y77.271 Z1.811 E0.50721 F1420
G1 X77.097 Y77.097 Z1.814 E0.06150 F2100
G1 X78.428 Y75.545 Z1.817 E0.50996 F1412
G1 X79.867 Y74.088 Z1.819 E0.51075 F1410
G1 X81.407 Y72.736 Z1.822 E0.51118 F1408
G1 X83.042 Y71.500 Z1.825 E0.51142 F1408
G1 X83.059 Y71.525 Z1.828 E0.00761 F2100
G1 X84.812 Y70.462 Z1.831 E0.51119 F1408
G1 X86.634 Y69.529 Z1.833 E0.51073 F1410
G1 X88.514 Y68.726 Z1.836 E0.50997 F1412
G1 X90.439 Y68.051 Z1.839 E0.50882 F1415
G1 X90.560 Y68.310 Z1.842 E0.07124 F2100
G1 X92.517 Y67.793 Z1.844 E0.50509 F1425
G1 X94.490 Y67.387 Z1.847 E0.50245 F1433
G1 X96.468 Y67.083 Z1.850 E0.49921 F1442
G1 X98.443 Y66.869 Z1.853 E0.49550 F1453
G1 X98.530 Y67.194 Z1.856 E0.08400 F2100
G1 X100.477 Y67.043 Z1.858 E0.48702 F1478
G1 X102.409 Y66.950 Z1.861 E0.48260 F1492
G1 X104.326 Y66.904 Z1.864 E0.47839 F1505
G1 X106.229 Y66.897 Z1.867 E0.47462 F1517
G1 X106.242 Y67.043 Z1.869 E0.03676 F2100
G1 X108.123 Y67.011 Z1.872 E0.46935 F1534
G1 X110.000 Y67.000 Z1.875 E0.46822 F1538
G1 X111.877 Y67.011 Z1.878 E0.46822 F1538
G1 X113.758 Y67.043 Z1.881 E0.46935 F1534
G1 X113.771 Y66.897 Z1.883 E0.03676 F2100
G1 X115.674 Y66.904 Z1.886 E0.47462 F1517
G1 X117.591 Y66.950 Z1.889 E0.47839 F1505
G1 X119.523 Y67.043 Z1.892 E0.48260 F1492
G1 X121.470 Y67.194 Z1.894 E0.48702 F1478
G1 X121.557 Y66.869 Z1.897 E0.08400 F2100
G1 X123.532 Y67.083 Z1.900 E0.49550 F1453
G1 X125.510 Y67.387 Z1.903 E0.49921 F1442
G1 X127.483 Y67.793 Z1.906 E0.50245 F1433
G1 X129.440 Y68.310 Z1.908 E0.50509 F1425
G1 X129.561 Y68.051 Z1.911 E0.07124 F2100
G1 X131.486 Y68.726 Z1.914 E0.50882 F1415
G1 X133.366 Y69.529 Z1.917 E0.50997 F1412
G1 X135.188 Y70.462 Z1.919 E0.51073 F1410
G1 X136.941 Y71.525 Z1.922 E0.51119 F1408
G1 X136.958 Y71.500 Z1.925 E0.00761 F2100
G1 X138.593 Y72.736 Z1.928 E0.51142 F1408
G1 X140.133 Y74.088 Z1.931 E0.51118 F1408
G1 X141.572 Y75.545 Z1.933 E0.51075 F1410
G1 X142.903 Y77.097 Z1.936 E0.50996 F1412
G1 X142.729 Y77.271 Z1.939 E0.06150 F2100
G1 X143.915 Y78.923 Z1.942 E0.50721 F1420
G1 X144.996 Y80.635 Z1.944 E0.50512 F1425
G1 X145.976 Y82.394 Z1.947 E0.50242 F1433
G1 X146.862 Y84.189 Z1.950 E0.49923 F1442
G1 X146.577 Y84.388 Z1.953 E0.08664 F2100
G1 X147.376 Y86.189 Z1.956 E0.49136 F1465
G1 X148.105 Y88.000 Z1.958 E0.48701 F1478
G1 X148.775 Y89.815 Z1.961 E0.48261 F1492
G1 X149.395 Y91.630 Z1.964 E0.47839 F1505
G1 X149.214 Y91.714 Z1.967 E0.04989 F2100
G1 X149.838 Y93.498 Z1.969 E0.47153 F1527
G1 X150.435 Y95.283 Z1.972 E0.46936 F1534
G1 X151.010 Y97.070 Z1.975 E0.46821 F1538
G1 X151.564 Y98.863 Z1.978 E0.46822 F1538
G1 X151.651 Y98.840 Z1.981 E0.02252 F2100
G1 X152.242 Y100.635 Z1.983 E0.47154 F1527
G1 X152.807 Y102.452 Z1.986 E0.47462 F1517
G1 X153.340 Y104.294 Z1.989 E0.47839 F1505
G1 X153.833 Y106.165 Z1.992 E0.48261 F1492
G1 X154.147 Y106.138 Z1.994 E0.07882 F2100
G1 X154.610 Y108.052 Z1.997 E0.49138 F1465
G1 X155.000 Y110.000 Z2.000 E0.49549 F1453
G1 X155.304 Y111.978 Z2.003 E0.49922 F1442
G1 X155.510 Y113.982 Z2.006 E0.50244 F1433
G1 X155.825 Y114.009 Z2.008 E0.07882 F2100
G1 X155.890 Y116.041 Z2.011 E0.50722 F1420
G1 X155.825 Y118.080 Z2.014 E0.50882 F1415
G1 X155.624 Y120.115 Z2.017 E0.50996 F1412
G1 X155.282 Y122.133 Z2.019 E0.51074 F1410
G1 X155.369 Y122.157 Z2.022 E0.02252 F2100
G1 X154.825 Y124.133 Z2.025 E0.51141 F1408
G1 X154.137 Y126.065 Z2.028 E0.51140 F1408
G1 X153.311 Y127.940 Z2.031 E0.51121 F1408
G1 X152.354 Y129.750 Z2.033 E0.51073 F1410
G1 X152.172 Y129.665 Z2.036 E0.04989 F2100
G1 X151.056 Y131.372 Z2.039 E0.50882 F1415
G1 X149.837 Y133.000 Z2.042 E0.50723 F1419
G1 X148.530 Y134.546 Z2.044 E0.50510 F1425
G1 X147.146 Y136.010 Z2.047 E0.50243 F1433
G1 X146.862 Y135.811 Z2.050 E0.08664 F2100
G1 X145.425 Y137.183 Z2.053 E0.49550 F1453
G1 X143.948 Y138.486 Z2.056 E0.49136 F1465
G1 X142.440 Y139.726 Z2.058 E0.48702 F1478
G1 X140.911 Y140.911 Z2.061 E0.48260 F1492
G1 X140.736 Y140.736 Z2.064 E0.06150 F2100
G1 X139.231 Y141.900 Z2.067 E0.47462 F1517
G1 X137.717 Y143.032 Z2.069 E0.47155 F1527
G1 X136.195 Y144.138 Z2.072 E0.46934 F1534
G1 X134.664 Y145.223 Z2.075 E0.46823 F1538
G1 X134.681 Y145.248 Z2.078 E0.00761 F2100
G1 X133.169 Y146.368 Z2.081 E0.46934 F1534
G1 X131.634 Y147.471 Z2.083 E0.47154 F1527
G1 X130.071 Y148.557 Z2.086 E0.47463 F1517
G1 X128.474 Y149.619 Z2.089 E0.47839 F1505
G1 X128.595 Y149.877 Z2.092 E0.07124 F2100
G1 X126.959 Y150.943 Z2.094 E0.48701 F1478
G1 X125.272 Y151.960 Z2.097 E0.49139 F1465
G1 X123.532 Y152.917 Z2.100 E0.49549 F1453
G1 X121.737 Y153.802 Z2.103 E0.49922 F1442
G1 X121.824 Y154.127 Z2.106 E0.08400 F2100
G1 X119.956 Y154.910 Z2.108 E0.50511 F1425
G1 X118.037 Y155.582 Z2.111 E0.50722 F1420
G1 X116.074 Y156.134 Z2.114 E0.50882 F1415
G1 X114.073 Y156.554 Z2.117 E0.50997 F1412
G1 X114.086 Y156.701 Z2.119 E0.03676 F2100
G1 X112.049 Y156.925 Z2.122 E0.51120 F1408
G1 X110.000 Y157.000 Z2.125 E0.51141 F1408
G1 X107.951 Y156.925 Z2.128 E0.51141 F1408
G1 X105.914 Y156.701 Z2.131 E0.51120 F1408
G1 X105.927 Y156.554 Z2.133 E0.03676 F2100
G1 X103.926 Y156.134 Z2.136 E0.50997 F1412
G1 X101.963 Y155.582 Z2.139 E0.50882 F1415
G1 X100.044 Y154.910 Z2.142 E0.50722 F1420
G1 X98.176 Y154.127 Z2.144 E0.50511 F1425
G1 X98.263 Y153.802 Z2.147 E0.08400 F2100
G1 X96.468 Y152.917 Z2.150 E0.49922 F1442
G1 X94.728 Y151.960 Z2.153 E0.49549 F1453
G1 X93.041 Y150.943 Z2.156 E0.49139 F1465
G1 X91.405 Y149.877 Z2.158 E0.48701 F1478
G1 X91.526 Y149.619 Z2.161 E0.07124 F2100
G1 X89.929 Y148.557 Z2.164 E0.47839 F1505
G1 X88.366 Y147.471 Z2.167 E0.47463 F1517
G1 X86.831 Y146.368 Z2.169 E0.47154 F1527
G1 X85.319 Y145.248 Z2.172 E0.46934 F1534
G1 X85.336 Y145.223 Z2.175 E0.00761 F2100
G1 X83.805 Y144.138 Z2.178 E0.46823 F1538
G1 X82.283 Y143.032 Z2.181 E0.46934 F1534
G1 X80.769 Y141.900 Z2.183 E0.47155 F1527
G1 X79.264 Y140.736 Z2.186 E0.47462 F1517
G1 X79.089 Y140.911 Z2.189 E0.06150 F2100
G1 X77.560 Y139.726 Z2.192 E0.48260 F1492
G1 X76.052 Y138.486 Z2.194 E0.48702 F1478
G1 X74.575 Y137.183 Z2.197 E0.49136 F1465
G1 X73.138 Y135.811 Z2.200 E0.49550 F1453
G1 X72.854 Y136.010 Z2.203 E0.08664 F2100
G1 X71.470 Y134.546 Z2.206 E0.50243 F1433
G1 X70.163 Y133.000 Z2.208 E0.50510 F1425
G1 X68.944 Y131.372 Z2.211 E0.50723 F1419
G1 X67.828 Y129.665 Z2.214 E0.50882 F1415
G1 X67.646 Y129.750 Z2.217 E0.04989 F2100
G1 X66.689 Y127.940 Z2.219 E0.51073 F1410
G1 X65.863 Y126.065 Z2.222 E0.51121 F1408
G1 X65.175 Y124.133 Z2.225 E0.51140 F1408
G1 X64.631 Y122.157 Z2.228 E0.51141 F1408
G1 X64.718 Y122.133 Z2.231 E0.02252 F2100
G1 X64.376 Y120.115 Z2.233 E0.51074 F1410
G1 X64.175 Y118.080 Z2.236 E0.50996 F1412
G1 X64.110 Y116.041 Z2.239 E0.50882 F1415
G1 X64.175 Y114.009 Z2.242 E0.50722 F1420
G1 X64.490 Y113.982 Z2.244 E0.07882 F2100
G1 X64.696 Y111.978 Z2.247 E0.50244 F1433
G1 X65.000 Y110.000 Z2.250 E0.49922 F1442
G1 X65.390 Y108.052 Z2.253 E0.49549 F1453
G1 X65.853 Y106.138 Z2.256 E0.49138 F1465
G1 X66.167 Y106.165 Z2.258 E0.07882 F2100
G1 X66.660 Y104.294 Z2.261 E0.48261 F1492
G1 X67.193 Y102.452 Z2.264 E0.47839 F1505
G1 X67.758 Y100.635 Z2.267 E0.47462 F1517
G1 X68.349 Y98.840 Z2.269 E0.47154 F1527
G1 X68.436 Y98.863 Z2.272 E0.02252 F2100
G1 X68.990 Y97.070 Z2.275 E0.46822 F1538
G1 X69.565 Y95.283 Z2.278 E0.46821 F1538
G1 X70.162 Y93.498 Z2.281 E0.46936 F1534
G1 X70.786 Y91.714 Z2.283 E0.47153 F1527
G1 X70.605 Y91.630 Z2.286 E0.04989 F2100
G1 X71.225 Y89.815 Z2.289 E0.47839 F1505
G1 X71.895 Y88.000 Z2.292 E0.48261 F1492
G1 X72.624 Y86.189 Z2.294 E0.48701 F1478
G1 X73.423 Y84.388 Z2.297 E0.49136 F1465
G1 X73.138 Y84.189 Z2.300 E0.08664 F2100
G1 X74.024 Y82.394 Z2.303 E0.49923 F1442
G1 X75.004 Y80.635 Z2.306 E0.50242 F1433
G1 X76.085 Y78.923 Z2.308 E0.50512 F1425
G1 X77.271 Y77.271 Z2.311 E0.50721 F1420
G1 X77.097 Y77.097 Z2.314 E0.06150 F2100
G1 X78.428 Y75.545 Z2.317 E0.50996 F1412
G1 X79.867 Y74.088 Z2.319 E0.51075 F1410
G1 X81.407 Y72.736 Z2.322 E0.51118 F1408
G1 X83.042 Y71.500 Z2.325 E0.51142 F1408
G1 X83.059 Y71.525 Z2.328 E0.00761 F2100
G1 X84.812 Y70.462 Z2.331 E0.51119 F1408
G1 X86.634 Y69.529 Z2.333 E0.51073 F1410
G1 X88.514 Y68.726 Z2.336 E0.50997 F1412
G1 X90.439 Y68.051 Z2.339 E0.50882 F1415
G1 X90.560 Y68.310 Z2.342 E0.07124 F2100
G1 X92.517 Y67.793 Z2.344 E0.50509 F1425
G1 X94.490 Y67.387 Z2.347 E0.50245 F1433
G1 X96.468 Y67.083 Z2.350 E0.49921 F1442
G1 X98.443 Y66.869 Z2.353 E0.49550 F1453
G1 X98.530 Y67.194 Z2.356 E0.08400 F2100
G1 X100.477 Y67.043 Z2.358 E0.48702 F1478
G1 X102.409 Y66.950 Z2.361 E0.48260 F1492
G1 X104.326 Y66.904 Z2.364 E0.47839 F1505
G1 X106.229 Y66.897 Z2.367 E0.47462 F1517
G1 X106.242 Y67.043 Z2.369 E0.03676 F2100
G1 X108.123 Y67.011 Z2.372 E0.46935 F1534
G1 X110.000 Y67.000 Z2.375 E0.46822 F1538
G1 X111.877 Y67.011 Z2.378 E0.46822 F1538
G1 X113.758 Y67.043 Z2.381 E0.46935 F1534
G1 X113.771 Y66.897 Z2.383 E0.03676 F2100
G1 X115.674 Y66.904 Z2.386 E0.47462 F1517
G1 X117.591 Y66.950 Z2.389 E0.47839 F1505
G1 X119.523 Y67.043 Z2.392 E0.48260 F1492
G1 X121.470 Y67.194 Z2.394 E0.48702 F1478
G1 X121.557 Y66.869 Z2.397 E0.08400 F2100
G1 X123.532 Y67.083 Z2.400 E0.49550 F1453
G1 X125.510 Y67.387 Z2.403 E0.49921 F1442
G1 X127.483 Y67.793 Z2.406 E0.50245 F1433
G1 X129.440 Y68.310 Z2.408 E0.50509 F1425
G1 X129.561 Y68.051 Z2.411 E0.07124 F2100
G1 X131.486 Y68.726 Z2.414 E0.50882 F1415
G1 X133.366 Y69.529 Z2.417 E0.50997 F1412
G1 X135.188 Y70.462 Z2.419 E0.51073 F1410
G1 X136.941 Y71.525 Z2.422 E0.51119 F1408
G1 X136.958 Y71.500 Z2.425 E0.00761 F2100
G1 X138.593 Y72.736 Z2.428 E0.51142 F1408
G1 X140.133 Y74.088 Z2.431 E0.51118 F1408
G1 X141.572 Y75.545 Z2.433 E0.51075 F1410
G1 X142.903 Y77.097 Z2.436 E0.50996 F1412
G1 X142.729 Y77.271 Z2.439 E0.06150 F2100
G1 X143.915 Y78.923 Z2.442 E0.50721 F1420
G1 X144.996 Y80.635 Z2.444 E0.50512 F1425
G1 X145.976 Y82.394 Z2.447 E0.50242 F1433
G1 X146.862 Y84.189 Z2.450 E0.49923 F1442
G1 X146.577 Y84.388 Z2.453 E0.08664 F2100
G1 X147.376 Y86.189 Z2.456 E0.49136 F1465
G1 X148.105 Y88.000 Z2.458 E0.48701 F1478
G1 X148.775 Y89.815 Z2.461 E0.48261 F1492
G1 X149.395 Y91.630 Z2.464 E0.47839 F1505
G1 X149.214 Y91.714 Z2.467 E0.04989 F2100
G1 X149.838 Y93.498 Z2.469 E0.47153 F1527
G1 X150.435 Y95.283 Z2.472 E0.46936 F1534
G1 X151.010 Y97.070 Z2.475 E0.46821 F1538
G1 X151.564 Y98.863 Z2.478 E0.46822 F1538
G1 X151.651 Y98.840 Z2.481 E0.02252 F2100
G1 X152.242 Y100.635 Z2.483 E0.47154 F1527
G1 X152.807 Y102.452 Z2.486 E0.47462 F1517
G1 X153.340 Y104.294 Z2.489 E0.47839 F1505
G1 X153.833 Y106.165 Z2.492 E0.48261 F1492
G1 X154.147 Y106.138 Z2.494 E0.07882 F2100
G1 X154.610 Y108.052 Z2.497 E0.49138 F1465
G1 X155.000 Y110.000 Z2.500 E0.49549 F1453
G1 X155.304 Y111.978 Z2.503 E0.49922 F1442
G1 X155.510 Y113.982 Z2.506 E0.50244 F1433
G1 X155.825 Y114.009 Z2.508 E0.07882 F2100
G1 X155.890 Y116.041 Z2.511 E0.50722 F1420
G1 X155.825 Y118.080 Z2.514 E0.50882 F1415
G1 X155.624 Y120.115 Z2.517 E0.50996 F1412
G1 X155.282 Y122.133 Z2.519 E0.51074 F1410
G1 X155.369 Y122.157 Z2.522 E0.02252 F2100
G1 X154.825 Y124.133 Z2.525 E0.51141 F1408
G1 X154.137 Y126.065 Z2.528 E0.51140 F1408
G1 X153.311 Y127.940 Z2.531 E0.51121 F1408
G1 X152.354 Y129.750 Z2.533 E0.51073 F1410
G1 X152.172 Y129.665 Z2.536 E0.04989 F2100
G1 X151.056 Y131.372 Z2.539 E0.50882 F1415
G1 X149.837 Y133.000 Z2.542 E0.50723 F1419
G1 X148.530 Y134.546 Z2.544 E0.50510 F1425
G1 X147.146 Y136.010 Z2.547 E0.50243 F1433
G1 X146.862 Y135.811 Z2.550 E0.08664 F2100
G1 X145.425 Y137.183 Z2.553 E0.49550 F1453
G1 X143.948 Y138.486 Z2.556 E0.49136 F1465
G1 X142.440 Y139.726 Z2.558 E0.48702 F1478
G1 X140.911 Y140.911 Z2.561 E0.48260 F1492
G1 X140.736 Y140.736 Z2.564 E0.06150 F2100
G1 X139.231 Y141.900 Z2.567 E0.47462 F1517
G1 X137.717 Y143.032 Z2.569 E0.47155 F1527
G1 X136.195 Y144.138 Z2.572 E0.46934 F1534
G1 X134.664 Y145.223 Z2.575 E0.46823 F1538
G1 X134.681 Y145.248 Z2.578 E0.00761 F2100
G1 X133.169 Y146.368 Z2.581 E0.46934 F1534
G1 X131.634 Y147.471 Z2.583 E0.47154 F1527
G1 X130.071 Y148.557 Z2.586 E0.47463 F1517
G1 X128.474 Y149.619 Z2.589 E0.47839 F1505
G1 X128.595 Y149.877 Z2.592 E0.07124 F2100
G1 X126.959 Y150.943 Z2.594 E0.48701 F1478
G1 X125.272 Y151.960 Z2.597 E0.49139 F1465
G1 X123.532 Y152.917 Z2.600 E0.49549 F1453
G1 X121.737 Y153.802 Z2.603 E0.49922 F1442
G1 X121.824 Y154.127 Z2.606 E0.08400 F2100
G1 X119.956 Y154.910 Z2.608 E0.50511 F1425
G1 X118.037 Y155.582 Z2.611 E0.50722 F1420
G1 X116.074 Y156.134 Z2.614 E0.50882 F1415
G1 X114.073 Y156.554 Z2.617 E0.50997 F1412
G1 X114.086 Y156.701 Z2.619 E0.03676 F2100
G1 X112.049 Y156.925 Z2.622 E0.51120 F1408
G1 X110.000 Y157.000 Z2.625 E0.51141 F1408
G1 X107.951 Y156.925 Z2.628 E0.51141 F1408
G1 X105.914 Y156.701 Z2.631 E0.51120 F1408
G1 X105.927 Y156.554 Z2.633 E0.03676 F2100
G1 X103.926 Y156.134 Z2.636 E0.50997 F1412
G1 X101.963 Y155.582 Z2.639 E0.50882 F1415
G1 X100.044 Y154.910 Z2.642 E0.50722 F1420
G1 X98.176 Y154.127 Z2.644 E0.50511 F1425
G1 X98.263 Y153.802 Z2.647 E0.08400 F2100
G1 X96.468 Y152.917 Z2.650 E0.49922 F1442
G1 X94.728 Y151.960 Z2.653 E0.49549 F1453
G1 X93.041 Y150.943 Z2.656 E0.49139 F1465
G1 X91.405 Y149.877 Z2.658 E0.48701 F1478
G1 X91.526 Y149.619 Z2.661 E0.07124 F2100
G1 X89.929 Y148.557 Z2.664 E0.47839 F1505
G1 X88.366 Y147.471 Z2.667 E0.47463 F1517
G1 X86.831 Y146.368 Z2.669 E0.47154 F1527
G1 X85.319 Y145.248 Z2.672 E0.46934 F1534
G1 X85.336 Y145.223 Z2.675 E0.00761 F2100
G1 X83.805 Y144.138 Z2.678 E0.46823 F1538
G1 X82.283 Y143.032 Z2.681 E0.46934 F1534
G1 X80.769 Y141.900 Z2.683 E0.47155 F1527
G1 X79.264 Y140.736 Z2.686 E0.47462 F1517
G1 X79.089 Y140.911 Z2.689 E0.06150 F2100
G1 X77.560 Y139.726 Z2.692 E0.48260 F1492
G1 X76.052 Y138.486 Z2.694 E0.48702 F1478
G1 X74.575 Y137.183 Z2.697 E0.49136 F1465
G1 X73.138 Y135.811 Z2.700 E0.49550 F1453
G1 X72.854 Y136.010 Z2.703 E0.08664 F2100
G1 X71.470 Y134.546 Z2.706 E0.50243 F1433
G1 X70.163 Y133.000 Z2.708 E0.50510 F1425
G1 X68.944 Y131.372 Z2.711 E0.50723 F1419
G1 X67.828 Y129.665 Z2.714 E0.50882 F1415
G1 X67.646 Y129.750 Z2.717 E0.04989 F2100
G1 X66.689 Y127.940 Z2.719 E0.51073 F1410
G1 X65.863 Y126.065 Z2.722 E0.51121 F1408
G1 X65.175 Y124.133 Z2.725 E0.51140 F1408
G1 X64.631 Y122.157 Z2.728 E0.51141 F1408
G1 X64.718 Y122.133 Z2.731 E0.02252 F2100
G1 X64.376 Y120.115 Z2.733 E0.51074 F1410
G1 X64.175 Y118.080 Z2.736 E0.50996 F1412
G1 X64.110 Y116.041 Z2.739 E0.50882 F1415
G1 X64.175 Y114.009 Z2.742 E0.50722 F1420
G1 X64.490 Y113.982 Z2.744 E0.07882 F2100
G1 X64.696 Y111.978 Z2.747 E0.50244 F1433
G1 X65.000 Y110.000 Z2.750 E0.49922 F1442
G1 X65.390 Y108.052 Z2.753 E0.49549 F1453
G1 X65.853 Y106.138 Z2.756 E0.49138 F1465
G1 X66.167 Y106.165 Z2.758 E0.07882 F2100
G1 X66.660 Y104.294 Z2.761 E0.48261 F1492
G1 X67.193 Y102.452 Z2.764 E0.47839 F1505
G1 X67.758 Y100.635 Z2.767 E0.47462 F1517
G1 X68.349 Y98.840 Z2.769 E0.47154 F1527
G1 X68.436 Y98.863 Z2.772 E0.02252 F2100
G1 X68.990 Y97.070 Z2.775 E0.46822 F1538
G1 X69.565 Y95.283 Z2.778 E0.46821 F1538
G1 X70.162 Y93.498 Z2.781 E0.46936 F1534
G1 X70.786 Y91.714 Z2.783 E0.47153 F1527
G1 X70.605 Y91.630 Z2.786 E0.04989 F2100
G1 X71.225 Y89.815 Z2.789 E0.47839 F1505
G1 X71.895 Y88.000 Z2.792 E0.48261 F1492
G1 X72.624 Y86.189 Z2.794 E0.48701 F1478
G1 X73.423 Y84.388 Z2.797 E0.49136 F1465
G1 X73.138 Y84.189 Z2.800 E0.08664 F2100
G1 X74.024 Y82.394 Z2.803 E0.49923 F1442
G1 X75.004 Y80.635 Z2.806 E0.50242 F1433
G1 X76.085 Y78.923 Z2.808 E0.50512 F1425
G1 X77.271 Y77.271 Z2.811 E0.50721 F1420
G1 X77.097 Y77.097 Z2.814 E0.06150 F2100
G1 X78.428 Y75.545 Z2.817 E0.50996 F1412
G1 X79.867 Y74.088 Z2.819 E0.51075 F1410
G1 X81.407 Y72.736 Z2.822 E0.51118 F1408
G1 X83.042 Y71.500 Z2.825 E0.51142 F1408
G1 X83.059 Y71.525 Z2.828 E0.00761 F2100
G1 X84.812 Y70.462 Z2.831 E0.51119 F1408
G1 X86.634 Y69.529 Z2.833 E0.51073 F1410
G1 X88.514 Y68.726 Z2.836 E0.50997 F1412
G1 X90.439 Y68.051 Z2.839 E0.50882 F1415
G1 X90.560 Y68.310 Z2.842 E0.07124 F2100
G1 X92.517 Y67.793 Z2.844 E0.50509 F1425
G1 X94.490 Y67.387 Z2.847 E0.50245 F1433
G1 X96.468 Y67.083 Z2.850 E0.49921 F1442
G1 X98.443 Y66.869 Z2.853 E0.49550 F1453
G1 X98.530 Y67.194 Z2.856 E0.08400 F2100
G1 X100.477 Y67.043 Z2.858 E0.48702 F1478
G1 X102.409 Y66.950 Z2.861 E0.48260 F1492
G1 X104.326 Y66.904 Z2.864 E0.47839 F1505
G1 X106.229 Y66.897 Z2.867 E0.47462 F1517
G1 X106.242 Y67.043 Z2.869 E0.03676 F2100
G1 X108.123 Y67.011 Z2.872 E0.46935 F1534
G1 X110.000 Y67.000 Z2.875 E0.46822 F1538
G1 X111.877 Y67.011 Z2.878 E0.46822 F1538
G1 X113.758 Y67.043 Z2.881 E0.46935 F1534
G1 X113.771 Y66.897 Z2.883 E0.03676 F2100
G1 X115.674 Y66.904 Z2.886 E0.47462 F1517
G1 X117.591 Y66.950 Z2.889 E0.47839 F1505
G1 X119.523 Y67.043 Z2.892 E0.48260 F1492
G1 X121.470 Y67.194 Z2.894 E0.48702 F1478
G1 X121.557 Y66.869 Z2.897 E0.08400 F2100
G1 X123.532 Y67.083 Z2.900 E0.49550 F1453
G1 X125.510 Y67.387 Z2.903 E0.49921 F1442
G1 X127.483 Y67.793 Z2.906 E0.50245 F1433
G1 X129.440 Y68.310 Z2.908 E0.50509 F1425
G1 X129.561 Y68.051 Z2.911 E0.07124 F2100
G1 X131.486 Y68.726 Z2.914 E0.50882 F1415
G1 X133.366 Y69.529 Z2.917 E0.50997 F1412
G1 X135.188 Y70.462 Z2.919 E0.51073 F1410
G1 X136.941 Y71.525 Z2.922 E0.51119 F1408
G1 X136.958 Y71.500 Z2.925 E0.00761 F2100
G1 X138.593 Y72.736 Z2.928 E0.51142 F1408
G1 X140.133 Y74.088 Z2.931 E0.51118 F1408
G1 X141.572 Y75.545 Z2.933 E0.51075 F1410
G1 X142.903 Y77.097 Z2.936 E0.50996 F1412
G1 X142.729 Y77.271 Z2.939 E0.06150 F2100
G1 X143.915 Y78.923 Z2.942 E0.50721 F1420
G1 X144.996 Y80.635 Z2.944 E0.50512 F1425
G1 X145.976 Y82.394 Z2.947 E0.50242 F1433
G1 X146.862 Y84.189 Z2.950 E0.49923 F1442
G1 X146.577 Y84.388 Z2.953 E0.08664 F2100
G1 X147.376 Y86.189 Z2.956 E0.49136 F1465
G1 X148.105 Y88.000 Z2.958 E0.48701 F1478
G1 X148.775 Y89.815 Z2.961 E0.48261 F1492
G1 X149.395 Y91.630 Z2.964 E0.47839 F1505
G1 X149.214 Y91.714 Z2.967 E0.04989 F2100
G1 X149.838 Y93.498 Z2.969 E0.47153 F1527
G1 X150.435 Y95.283 Z2.972 E0.46936 F1534
G1 X151.010 Y97.070 Z2.975 E0.46821 F1538
G1 X151.564 Y98.863 Z2.978 E0.46822 F1538
G1 X151.651 Y98.840 Z2.981 E0.02252 F2100
G1 X152.242 Y100.635 Z2.983 E0.47154 F1527
G1 X152.807 Y102.452 Z2.986 E0.47462 F1517
G1 X153.340 Y104.294 Z2.989 E0.47839 F1505
G1 X153.833 Y106.165 Z2.992 E0.48261 F1492
G1 X154.147 Y106.138 Z2.994 E0.07882 F2100
G1 X154.610 Y108.052 Z2.997 E0.49138 F1465
G1 X155.000 Y110.000 Z3.000 E0.49549 F1453
G1 X155.304 Y111.978 Z3.003 E0.49922 F1442
G1 X155.510 Y113.982 Z3.006 E0.50244 F1433
G1 X155.825 Y114.009 Z3.008 E0.07882 F2100
G1 X155.890 Y116.041 Z3.011 E0.50722 F1420
G1 X155.825 Y118.080 Z3.014 E0.50882 F1415
G1 X155.624 Y120.115 Z3.017 E0.50996 F1412
G1 X155.282 Y122.133 Z3.019 E0.51074 F1410
G1 X155.369 Y122.157 Z3.022 E0.02252 F2100
G1 X154.825 Y124.133 Z3.025 E0.51141 F1408
G1 X154.137 Y126.065 Z3.028 E0.51140 F1408
G1 X153.311 Y127.940 Z3.031 E0.51121 F1408
G1 X152.354 Y129.750 Z3.033 E0.51073 F1410
G1 X152.172 Y129.665 Z3.036 E0.04989 F2100
G1 X151.056 Y131.372 Z3.039 E0.50882 F1415
G1 X149.837 Y133.000 Z3.042 E0.50723 F1419
G1 X148.530 Y134.546 Z3.044 E0.50510 F1425
G1 X147.146 Y136.010 Z3.047 E0.50243 F1433
G1 X146.862 Y135.811 Z3.050 E0.08664 F2100
G1 X145.425 Y137.183 Z3.053 E0.49550 F1453
G1 X143.948 Y138.486 Z3.056 E0.49136 F1465
G1 X142.440 Y139.726 Z3.058 E0.48702 F1478
G1 X140.911 Y140.911 Z3.061 E0.48260 F1492
G1 X140.736 Y140.736 Z3.064 E0.06150 F2100
G1 X139.231 Y141.900 Z3.067 E0.47462 F1517
G1 X137.717 Y143.032 Z3.069 E0.47155 F1527
G1 X136.195 Y144.138 Z3.072 E0.46934 F1534
G1 X134.664 Y145.223 Z3.075 E0.46823 F1538
G1 X134.681 Y145.248 Z3.078 E0.00761 F2100
G1 X133.169 Y146.368 Z3.081 E0.46934 F1534
G1 X131.634 Y147.471 Z3.083 E0.47154 F1527
G1 X130.071 Y148.557 Z3.086 E0.47463 F1517
G1 X128.474 Y149.619 Z3.089 E0.47839 F1505
G1 X128.595 Y149.877 Z3.092 E0.07124 F2100
G1 X126.959 Y150.943 Z3.094 E0.48701 F1478
G1 X125.272 Y151.960 Z3.097 E0.49139 F1465
G1 X123.532 Y152.917 Z3.100 E0.49549 F1453
G1 X121.737 Y153.802 Z3.103 E0.49922 F1442
G1 X121.824 Y154.127 Z3.106 E0.08400 F2100
G1 X119.956 Y154.910 Z3.108 E0.50511 F1425
G1 X118.037 Y155.582 Z3.111 E0.50722 F1420
G1 X116.074 Y156.134 Z3.114 E0.50882 F1415
G1 X114.073 Y156.554 Z3.117 E0.50997 F1412
G1 X114.086 Y156.701 Z3.119 E0.03676 F2100
G1 X112.049 Y156.925 Z3.122 E0.51120 F1408
G1 X110.000 Y157.000 Z3.125 E0.51141 F1408
G1 X107.951 Y156.925 Z3.128 E0.51141 F1408
G1 X105.914 Y156.701 Z3.131 E0.51120 F1408
G1 X105.927 Y156.554 Z3.133 E0.03676 F2100
G1 X103.926 Y156.134 Z3.136 E0.50997 F1412
G1 X101.963 Y155.582 Z3.139 E0.50882 F1415
G1 X100.044 Y154.910 Z3.142 E0.50722 F1420
G1 X98.176 Y154.127 Z3.144 E0.50511 F1425
G1 X98.263 Y153.802 Z3.147 E0.08400 F2100
G1 X96.468 Y152.917 Z3.150 E0.49922 F1442
G1 X94.728 Y151.960 Z3.153 E0.49549 F1453
G1 X93.041 Y150.943 Z3.156 E0.49139 F1465
G1 X91.405 Y149.877 Z3.158 E0.48701 F1478
G1 X91.526 Y149.619 Z3.161 E0.07124 F2100
G1 X89.929 Y148.557 Z3.164 E0.47839 F1505
G1 X88.366 Y147.471 Z3.167 E0.47463 F1517
G1 X86.831 Y146.368 Z3.169 E0.47154 F1527
G1 X85.319 Y145.248 Z3.172 E0.46934 F1534
G1 X85.336 Y145.223 Z3.175 E0.00761 F2100
G1 X83.805 Y144.138 Z3.178 E0.46823 F1538
G1 X82.283 Y143.032 Z3.181 E0.46934 F1534
G1 X80.769 Y141.900 Z3.183 E0.47155 F1527
G1 X79.264 Y140.736 Z3.186 E0.47462 F1517
G1 X79.089 Y140.911 Z3.189 E0.06150 F2100
G1 X77.560 Y139.726 Z3.192 E0.48260 F1492
G1 X76.052 Y138.486 Z3.194 E0.48702 F1478
G1 X74.575 Y137.183 Z3.197 E0.49136 F1465
G1 X73.138 Y135.811 Z3.200 E0.49550 F1453
G1 X72.854 Y136.010 Z3.203 E0.08664 F2100
G1 X71.470 Y134.546 Z3.206 E0.50243 F1433
G1 X70.163 Y133.000 Z3.208 E0.50510 F1425
G1 X68.944 Y131.372 Z3.211 E0.50723 F1419
G1 X67.828 Y129.665 Z3.214 E0.50882 F1415
G1 X67.646 Y129.750 Z3.217 E0.04989 F2100
G1 X66.689 Y127.940 Z3.219 E0.51073 F1410
G1 X65.863 Y126.065 Z3.222 E0.51121 F1408
G1 X65.175 Y124.133 Z3.225 E0.51140 F1408
G1 X64.631 Y122.157 Z3.228 E0.51141 F1408
G1 X64.718 Y122.133 Z3.231 E0.02252 F2100
G1 X64.376 Y120.115 Z3.233 E0.51074 F1410
G1 X64.175 Y118.080 Z3.236 E0.50996 F1412
G1 X64.110 Y116.041 Z3.239 E0.50882 F1415
G1 X64.175 Y114.009 Z3.242 E0.50722 F1420
G1 X64.490 Y113.982 Z3.244 E0.07882 F2100
G1 X64.696 Y111.978 Z3.247 E0.50244 F1433
G1 X65.000 Y110.000 Z3.250 E0.49922 F1442
G1 X65.390 Y108.052 Z3.253 E0.49549 F1453
G1 X65.853 Y106.138 Z3.256 E0.49138 F1465
G1 X66.167 Y106.165 Z3.258 E0.07882 F2100
G1 X66.660 Y104.294 Z3.261 E0.48261 F1492
G1 X67.193 Y102.452 Z3.264 E0.47839 F1505
G1 X67.758 Y100.635 Z3.267 E0.47462 F1517
G1 X68.349 Y98.840 Z3.269 E0.47154 F1527
G1 X68.436 Y98.863 Z3.272 E0.02252 F2100
G1 X68.990 Y97.070 Z3.275 E0.46822 F1538
G1 X69.565 Y95.283 Z3.278 E0.46821 F1538
G1 X70.162 Y93.498 Z3.281 E0.46936 F1534
G1 X70.786 Y91.714 Z3.283 E0.47153 F1527
G1 X70.605 Y91.630 Z3.286 E0.04989 F2100
G1 X71.225 Y89.815 Z3.289 E0.47839 F1505
G1 X71.895 Y88.000 Z3.292 E0.48261 F1492
G1 X72.624 Y86.189 Z3.294 E0.48701 F1478
G1 X73.423 Y84.388 Z3.297 E0.49136 F1465
G1 X73.138 Y84.189 Z3.300 E0.08664 F2100
G1 X74.024 Y82.394 Z3.303 E0.49923 F1442
G1 X75.004 Y80.635 Z3.306 E0.50242 F1433
G1 X76.085 Y78.923 Z3.308 E0.50512 F1425
G1 X77.271 Y77.271 Z3.311 E0.50721 F1420
G1 X77.097 Y77.097 Z3.314 E0.06150 F2100
G1 X78.428 Y75.545 Z3.317 E0.50996 F1412
G1 X79.867 Y74.088 Z3.319 E0.51075 F1410
G1 X81.407 Y72.736 Z3.322 E0.51118 F1408
G1 X83.042 Y71.500 Z3.325 E0.51142 F1408
G1 X83.059 Y71.525 Z3.328 E0.00761 F2100
G1 X84.812 Y70.462 Z3.331 E0.51119 F1408
G1 X86.634 Y69.529 Z3.333 E0.51073 F1410
G1 X88.514 Y68.726 Z3.336 E0.50997 F1412
G1 X90.439 Y68.051 Z3.339 E0.50882 F1415
G1 X90.560 Y68.310 Z3.342 E0.07124 F2100
G1 X92.517 Y67.793 Z3.344 E0.50509 F1425
G1 X94.490 Y67.387 Z3.347 E0.50245 F1433
G1 X96.468 Y67.083 Z3.350 E0.49921 F1442
G1 X98.443 Y66.869 Z3.353 E0.49550 F1453
G1 X98.530 Y67.194 Z3.356 E0.08400 F2100
G1 X100.477 Y67.043 Z3.358 E0.48702 F1478
G1 X102.409 Y66.950 Z3.361 E0.48260 F1492
G1 X104.326 Y66.904 Z3.364 E0.47839 F1505
G1 X106.229 Y66.897 Z3.367 E0.47462 F1517
G1 X106.242 Y67.043 Z3.369 E0.03676 F2100
G1 X108.123 Y67.011 Z3.372 E0.46935 F1534
G1 X110.000 Y67.000 Z3.375 E0.46822 F1538
G1 X111.877 Y67.011 Z3.378 E0.46822 F1538
G1 X113.758 Y67.043 Z3.381 E0.46935 F1534
G1 X113.771 Y66.897 Z3.383 E0.03676 F2100
G1 X115.674 Y66.904 Z3.386 E0.47462 F1517
G1 X117.591 Y66.950 Z3.389 E0.47839 F1505
G1 X119.523 Y67.043 Z3.392 E0.48260 F1492
G1 X121.470 Y67.194 Z3.394 E0.48702 F1478
G1 X121.557 Y66.869 Z3.397 E0.08400 F2100
G1 X123.532 Y67.083 Z3.400 E0.49550 F1453
G1 X125.510 Y67.387 Z3.403 E0.49921 F1442
G1 X127.483 Y67.793 Z3.406 E0.50245 F1433
G1 X129.440 Y68.310 Z3.408 E0.50509 F1425
G1 X129.561 Y68.051 Z3.411 E0.07124 F2100
G1 X131.486 Y68.726 Z3.414 E0.50882 F1415
G1 X133.366 Y69.529 Z3.417 E0.50997 F1412
G1 X135.188 Y70.462 Z3.419 E0.51073 F1410
G1 X136.941 Y71.525 Z3.422 E0.51119 F1408
G1 X136.958 Y71.500 Z3.425 E0.00761 F2100
G1 X138.593 Y72.736 Z3.428 E0.51142 F1408
G1 X140.133 Y74.088 Z3.431 E0.51118 F1408
G1 X141.572 Y75.545 Z3.433 E0.51075 F1410
G1 X142.903 Y77.097 Z3.436 E0.50996 F1412
G1 X142.729 Y77.271 Z3.439 E0.06150 F2100
G1 X143.915 Y78.923 Z3.442 E0.50721 F1420
G1 X144.996 Y80.635 Z3.444 E0.50512 F1425
G1 X145.976 Y82.394 Z3.447 E0.50242 F1433
G1 X146.862 Y84.189 Z3.450 E0.49923 F1442
G1 X146.577 Y84.388 Z3.453 E0.08664 F2100
G1 X147.376 Y86.189 Z3.456 E0.49136 F1465
G1 X148.105 Y88.000 Z3.458 E0.48701 F1478
G1 X148.775 Y89.815 Z3.461 E0.48261 F1492
G1 X149.395 Y91.630 Z3.464 E0.47839 F1505
G1 X149.214 Y91.714 Z3.467 E0.04989 F2100
G1 X149.838 Y93.498 Z3.469 E0.47153 F1527
G1 X150.435 Y95.283 Z3.472 E0.46936 F1534
G1 X151.010 Y97.070 Z3.475 E0.46821 F1538
G1 X151.564 Y98.863 Z3.478 E0.46822 F1538
G1 X151.651 Y98.840 Z3.481 E0.02252 F2100
G1 X152.242 Y100.635 Z3.483 E0.47154 F1527
G1 X152.807 Y102.452 Z3.486 E0.47462 F1517
G1 X153.340 Y104.294 Z3.489 E0.47839 F1505
G1 X153.833 Y106.165 Z3.492 E0.48261 F1492
G1 X154.147 Y106.138 Z3.494 E0.07882 F2100
G1 X154.610 Y108.052 Z3.497 E0.49138 F1465
G1 X155.000 Y110.000 Z3.500 E0.49549 F1453
G1 X155.304 Y111.978 Z3.503 E0.49922 F1442
G1 X155.510 Y113.982 Z3.506 E0.50244 F1433
G1 X155.825 Y114.009 Z3.508 E0.07882 F2100
G1 X155.890 Y116.041 Z3.511 E0.50722 F1420
G1 X155.825 Y118.080 Z3.514 E0.50882 F1415
G1 X155.624 Y120.115 Z3.517 E0.50996 F1412
G1 X155.282 Y122.133 Z3.519 E0.51074 F1410
G1 X155.369 Y122.157 Z3.522 E0.02252 F2100
G1 X154.825 Y124.133 Z3.525 E0.51141 F1408
G1 X154.137 Y126.065 Z3.528 E0.51140 F1408
G1 X153.311 Y127.940 Z3.531 E0.51121 F1408
G1 X152.354 Y129.750 Z3.533 E0.51073 F1410
G1 X152.172 Y129.665 Z3.536 E0.04989 F2100
G1 X151.056 Y131.372 Z3.539 E0.50882 F1415
G1 X149.837 Y133.000 Z3.542 E0.50723 F1419
G1 X148.530 Y134.546 Z3.544 E0.50510 F1425
G1 X147.146 Y136.010 Z3.547 E0.50243 F1433
G1 X146.862 Y135.811 Z3.550 E0.08664 F2100
G1 X145.425 Y137.183 Z3.553 E0.49550 F1453
G1 X143.948 Y138.486 Z3.556 E0.49136 F1465
G1 X142.440 Y139.726 Z3.558 E0.48702 F1478
G1 X140.911 Y140.911 Z3.561 E0.48260 F1492
G1 X140.736 Y140.736 Z3.564 E0.06150 F2100
G1 X139.231 Y141.900 Z3.567 E0.47462 F1517
G1 X137.717 Y143.032 Z3.569 E0.47155 F1527
G1 X136.195 Y144.138 Z3.572 E0.46934 F1534
G1 X134.664 Y145.223 Z3.575 E0.46823 F1538
G1 X134.681 Y145.248 Z3.578 E0.00761 F2100
G1 X133.169 Y146.368 Z3.581 E0.46934 F1534
G1 X131.634 Y147.471 Z3.583 E0.47154 F1527
G1 X130.071 Y148.557 Z3.586 E0.47463 F1517
G1 X128.474 Y149.619 Z3.589 E0.47839 F1505
G1 X128.595 Y149.877 Z3.592 E0.07124 F2100
G1 X126.959 Y150.943 Z3.594 E0.48701 F1478
G1 X125.272 Y151.960 Z3.597 E0.49139 F1465
G1 X123.532 Y152.917 Z3.600 E0.49549 F1453
G1 X121.737 Y153.802 Z3.603 E0.49922 F1442
G1 X121.824 Y154.127 Z3.606 E0.08400 F2100
G1 X119.956 Y154.910 Z3.608 E0.50511 F1425
G1 X118.037 Y155.582 Z3.611 E0.50722 F1420
G1 X116.074 Y156.134 Z3.614 E0.50882 F1415
G1 X114.073 Y156.554 Z3.617 E0.50997 F1412
G1 X114.086 Y156.701 Z3.619 E0.03676 F2100
G1 X112.049 Y156.925 Z3.622 E0.51120 F1408
G1 X110.000 Y157.000 Z3.625 E0.51141 F1408
G1 X107.951 Y156.925 Z3.628 E0.51141 F1408
G1 X105.914 Y156.701 Z3.631 E0.51120 F1408
G1 X105.927 Y156.554 Z3.633 E0.03676 F2100
G1 X103.926 Y156.134 Z3.636 E0.50997 F1412
G1 X101.963 Y155.582 Z3.639 E0.50882 F1415
G1 X100.044 Y154.910 Z3.642 E0.50722 F1420
G1 X98.176 Y154.127 Z3.644 E0.50511 F1425
G1 X98.263 Y153.802 Z3.647 E0.08400 F2100
G1 X96.468 Y152.917 Z3.650 E0.49922 F1442
G1 X94.728 Y151.960 Z3.653 E0.49549 F1453
G1 X93.041 Y150.943 Z3.656 E0.49139 F1465
G1 X91.405 Y149.877 Z3.658 E0.48701 F1478
G1 X91.526 Y149.619 Z3.661 E0.07124 F2100
G1 X89.929 Y148.557 Z3.664 E0.47839 F1505
G1 X88.366 Y147.471 Z3.667 E0.47463 F1517
G1 X86.831 Y146.368 Z3.669 E0.47154 F1527
G1 X85.319 Y145.248 Z3.672 E0.46934 F1534
G1 X85.336 Y145.223 Z3.675 E0.00761 F2100
G1 X83.805 Y144.138 Z3.678 E0.46823 F1538
G1 X82.283 Y143.032 Z3.681 E0.46934 F1534
G1 X80.769 Y141.900 Z3.683 E0.47155 F1527
G1 X79.264 Y140.736 Z3.686 E0.47462 F1517
G1 X79.089 Y140.911 Z3.689 E0.06150 F2100
G1 X77.560 Y139.726 Z3.692 E0.48260 F1492
G1 X76.052 Y138.486 Z3.694 E0.48702 F1478
G1 X74.575 Y137.183 Z3.697 E0.49136 F1465
G1 X73.138 Y135.811 Z3.700 E0.49550 F1453
G1 X72.854 Y136.010 Z3.703 E0.08664 F2100
G1 X71.470 Y134.546 Z3.706 E0.50243 F1433
G1 X70.163 Y133.000 Z3.708 E0.50510 F1425
G1 X68.944 Y131.372 Z3.711 E0.50723 F1419
G1 X67.828 Y129.665 Z3.714 E0.50882 F1415
G1 X67.646 Y129.750 Z3.717 E0.04989 F2100
G1 X66.689 Y127.940 Z3.719 E0.51073 F1410
G1 X65.863 Y126.065 Z3.722 E0.51121 F1408
G1 X65.175 Y124.133 Z3.725 E0.51140 F1408
G1 X64.631 Y122.157 Z3.728 E0.51141 F1408
G1 X64.718 Y122.133 Z3.731 E0.02252 F2100
G1 X64.376 Y120.115 Z3.733 E0.51074 F1410
G1 X64.175 Y118.080 Z3.736 E0.50996 F1412
G1 X64.110 Y116.041 Z3.739 E0.50882 F1415
G1 X64.175 Y114.009 Z3.742 E0.50722 F1420
G1 X64.490 Y113.982 Z3.744 E0.07882 F2100
G1 X64.696 Y111.978 Z3.747 E0.50244 F1433
G1 X65.000 Y110.000 Z3.750 E0.49922 F1442
G1 X65.390 Y108.052 Z3.753 E0.49549 F1453
G1 X65.853 Y106.138 Z3.756 E0.49138 F1465
G1 X66.167 Y106.165 Z3.758 E0.07882 F2100
G1 X66.660 Y104.294 Z3.761 E0.48261 F1492
G1 X67.193 Y102.452 Z3.764 E0.47839 F1505
G1 X67.758 Y100.635 Z3.767 E0.47462 F1517
G1 X68.349 Y98.840 Z3.769 E0.47154 F1527
G1 X68.436 Y98.863 Z3.772 E0.02252 F2100
G1 X68.990 Y97.070 Z3.775 E0.46822 F1538
G1 X69.565 Y95.283 Z3.778 E0.46821 F1538
G1 X70.162 Y93.498 Z3.781 E0.46936 F1534
G1 X70.786 Y91.714 Z3.783 E0.47153 F1527
G1 X70.605 Y91.630 Z3.786 E0.04989 F2100
G1 X71.225 Y89.815 Z3.789 E0.47839 F1505
G1 X71.895 Y88.000 Z3.792 E0.48261 F1492
G1 X72.624 Y86.189 Z3.794 E0.48701 F1478
G1 X73.423 Y84.388 Z3.797 E0.49136 F1465
G1 X73.138 Y84.189 Z3.800 E0.08664 F2100
G1 X74.024 Y82.394 Z3.803 E0.49923 F1442
G1 X75.004 Y80.635 Z3.806 E0.50242 F1433
G1 X76.085 Y78.923 Z3.808 E0.50512 F1425
G1 X77.271 Y77.271 Z3.811 E0.50721 F1420
G1 X77.097 Y77.097 Z3.814 E0.06150 F2100
G1 X78.428 Y75.545 Z3.817 E0.50996 F1412
G1 X79.867 Y74.088 Z3.819 E0.51075 F1410
G1 X81.407 Y72.736 Z3.822 E0.51118 F1408
G1 X83.042 Y71.500 Z3.825 E0.51142 F1408
G1 X83.059 Y71.525 Z3.828 E0.00761 F2100
G1 X84.812 Y70.462 Z3.831 E0.51119 F1408
G1 X86.634 Y69.529 Z3.833 E0.51073 F1410
G1 X88.514 Y68.726 Z3.836 E0.50997 F1412
G1 X90.439 Y68.051 Z3.839 E0.50882 F1415
G1 X90.560 Y68.310 Z3.842 E0.07124 F2100
G1 X92.517 Y67.793 Z3.844 E0.50509 F1425
G1 X94.490 Y67.387 Z3.847 E0.50245 F1433
G1 X96.468 Y67.083 Z3.850 E0.49921 F1442
G1 X98.443 Y66.869 Z3.853 E0.49550 F1453
G1 X98.530 Y67.194 Z3.856 E0.08400 F2100
G1 X100.477 Y67.043 Z3.858 E0.48702 F1478
G1 X102.409 Y66.950 Z3.861 E0.48260 F1492
G1 X104.326 Y66.904 Z3.864 E0.47839 F1505
G1 X106.229 Y66.897 Z3.867 E0.47462 F1517
G1 X106.242 Y67.043 Z3.869 E0.03676 F2100
G1 X108.123 Y67.011 Z3.872 E0.46935 F1534
G1 X110.000 Y67.000 Z3.875 E0.46822 F1538
G1 X111.877 Y67.011 Z3.878 E0.46822 F1538
G1 X113.758 Y67.043 Z3.881 E0.46935 F1534
G1 X113.771 Y66.897 Z3.883 E0.03676 F2100
G1 X115.674 Y66.904 Z3.886 E0.47462 F1517
G1 X117.591 Y66.950 Z3.889 E0.47839 F1505
G1 X119.523 Y67.043 Z3.892 E0.48260 F1492
G1 X121.470 Y67.194 Z3.894 E0.48702 F1478
G1 X121.557 Y66.869 Z3.897 E0.08400 F2100
G1 X123.532 Y67.083 Z3.900 E0.49550 F1453
G1 X125.510 Y67.387 Z3.903 E0.49921 F1442
G1 X127.483 Y67.793 Z3.906 E0.50245 F1433
G1 X129.440 Y68.310 Z3.908 E0.50509 F1425
G1 X129.561 Y68.051 Z3.911 E0.07124 F2100
G1 X131.486 Y68.726 Z3.914 E0.50882 F1415
G1 X133.366 Y69.529 Z3.917 E0.50997 F1412
G1 X135.188 Y70.462 Z3.919 E0.51073 F1410
G1 X136.941 Y71.525 Z3.922 E0.51119 F1408
G1 X136.958 Y71.500 Z3.925 E0.00761 F2100
G1 X138.593 Y72.736 Z3.928 E0.51142 F1408
G1 X140.133 Y74.088 Z3.931 E0.51118 F1408
G1 X141.572 Y75.545 Z3.933 E0.51075 F1410
G1 X142.903 Y77.097 Z3.936 E0.50996 F1412
G1 X142.729 Y77.271 Z3.939 E0.06150 F2100
G1 X143.915 Y78.923 Z3.942 E0.50721 F1420
G1 X144.996 Y80.635 Z3.944 E0.50512 F1425
G1 X145.976 Y82.394 Z3.947 E0.50242 F1433
G1 X146.862 Y84.189 Z3.950 E0.49923 F1442
G1 X146.577 Y84.388 Z3.953 E0.08664 F2100
G1 X147.376 Y86.189 Z3.956 E0.49136 F1465
G1 X148.105 Y88.000 Z3.958 E0.48701 F1478
G1 X148.775 Y89.815 Z3.961 E0.48261 F1492
G1 X149.395 Y91.630 Z3.964 E0.47839 F1505
G1 X149.214 Y91.714 Z3.967 E0.04989 F2100
G1 X149.838 Y93.498 Z3.969 E0.47153 F1527
G1 X150.435 Y95.283 Z3.972 E0.46936 F1534
G1 X151.010 Y97.070 Z3.975 E0.46821 F1538
G1 X151.564 Y98.863 Z3.978 E0.46822 F1538
G1 X151.651 Y98.840 Z3.981 E0.02252 F2100
G1 X152.242 Y100.635 Z3.983 E0.47154 F1527
G1 X152.807 Y102.452 Z3.986 E0.47462 F1517
G1 X153.340 Y104.294 Z3.989 E0.47839 F1505
G1 X153.833 Y106.165 Z3.992 E0.48261 F1492
G1 X154.147 Y106.138 Z3.994 E0.07882 F2100
G1 X154.610 Y108.052 Z3.997 E0.49138 F1465
G1 X155.000 Y110.000 Z4.000 E0.49549 F1453
G1 X155.304 Y111.978 Z4.003 E0.49922 F1442
G1 X155.510 Y113.982 Z4.006 E0.50244 F1433
G1 X155.825 Y114.009 Z4.008 E0.07882 F2100
G1 X155.890 Y116.041 Z4.011 E0.50722 F1420
G1 X155.825 Y118.080 Z4.014 E0.50882 F1415
G1 X155.624 Y120.115 Z4.017 E0.50996 F1412
G1 X155.282 Y122.133 Z4.019 E0.51074 F1410
G1 X155.369 Y122.157 Z4.022 E0.02252 F2100
G1 X154.825 Y124.133 Z4.025 E0.51141 F1408
G1 X154.137 Y126.065 Z4.028 E0.51140 F1408
G1 X153.311 Y127.940 Z4.031 E0.51121 F1408
G1 X152.354 Y129.750 Z4.033 E0.51073 F1410
G1 X152.172 Y129.665 Z4.036 E0.04989 F2100
G1 X151.056 Y131.372 Z4.039 E0.50882 F1415
G1 X149.837 Y133.000 Z4.042 E0.50723 F1419
G1 X148.530 Y134.546 Z4.044 E0.50510 F1425
G1 X147.146 Y136.010 Z4.047 E0.50243 F1433
G1 X146.862 Y135.811 Z4.050 E0.08664 F2100
G1 X145.425 Y137.183 Z4.053 E0.49550 F1453
G1 X143.948 Y138.486 Z4.056 E0.49136 F1465
G1 X142.440 Y139.726 Z4.058 E0.48702 F1478
G1 X140.911 Y140.911 Z4.061 E0.48260 F1492
G1 X140.736 Y140.736 Z4.064 E0.06150 F2100
G1 X139.231 Y141.900 Z4.067 E0.47462 F1517
G1 X137.717 Y143.032 Z4.069 E0.47155 F1527
G1 X136.195 Y144.138 Z4.072 E0.46934 F1534
G1 X134.664 Y145.223 Z4.075 E0.46823 F1538
G1 X134.681 Y145.248 Z4.078 E0.00761 F2100
G1 X133.169 Y146.368 Z4.081 E0.46934 F1534
G1 X131.634 Y147.471 Z4.083 E0.47154 F1527
G1 X130.071 Y148.557 Z4.086 E0.47463 F1517
G1 X128.474 Y149.619 Z4.089 E0.47839 F1505
G1 X128.595 Y149.877 Z4.092 E0.07124 F2100
G1 X126.959 Y150.943 Z4.094 E0.48701 F1478
G1 X125.272 Y151.960 Z4.097 E0.49139 F1465
G1 X123.532 Y152.917 Z4.100 E0.49549 F1453
G1 X121.737 Y153.802 Z4.103 E0.49922 F1442
G1 X121.824 Y154.127 Z4.106 E0.08400 F2100
G1 X119.956 Y154.910 Z4.108 E0.50511 F1425
G1 X118.037 Y155.582 Z4.111 E0.50722 F1420
G1 X116.074 Y156.134 Z4.114 E0.50882 F1415
G1 X114.073 Y156.554 Z4.117 E0.50997 F1412
G1 X114.086 Y156.701 Z4.119 E0.03676 F2100
G1 X112.049 Y156.925 Z4.122 E0.51120 F1408
G1 X110.000 Y157.000 Z4.125 E0.51141 F1408
G1 X107.951 Y156.925 Z4.128 E0.51141 F1408
G1 X105.914 Y156.701 Z4.131 E0.51120 F1408
G1 X105.927 Y156.554 Z4.133 E0.03676 F2100
G1 X103.926 Y156.134 Z4.136 E0.50997 F1412
G1 X101.963 Y155.582 Z4.139 E0.50882 F1415
G1 X100.044 Y154.910 Z4.142 E0.50722 F1420
G1 X98.176 Y154.127 Z4.144 E0.50511 F1425
G1 X98.263 Y153.802 Z4.147 E0.08400 F2100
G1 X96.468 Y152.917 Z4.150 E0.49922 F1442
G1 X94.728 Y151.960 Z4.153 E0.49549 F1453
G1 X93.041 Y150.943 Z4.156 E0.49139 F1465
G1 X91.405 Y149.877 Z4.158 E0.48701 F1478
G1 X91.526 Y149.619 Z4.161 E0.07124 F2100
G1 X89.929 Y148.557 Z4.164 E0.47839 F1505
G1 X88.366 Y147.471 Z4.167 E0.47463 F1517
G1 X86.831 Y146.368 Z4.169 E0.47154 F1527
G1 X85.319 Y145.248 Z4.172 E0.46934 F1534
G1 X85.336 Y145.223 Z4.175 E0.00761 F2100
G1 X83.805 Y144.138 Z4.178 E0.46823 F1538
G1 X82.283 Y143.032 Z4.181 E0.46934 F1534
G1 X80.769 Y141.900 Z4.183 E0.47155 F1527
G1 X79.264 Y140.736 Z4.186 E0.47462 F1517
G1 X79.089 Y140.911 Z4.189 E0.06150 F2100
G1 X77.560 Y139.726 Z4.192 E0.48260 F1492
G1 X76.052 Y138.486 Z4.194 E0.48702 F1478
G1 X74.575 Y137.183 Z4.197 E0.49136 F1465
G1 X73.138 Y135.811 Z4.200 E0.49550 F1453
G1 X72.854 Y136.010 Z4.203 E0.08664 F2100
G1 X71.470 Y134.546 Z4.206 E0.50243 F1433
G1 X70.163 Y133.000 Z4.208 E0.50510 F1425
G1 X68.944 Y131.372 Z4.211 E0.50723 F1419
G1 X67.828 Y129.665 Z4.214 E0.50882 F1415
G1 X67.646 Y129.750 Z4.217 E0.04989 F2100
G1 X66.689 Y127.940 Z4.219 E0.51073 F1410
G1 X65.863 Y126.065 Z4.222 E0.51121 F1408
G1 X65.175 Y124.133 Z4.225 E0.51140 F1408
G1 X64.631 Y122.157 Z4.228 E0.51141 F1408
G1 X64.718 Y122.133 Z4.231 E0.02252 F2100
G1 X64.376 Y120.115 Z4.233 E0.51074 F1410
G1 X64.175 Y118.080 Z4.236 E0.50996 F1412
G1 X64.110 Y116.041 Z4.239 E0.50882 F1415
G1 X64.175 Y114.009 Z4.242 E0.50722 F1420
G1 X64.490 Y113.982 Z4.244 E0.07882 F2100
G1 X64.696 Y111.978 Z4.247 E0.50244 F1433
G1 X65.000 Y110.000 Z4.250 E0.49922 F1442
G1 X65.390 Y108.052 Z4.253 E0.49549 F1453
G1 X65.853 Y106.138 Z4.256 E0.49138 F1465
G1 X66.167 Y106.165 Z4.258 E0.07882 F2100
G1 X66.660 Y104.294 Z4.261 E0.48261 F1492
G1 X67.193 Y102.452 Z4.264 E0.47839 F1505
G1 X67.758 Y100.635 Z4.267 E0.47462 F1517
G1 X68.349 Y98.840 Z4.269 E0.47154 F1527
G1 X68.436 Y98.863 Z4.272 E0.02252 F2100
G1 X68.990 Y97.070 Z4.275 E0.46822 F1538
G1 X69.565 Y95.283 Z4.278 E0.46821 F1538
G1 X70.162 Y93.498 Z4.281 E0.46936 F1534
G1 X70.786 Y91.714 Z4.283 E0.47153 F1527
G1 X70.605 Y91.630 Z4.286 E0.04989 F2100
G1 X71.225 Y89.815 Z4.289 E0.47839 F1505
G1 X71.895 Y88.000 Z4.292 E0.48261 F1492
G1 X72.624 Y86.189 Z4.294 E0.48701 F1478
G1 X73.423 Y84.388 Z4.297 E0.49136 F1465
G1 X73.138 Y84.189 Z4.300 E0.08664 F2100
G1 X74.024 Y82.394 Z4.303 E0.49923 F1442
G1 X75.004 Y80.635 Z4.306 E0.50242 F1433
G1 X76.085 Y78.923 Z4.308 E0.50512 F1425
G1 X77.271 Y77.271 Z4.311 E0.50721 F1420
G1 X77.097 Y77.097 Z4.314 E0.06150 F2100
G1 X78.428 Y75.545 Z4.317 E0.50996 F1412
G1 X79.867 Y74.088 Z4.319 E0.51075 F1410
G1 X81.407 Y72.736 Z4.322 E0.51118 F1408
G1 X83.042 Y71.500 Z4.325 E0.51142 F1408
G1 X83.059 Y71.525 Z4.328 E0.00761 F2100
G1 X84.812 Y70.462 Z4.331 E0.51119 F1408
G1 X86.634 Y69.529 Z4.333 E0.51073 F1410
G1 X88.514 Y68.726 Z4.336 E0.50997 F1412
G1 X90.439 Y68.051 Z4.339 E0.50882 F1415
G1 X90.560 Y68.310 Z4.342 E0.07124 F2100
G1 X92.517 Y67.793 Z4.344 E0.50509 F1425
G1 X94.490 Y67.387 Z4.347 E0.50245 F1433
G1 X96.468 Y67.083 Z4.350 E0.49921 F1442
G1 X98.443 Y66.869 Z4.353 E0.49550 F1453
G1 X98.530 Y67.194 Z4.356 E0.08400 F2100
G1 X100.477 Y67.043 Z4.358 E0.48702 F1478
G1 X102.409 Y66.950 Z4.361 E0.48260 F1492
G1 X104.326 Y66.904 Z4.364 E0.47839 F1505
G1 X106.229 Y66.897 Z4.367 E0.47462 F1517
G1 X106.242 Y67.043 Z4.369 E0.03676 F2100
G1 X108.123 Y67.011 Z4.372 E0.46935 F1534
G1 X110.000 Y67.000 Z4.375 E0.46822 F1538
G1 X111.877 Y67.011 Z4.378 E0.46822 F1538
G1 X113.758 Y67.043 Z4.381 E0.46935 F1534
G1 X113.771 Y66.897 Z4.383 E0.03676 F2100
G1 X115.674 Y66.904 Z4.386 E0.47462 F1517
G1 X117.591 Y66.950 Z4.389 E0.47839 F1505
G1 X119.523 Y67.043 Z4.392 E0.48260 F1492
G1 X121.470 Y67.194 Z4.394 E0.48702 F1478
G1 X121.557 Y66.869 Z4.397 E0.08400 F2100
G1 X123.532 Y67.083 Z4.400 E0.49550 F1453
G1 X125.510 Y67.387 Z4.403 E0.49921 F1442
G1 X127.483 Y67.793 Z4.406 E0.50245 F1433
G1 X129.440 Y68.310 Z4.408 E0.50509 F1425
G1 X129.561 Y68.051 Z4.411 E0.07124 F2100
G1 X131.486 Y68.726 Z4.414 E0.50882 F1415
G1 X133.366 Y69.529 Z4.417 E0.50997 F1412
G1 X135.188 Y70.462 Z4.419 E0.51073 F1410
G1 X136.941 Y71.525 Z4.422 E0.51119 F1408
G1 X136.958 Y71.500 Z4.425 E0.00761 F2100
G1 X138.593 Y72.736 Z4.428 E0.51142 F1408
G1 X140.133 Y74.088 Z4.431 E0.51118 F1408
G1 X141.572 Y75.545 Z4.433 E0.51075 F1410
G1 X142.903 Y77.097 Z4.436 E0.50996 F1412
G1 X142.729 Y77.271 Z4.439 E0.06150 F2100
G1 X143.915 Y78.923 Z4.442 E0.50721 F1420
G1 X144.996 Y80.635 Z4.444 E0.50512 F1425
G1 X145.976 Y82.394 Z4.447 E0.50242 F1433
G1 X146.862 Y84.189 Z4.450 E0.49923 F1442
G1 X146.577 Y84.388 Z4.453 E0.08664 F2100
G1 X147.376 Y86.189 Z4.456 E0.49136 F1465
G1 X148.105 Y88.000 Z4.458 E0.48701 F1478
G1 X148.775 Y89.815 Z4.461 E0.48261 F1492
G1 X149.395 Y91.630 Z4.464 E0.47839 F1505
G1 X149.214 Y91.714 Z4.467 E0.04989 F2100
G1 X149.838 Y93.498 Z4.469 E0.47153 F1527
G1 X150.435 Y95.283 Z4.472 E0.46936 F1534
G1 X151.010 Y97.070 Z4.475 E0.46821 F1538
G1 X151.564 Y98.863 Z4.478 E0.46822 F1538
G1 X151.651 Y98.840 Z4.481 E0.02252 F2100
G1 X152.242 Y100.635 Z4.483 E0.47154 F1527
G1 X152.807 Y102.452 Z4.486 E0.47462 F1517
G1 X153.340 Y104.294 Z4.489 E0.47839 F1505
G1 X153.833 Y106.165 Z4.492 E0.48261 F1492
G1 X154.147 Y106.138 Z4.494 E0.07882 F2100
G1 X154.610 Y108.052 Z4.497 E0.49138 F1465
G1 X155.000 Y110.000 Z4.500 E0.49549 F1453
G1 X155.304 Y111.978 Z4.503 E0.49922 F1442
G1 X155.510 Y113.982 Z4.506 E0.50244 F1433
G1 X155.825 Y114.009 Z4.508 E0.07882 F2100
G1 X155.890 Y116.041 Z4.511 E0.50722 F1420
G1 X155.825 Y118.080 Z4.514 E0.50882 F1415
G1 X155.624 Y120.115 Z4.517 E0.50996 F1412
G1 X155.282 Y122.133 Z4.519 E0.51074 F1410
G1 X155.369 Y122.157 Z4.522 E0.02252 F2100
G1 X154.825 Y124.133 Z4.525 E0.51141 F1408
G1 X154.137 Y126.065 Z4.528 E0.51140 F1408
G1 X153.311 Y127.940 Z4.531 E0.51121 F1408
G1 X152.354 Y129.750 Z4.533 E0.51073 F1410
G1 X152.172 Y129.665 Z4.536 E0.04989 F2100
G1 X151.056 Y131.372 Z4.539 E0.50882 F1415
G1 X149.837 Y133.000 Z4.542 E0.50723 F1419
G1 X148.530 Y134.546 Z4.544 E0.50510 F1425
G1 X147.146 Y136.010 Z4.547 E0.50243 F1433
G1 X146.862 Y135.811 Z4.550 E0.08664 F2100
G1 X145.425 Y137.183 Z4.553 E0.49550 F1453
G1 X143.948 Y138.486 Z4.556 E0.49136 F1465
G1 X142.440 Y139.726 Z4.558 E0.48702 F1478
G1 X140.911 Y140.911 Z4.561 E0.48260 F1492
G1 X140.736 Y140.736 Z4.564 E0.06150 F2100
G1 X139.231 Y141.900 Z4.567 E0.47462 F1517
G1 X137.717 Y143.032 Z4.569 E0.47155 F1527
G1 X136.195 Y144.138 Z4.572 E0.46934 F1534
G1 X134.664 Y145.223 Z4.575 E0.46823 F1538
G1 X134.681 Y145.248 Z4.578 E0.00761 F2100
G1 X133.169 Y146.368 Z4.581 E0.46934 F1534
G1 X131.634 Y147.471 Z4.583 E0.47154 F1527
G1 X130.071 Y148.557 Z4.586 E0.47463 F1517
G1 X128.474 Y149.619 Z4.589 E0.47839 F1505
G1 X128.595 Y149.877 Z4.592 E0.07124 F2100
G1 X126.959 Y150.943 Z4.594 E0.48701 F1478
G1 X125.272 Y151.960 Z4.597 E0.49139 F1465
G1 X123.532 Y152.917 Z4.600 E0.49549 F1453
G1 X121.737 Y153.802 Z4.603 E0.49922 F1442
G1 X121.824 Y154.127 Z4.606 E0.08400 F2100
G1 X119.956 Y154.910 Z4.608 E0.50511 F1425
G1 X118.037 Y155.582 Z4.611 E0.50722 F1420
G1 X116.074 Y156.134 Z4.614 E0.50882 F1415
G1 X114.073 Y156.554 Z4.617 E0.50997 F1412
G1 X114.086 Y156.701 Z4.619 E0.03676 F2100
G1 X112.049 Y156.925 Z4.622 E0.51120 F1408
G1 X110.000 Y157.000 Z4.625 E0.51141 F1408
G1 X107.951 Y156.925 Z4.628 E0.51141 F1408
G1 X105.914 Y156.701 Z4.631 E0.51120 F1408
G1 X105.927 Y156.554 Z4.633 E0.03676 F2100
G1 X103.926 Y156.134 Z4.636 E0.50997 F1412
G1 X101.963 Y155.582 Z4.639 E0.50882 F1415
G1 X100.044 Y154.910 Z4.642 E0.50722 F1420
G1 X98.176 Y154.127 Z4.644 E0.50511 F1425
G1 X98.263 Y153.802 Z4.647 E0.08400 F2100
G1 X96.468 Y152.917 Z4.650 E0.49922 F1442
G1 X94.728 Y151.960 Z4.653 E0.49549 F1453
G1 X93.041 Y150.943 Z4.656 E0.49139 F1465
G1 X91.405 Y149.877 Z4.658 E0.48701 F1478
G1 X91.526 Y149.619 Z4.661 E0.07124 F2100
G1 X89.929 Y148.557 Z4.664 E0.47839 F1505
G1 X88.366 Y147.471 Z4.667 E0.47463 F1517
G1 X86.831 Y146.368 Z4.669 E0.47154 F1527
G1 X85.319 Y145.248 Z4.672 E0.46934 F1534
G1 X85.336 Y145.223 Z4.675 E0.00761 F2100
G1 X83.805 Y144.138 Z4.678 E0.46823 F1538
G1 X82.283 Y143.032 Z4.681 E0.46934 F1534
G1 X80.769 Y141.900 Z4.683 E0.47155 F1527
G1 X79.264 Y140.736 Z4.686 E0.47462 F1517
G1 X79.089 Y140.911 Z4.689 E0.06150 F2100
G1 X77.560 Y139.726 Z4.692 E0.48260 F1492
G1 X76.052 Y138.486 Z4.694 E0.48702 F1478
G1 X74.575 Y137.183 Z4.697 E0.49136 F1465
G1 X73.138 Y135.811 Z4.700 E0.49550 F1453
G1 X72.854 Y136.010 Z4.703 E0.08664 F2100
G1 X71.470 Y134.546 Z4.706 E0.50243 F1433
G1 X70.163 Y133.000 Z4.708 E0.50510 F1425
G1 X68.944 Y131.372 Z4.711 E0.50723 F1419
G1 X67.828 Y129.665 Z4.714 E0.50882 F1415
G1 X67.646 Y129.750 Z4.717 E0.04989 F2100
G1 X66.689 Y127.940 Z4.719 E0.51073 F1410
G1 X65.863 Y126.065 Z4.722 E0.51121 F1408
G1 X65.175 Y124.133 Z4.725 E0.51140 F1408
G1 X64.631 Y122.157 Z4.728 E0.51141 F1408
G1 X64.718 Y122.133 Z4.731 E0.02252 F2100
G1 X64.376 Y120.115 Z4.733 E0.51074 F1410
G1 X64.175 Y118.080 Z4.736 E0.50996 F1412
G1 X64.110 Y116.041 Z4.739 E0.50882 F1415
G1 X64.175 Y114.009 Z4.742 E0.50722 F1420
G1 X64.490 Y113.982 Z4.744 E0.07882 F2100
G1 X64.696 Y111.978 Z4.747 E0.50244 F1433
G1 X65.000 Y110.000 Z4.750 E0.49922 F1442
G1 X65.390 Y108.052 Z4.753 E0.49549 F1453
G1 X65.853 Y106.138 Z4.756 E0.49138 F1465
G1 X66.167 Y106.165 Z4.758 E0.07882 F2100
G1 X66.660 Y104.294 Z4.761 E0.48261 F1492
G1 X67.193 Y102.452 Z4.764 E0.47839 F1505
G1 X67.758 Y100.635 Z4.767 E0.47462 F1517
G1 X68.349 Y98.840 Z4.769 E0.47154 F1527
G1 X68.436 Y98.863 Z4.772 E0.02252 F2100
G1 X68.990 Y97.070 Z4.775 E0.46822 F1538
G1 X69.565 Y95.283 Z4.778 E0.46821 F1538
G1 X70.162 Y93.498 Z4.781 E0.46936 F1534
G1 X70.786 Y91.714 Z4.783 E0.47153 F1527
G1 X70.605 Y91.630 Z4.786 E0.04989 F2100
G1 X71.225 Y89.815 Z4.789 E0.47839 F1505
G1 X71.895 Y88.000 Z4.792 E0.48261 F1492
G1 X72.624 Y86.189 Z4.794 E0.48701 F1478
G1 X73.423 Y84.388 Z4.797 E0.49136 F1465
G1 X73.138 Y84.189 Z4.800 E0.08664 F2100
G1 X74.024 Y82.394 Z4.803 E0.49923 F1442
G1 X75.004 Y80.635 Z4.806 E0.50242 F1433
G1 X76.085 Y78.923 Z4.808 E0.50512 F1425
G1 X77.271 Y77.271 Z4.811 E0.50721 F1420
G1 X77.097 Y77.097 Z4.814 E0.06150 F2100
G1 X78.428 Y75.545 Z4.817 E0.50996 F1412
G1 X79.867 Y74.088 Z4.819 E0.51075 F1410
G1 X81.407 Y72.736 Z4.822 E0.51118 F1408
G1 X83.042 Y71.500 Z4.825 E0.51142 F1408
G1 X83.059 Y71.525 Z4.828 E0.00761 F2100
G1 X84.812 Y70.462 Z4.831 E0.51119 F1408
G1 X86.634 Y69.529 Z4.833 E0.51073 F1410
G1 X88.514 Y68.726 Z4.836 E0.50997 F1412
G1 X90.439 Y68.051 Z4.839 E0.50882 F1415
G1 X90.560 Y68.310 Z4.842 E0.07124 F2100
G1 X92.517 Y67.793 Z4.844 E0.50509 F1425
G1 X94.490 Y67.387 Z4.847 E0.50245 F1433
G1 X96.468 Y67.083 Z4.850 E0.49921 F1442
G1 X98.443 Y66.869 Z4.853 E0.49550 F1453
G1 X98.530 Y67.194 Z4.856 E0.08400 F2100
G1 X100.477 Y67.043 Z4.858 E0.48702 F1478
G1 X102.409 Y66.950 Z4.861 E0.48260 F1492
G1 X104.326 Y66.904 Z4.864 E0.47839 F1505
G1 X106.229 Y66.897 Z4.867 E0.47462 F1517
G1 X106.242 Y67.043 Z4.869 E0.03676 F2100
G1 X108.123 Y67.011 Z4.872 E0.46935 F1534
G1 X110.000 Y67.000 Z4.875 E0.46822 F1538
G1 X111.877 Y67.011 Z4.878 E0.46822 F1538
G1 X113.758 Y67.043 Z4.881 E0.46935 F1534
G1 X113.771 Y66.897 Z4.883 E0.03676 F2100
G1 X115.674 Y66.904 Z4.886 E0.47462 F1517
G1 X117.591 Y66.950 Z4.889 E0.47839 F1505
G1 X119.523 Y67.043 Z4.892 E0.48260 F1492
G1 X121.470 Y67.194 Z4.894 E0.48702 F1478
G1 X121.557 Y66.869 Z4.897 E0.08400 F2100
G1 X123.532 Y67.083 Z4.900 E0.49550 F1453
G1 X125.510 Y67.387 Z4.903 E0.49921 F1442
G1 X127.483 Y67.793 Z4.906 E0.50245 F1433
G1 X129.440 Y68.310 Z4.908 E0.50509 F1425
G1 X129.561 Y68.051 Z4.911 E0.07124 F2100
G1 X131.486 Y68.726 Z4.914 E0.50882 F1415
G1 X133.366 Y69.529 Z4.917 E0.50997 F1412
G1 X135.188 Y70.462 Z4.919 E0.51073 F1410
G1 X136.941 Y71.525 Z4.922 E0.51119 F1408
G1 X136.958 Y71.500 Z4.925 E0.00761 F2100
G1 X138.593 Y72.736 Z4.928 E0.51142 F1408
G1 X140.133 Y74.088 Z4.931 E0.51118 F1408
G1 X141.572 Y75.545 Z4.933 E0.51075 F1410
G1 X142.903 Y77.097 Z4.936 E0.50996 F1412
G1 X142.729 Y77.271 Z4.939 E0.06150 F2100
G1 X143.915 Y78.923 Z4.942 E0.50721 F1420
G1 X144.996 Y80.635 Z4.944 E0.50512 F1425
G1 X145.976 Y82.394 Z4.947 E0.50242 F1433
G1 X146.862 Y84.189 Z4.950 E0.49923 F1442
G1 X146.577 Y84.388 Z4.953 E0.08664 F2100
G1 X147.376 Y86.189 Z4.956 E0.49136 F1465
G1 X148.105 Y88.000 Z4.958 E0.48701 F1478
G1 X148.775 Y89.815 Z4.961 E0.48261 F1492
G1 X149.395 Y91.630 Z4.964 E0.47839 F1505
G1 X149.214 Y91.714 Z4.967 E0.04989 F2100
G1 X149.838 Y93.498 Z4.969 E0.47153 F1527
G1 X150.435 Y95.283 Z4.972 E0.46936 F1534
G1 X151.010 Y97.070 Z4.975 E0.46821 F1538
G1 X151.564 Y98.863 Z4.978 E0.46822 F1538
G1 X151.651 Y98.840 Z4.981 E0.02252 F2100
G1 X152.242 Y100.635 Z4.983 E0.47154 F1527
G1 X152.807 Y102.452 Z4.986 E0.47462 F1517
G1 X153.340 Y104.294 Z4.989 E0.47839 F1505
G1 X153.833 Y106.165 Z4.992 E0.48261 F1492
G1 X154.147 Y106.138 Z4.994 E0.07882 F2100
G1 X154.610 Y108.052 Z4.997 E0.49138 F1465
G1 X155.000 Y110.000 Z5.000 E0.49549 F1453
G1 X155.304 Y111.978 Z5.003 E0.49922 F1442
G1 X155.510 Y113.982 Z5.006 E0.50244 F1433
G1 X155.825 Y114.009 Z5.008 E0.07882 F2100
G1 X155.890 Y116.041 Z5.011 E0.50722 F1420
G1 X155.825 Y118.080 Z5.014 E0.50882 F1415
G1 X155.624 Y120.115 Z5.017 E0.50996 F1412
G1 X155.282 Y122.133 Z5.019 E0.51074 F1410
G1 X155.369 Y122.157 Z5.022 E0.02252 F2100
G1 X154.825 Y124.133 Z5.025 E0.51141 F1408
G1 X154.137 Y126.065 Z5.028 E0.51140 F1408
G1 X153.311 Y127.940 Z5.031 E0.51121 F1408
G1 X152.354 Y129.750 Z5.033 E0.51073 F1410
G1 X152.172 Y129.665 Z5.036 E0.04989 F2100
G1 X151.056 Y131.372 Z5.039 E0.50882 F1415
G1 X149.837 Y133.000 Z5.042 E0.50723 F1419
G1 X148.530 Y134.546 Z5.044 E0.50510 F1425
G1 X147.146 Y136.010 Z5.047 E0.50243 F1433
G1 X146.862 Y135.811 Z5.050 E0.08664 F2100
G1 X145.425 Y137.183 Z5.053 E0.49550 F1453
G1 X143.948 Y138.486 Z5.056 E0.49136 F1465
G1 X142.440 Y139.726 Z5.058 E0.48702 F1478
G1 X140.911 Y140.911 Z5.061 E0.48260 F1492
G1 X140.736 Y140.736 Z5.064 E0.06150 F2100
G1 X139.231 Y141.900 Z5.067 E0.47462 F1517
G1 X137.717 Y143.032 Z5.069 E0.47155 F1527
G1 X136.195 Y144.138 Z5.072 E0.46934 F1534
G1 X134.664 Y145.223 Z5.075 E0.46823 F1538
G1 X134.681 Y145.248 Z5.078 E0.00761 F2100
G1 X133.169 Y146.368 Z5.081 E0.46934 F1534
G1 X131.634 Y147.471 Z5.083 E0.47154 F1527
G1 X130.071 Y148.557 Z5.086 E0.47463 F1517
G1 X128.474 Y149.619 Z5.089 E0.47839 F1505
G1 X128.595 Y149.877 Z5.092 E0.07124 F2100
G1 X126.959 Y150.943 Z5.094 E0.48701 F1478
G1 X125.272 Y151.960 Z5.097 E0.49139 F1465
G1 X123.532 Y152.917 Z5.100 E0.49549 F1453
G1 X121.737 Y153.802 Z5.103 E0.49922 F1442
G1 X121.824 Y154.127 Z5.106 E0.08400 F2100
G1 X119.956 Y154.910 Z5.108 E0.50511 F1425
G1 X118.037 Y155.582 Z5.111 E0.50722 F1420
G1 X116.074 Y156.134 Z5.114 E0.50882 F1415
G1 X114.073 Y156.554 Z5.117 E0.50997 F1412
G1 X114.086 Y156.701 Z5.119 E0.03676 F2100
G1 X112.049 Y156.925 Z5.122 E0.51120 F1408
G1 X110.000 Y157.000 Z5.125 E0.51141 F1408
G1 X107.951 Y156.925 Z5.128 E0.51141 F1408
G1 X105.914 Y156.701 Z5.131 E0.51120 F1408
G1 X105.927 Y156.554 Z5.133 E0.03676 F2100
G1 X103.926 Y156.134 Z5.136 E0.50997 F1412
G1 X101.963 Y155.582 Z5.139 E0.50882 F1415
G1 X100.044 Y154.910 Z5.142 E0.50722 F1420
G1 X98.176 Y154.127 Z5.144 E0.50511 F1425
G1 X98.263 Y153.802 Z5.147 E0.08400 F2100
G1 X96.468 Y152.917 Z5.150 E0.49922 F1442
G1 X94.728 Y151.960 Z5.153 E0.49549 F1453
G1 X93.041 Y150.943 Z5.156 E0.49139 F1465
G1 X91.405 Y149.877 Z5.158 E0.48701 F1478
G1 X91.526 Y149.619 Z5.161 E0.07124 F2100
G1 X89.929 Y148.557 Z5.164 E0.47839 F1505
G1 X88.366 Y147.471 Z5.167 E0.47463 F1517
G1 X86.831 Y146.368 Z5.169 E0.47154 F1527
G1 X85.319 Y145.248 Z5.172 E0.46934 F1534
G1 X85.336 Y145.223 Z5.175 E0.00761 F2100
G1 X83.805 Y144.138 Z5.178 E0.46823 F1538
G1 X82.283 Y143.032 Z5.181 E0.46934 F1534
G1 X80.769 Y141.900 Z5.183 E0.47155 F1527
G1 X79.264 Y140.736 Z5.186 E0.47462 F1517
G1 X79.089 Y140.911 Z5.189 E0.06150 F2100
G1 X77.560 Y139.726 Z5.192 E0.48260 F1492
G1 X76.052 Y138.486 Z5.194 E0.48702 F1478
G1 X74.575 Y137.183 Z5.197 E0.49136 F1465
G1 X73.138 Y135.811 Z5.200 E0.49550 F1453
G1 X72.854 Y136.010 Z5.203 E0.08664 F2100
G1 X71.470 Y134.546 Z5.206 E0.50243 F1433
G1 X70.163 Y133.000 Z5.208 E0.50510 F1425
G1 X68.944 Y131.372 Z5.211 E0.50723 F1419
G1 X67.828 Y129.665 Z5.214 E0.50882 F1415
G1 X67.646 Y129.750 Z5.217 E0.04989 F2100
G1 X66.689 Y127.940 Z5.219 E0.51073 F1410
G1 X65.863 Y126.065 Z5.222 E0.51121 F1408
G1 X65.175 Y124.133 Z5.225 E0.51140 F1408
G1 X64.631 Y122.157 Z5.228 E0.51141 F1408
G1 X64.718 Y122.133 Z5.231 E0.02252 F2100
G1 X64.376 Y120.115 Z5.233 E0.51074 F1410
G1 X64.175 Y118.080 Z5.236 E0.50996 F1412
G1 X64.110 Y116.041 Z5.239 E0.50882 F1415
G1 X64.175 Y114.009 Z5.242 E0.50722 F1420
G1 X64.490 Y113.982 Z5.244 E0.07882 F2100
G1 X64.696 Y111.978 Z5.247 E0.50244 F1433
G1 X65.000 Y110.000 Z5.250 E0.49922 F1442
G1 X65.390 Y108.052 Z5.253 E0.49549 F1453
G1 X65.853 Y106.138 Z5.256 E0.49138 F1465
G1 X66.167 Y106.165 Z5.258 E0.07882 F2100
G1 X66.660 Y104.294 Z5.261 E0.48261 F1492
G1 X67.193 Y102.452 Z5.264 E0.47839 F1505
G1 X67.758 Y100.635 Z5.267 E0.47462 F1517
G1 X68.349 Y98.840 Z5.269 E0.47154 F1527
G1 X68.436 Y98.863 Z5.272 E0.02252 F2100
G1 X68.990 Y97.070 Z5.275 E0.46822 F1538
G1 X69.565 Y95.283 Z5.278 E0.46821 F1538
G1 X70.162 Y93.498 Z5.281 E0.46936 F1534
G1 X70.786 Y91.714 Z5.283 E0.47153 F1527
G1 X70.605 Y91.630 Z5.286 E0.04989 F2100
G1 X71.225 Y89.815 Z5.289 E0.47839 F1505
G1 X71.895 Y88.000 Z5.292 E0.48261 F1492
G1 X72.624 Y86.189 Z5.294 E0.48701 F1478
G1 X73.423 Y84.388 Z5.297 E0.49136 F1465
G1 X73.138 Y84.189 Z5.300 E0.08664 F2100
G1 X74.024 Y82.394 Z5.303 E0.49923 F1442
G1 X75.004 Y80.635 Z5.306 E0.50242 F1433
G1 X76.085 Y78.923 Z5.308 E0.50512 F1425
G1 X77.271 Y77.271 Z5.311 E0.50721 F1420
G1 X77.097 Y77.097 Z5.314 E0.06150 F2100
G1 X78.428 Y75.545 Z5.317 E0.50996 F1412
G1 X79.867 Y74.088 Z5.319 E0.51075 F1410
G1 X81.407 Y72.736 Z5.322 E0.51118 F1408
G1 X83.042 Y71.500 Z5.325 E0.51142 F1408
G1 X83.059 Y71.525 Z5.328 E0.00761 F2100
G1 X84.812 Y70.462 Z5.331 E0.51119 F1408
G1 X86.634 Y69.529 Z5.333 E0.51073 F1410
G1 X88.514 Y68.726 Z5.336 E0.50997 F1412
G1 X90.439 Y68.051 Z5.339 E0.50882 F1415
G1 X90.560 Y68.310 Z5.342 E0.07124 F2100
G1 X92.517 Y67.793 Z5.344 E0.50509 F1425
G1 X94.490 Y67.387 Z5.347 E0.50245 F1433
G1 X96.468 Y67.083 Z5.350 E0.49921 F1442
G1 X98.443 Y66.869 Z5.353 E0.49550 F1453
G1 X98.530 Y67.194 Z5.356 E0.08400 F2100
G1 X100.477 Y67.043 Z5.358 E0.48702 F1478
G1 X102.409 Y66.950 Z5.361 E0.48260 F1492
G1 X104.326 Y66.904 Z5.364 E0.47839 F1505
G1 X106.229 Y66.897 Z5.367 E0.47462 F1517
G1 X106.242 Y67.043 Z5.369 E0.03676 F2100
G1 X108.123 Y67.011 Z5.372 E0.46935 F1534
G1 X110.000 Y67.000 Z5.375 E0.46822 F1538
G1 X111.877 Y67.011 Z5.378 E0.46822 F1538
G1 X113.758 Y67.043 Z5.381 E0.46935 F1534
G1 X113.771 Y66.897 Z5.383 E0.03676 F2100
G1 X115.674 Y66.904 Z5.386 E0.47462 F1517
G1 X117.591 Y66.950 Z5.389 E0.47839 F1505
G1 X119.523 Y67.043 Z5.392 E0.48260 F1492
G1 X121.470 Y67.194 Z5.394 E0.48702 F1478
G1 X121.557 Y66.869 Z5.397 E0.08400 F2100
G1 X123.532 Y67.083 Z5.400 E0.49550 F1453
G1 X125.510 Y67.387 Z5.403 E0.49921 F1442
G1 X127.483 Y67.793 Z5.406 E0.50245 F1433
G1 X129.440 Y68.310 Z5.408 E0.50509 F1425
G1 X129.561 Y68.051 Z5.411 E0.07124 F2100
G1 X131.486 Y68.726 Z5.414 E0.50882 F1415
G1 X133.366 Y69.529 Z5.417 E0.50997 F1412
G1 X135.188 Y70.462 Z5.419 E0.51073 F1410
G1 X136.941 Y71.525 Z5.422 E0.51119 F1408
G1 X136.958 Y71.500 Z5.425 E0.00761 F2100
G1 X138.593 Y72.736 Z5.428 E0.51142 F1408
G1 X140.133 Y74.088 Z5.431 E0.51118 F1408
G1 X141.572 Y75.545 Z5.433 E0.51075 F1410
G1 X142.903 Y77.097 Z5.436 E0.50996 F1412
G1 X142.729 Y77.271 Z5.439 E0.06150 F2100
G1 X143.915 Y78.923 Z5.442 E0.50721 F1420
G1 X144.996 Y80.635 Z5.444 E0.50512 F1425
G1 X145.976 Y82.394 Z5.447 E0.50242 F1433
G1 X146.862 Y84.189 Z5.450 E0.49923 F1442
G1 X146.577 Y84.388 Z5.453 E0.08664 F2100
G1 X147.376 Y86.189 Z5.456 E0.49136 F1465
G1 X148.105 Y88.000 Z5.458 E0.48701 F1478
G1 X148.775 Y89.815 Z5.461 E0.48261 F1492
G1 X149.395 Y91.630 Z5.464 E0.47839 F1505
G1 X149.214 Y91.714 Z5.467 E0.04989 F2100
G1 X149.838 Y93.498 Z5.469 E0.47153 F1527
G1 X150.435 Y95.283 Z5.472 E0.46936 F1534
G1 X151.010 Y97.070 Z5.475 E0.46821 F1538
G1 X151.564 Y98.863 Z5.478 E0.46822 F1538
G1 X151.651 Y98.840 Z5.481 E0.02252 F2100
G1 X152.242 Y100.635 Z5.483 E0.47154 F1527
G1 X152.807 Y102.452 Z5.486 E0.47462 F1517
G1 X153.340 Y104.294 Z5.489 E0.47839 F1505
G1 X153.833 Y106.165 Z5.492 E0.48261 F1492
G1 X154.147 Y106.138 Z5.494 E0.07882 F2100
G1 X154.610 Y108.052 Z5.497 E0.49138 F1465
G1 X155.000 Y110.000 Z5.500 E0.49549 F1453
G1 X155.304 Y111.978 Z5.503 E0.49922 F1442
G1 X155.510 Y113.982 Z5.506 E0.50244 F1433
G1 X155.825 Y114.009 Z5.508 E0.07882 F2100
G1 X155.890 Y116.041 Z5.511 E0.50722 F1420
G1 X155.825 Y118.080 Z5.514 E0.50882 F1415
G1 X155.624 Y120.115 Z5.517 E0.50996 F1412
G1 X155.282 Y122.133 Z5.519 E0.51074 F1410
G1 X155.369 Y122.157 Z5.522 E0.02252 F2100
G1 X154.825 Y124.133 Z5.525 E0.51141 F1408
G1 X154.137 Y126.065 Z5.528 E0.51140 F1408
G1 X153.311 Y127.940 Z5.531 E0.51121 F1408
G1 X152.354 Y129.750 Z5.533 E0.51073 F1410
G1 X152.172 Y129.665 Z5.536 E0.04989 F2100
G1 X151.056 Y131.372 Z5.539 E0.50882 F1415
G1 X149.837 Y133.000 Z5.542 E0.50723 F1419
G1 X148.530 Y134.546 Z5.544 E0.50510 F1425
G1 X147.146 Y136.010 Z5.547 E0.50243 F1433
G1 X146.862 Y135.811 Z5.550 E0.08664 F2100
G1 X145.425 Y137.183 Z5.553 E0.49550 F1453
G1 X143.948 Y138.486 Z5.556 E0.49136 F1465
G1 X142.440 Y139.726 Z5.558 E0.48702 F1478
G1 X140.911 Y140.911 Z5.561 E0.48260 F1492
G1 X140.736 Y140.736 Z5.564 E0.06150 F2100
G1 X139.231 Y141.900 Z5.567 E0.47462 F1517
G1 X137.717 Y143.032 Z5.569 E0.47155 F1527
G1 X136.195 Y144.138 Z5.572 E0.46934 F1534
G1 X134.664 Y145.223 Z5.575 E0.46823 F1538
G1 X134.681 Y145.248 Z5.578 E0.00761 F2100
G1 X133.169 Y146.368 Z5.581 E0.46934 F1534
G1 X131.634 Y147.471 Z5.583 E0.47154 F1527
G1 X130.071 Y148.557 Z5.586 E0.47463 F1517
G1 X128.474 Y149.619 Z5.589 E0.47839 F1505
G1 X128.595 Y149.877 Z5.592 E0.07124 F2100
G1 X126.959 Y150.943 Z5.594 E0.48701 F1478
G1 X125.272 Y151.960 Z5.597 E0.49139 F1465
G1 X123.532 Y152.917 Z5.600 E0.49549 F1453
G1 X121.737 Y153.802 Z5.603 E0.49922 F1442
G1 X121.824 Y154.127 Z5.606 E0.08400 F2100
G1 X119.956 Y154.910 Z5.608 E0.50511 F1425
G1 X118.037 Y155.582 Z5.611 E0.50722 F1420
G1 X116.074 Y156.134 Z5.614 E0.50882 F1415
G1 X114.073 Y156.554 Z5.617 E0.50997 F1412
G1 X114.086 Y156.701 Z5.619 E0.03676 F2100
G1 X112.049 Y156.925 Z5.622 E0.51120 F1408
G1 X110.000 Y157.000 Z5.625 E0.51141 F1408
G1 X107.951 Y156.925 Z5.628 E0.51141 F1408
G1 X105.914 Y156.701 Z5.631 E0.51120 F1408
G1 X105.927 Y156.554 Z5.633 E0.03676 F2100
G1 X103.926 Y156.134 Z5.636 E0.50997 F1412
G1 X101.963 Y155.582 Z5.639 E0.50882 F1415
G1 X100.044 Y154.910 Z5.642 E0.50722 F1420
G1 X98.176 Y154.127 Z5.644 E0.50511 F1425
G1 X98.263 Y153.802 Z5.647 E0.08400 F2100
G1 X96.468 Y152.917 Z5.650 E0.49922 F1442
G1 X94.728 Y151.960 Z5.653 E0.49549 F1453
G1 X93.041 Y150.943 Z5.656 E0.49139 F1465
G1 X91.405 Y149.877 Z5.658 E0.48701 F1478
G1 X91.526 Y149.619 Z5.661 E0.07124 F2100
G1 X89.929 Y148.557 Z5.664 E0.47839 F1505
G1 X88.366 Y147.471 Z5.667 E0.47463 F1517
G1 X86.831 Y146.368 Z5.669 E0.47154 F1527
G1 X85.319 Y145.248 Z5.672 E0.46934 F1534
G1 X85.336 Y145.223 Z5.675 E0.00761 F2100
G1 X83.805 Y144.138 Z5.678 E0.46823 F1538
G1 X82.283 Y143.032 Z5.681 E0.46934 F1534
G1 X80.769 Y141.900 Z5.683 E0.47155 F1527
G1 X79.264 Y140.736 Z5.686 E0.47462 F1517
G1 X79.089 Y140.911 Z5.689 E0.06150 F2100
G1 X77.560 Y139.726 Z5.692 E0.48260 F1492
G1 X76.052 Y138.486 Z5.694 E0.48702 F1478
G1 X74.575 Y137.183 Z5.697 E0.49136 F1465
G1 X73.138 Y135.811 Z5.700 E0.49550 F1453
G1 X72.854 Y136.010 Z5.703 E0.08664 F2100
G1 X71.470 Y134.546 Z5.706 E0.50243 F1433
G1 X70.163 Y133.000 Z5.708 E0.50510 F1425
G1 X68.944 Y131.372 Z5.711 E0.50723 F1419
G1 X67.828 Y129.665 Z5.714 E0.50882 F1415
G1 X67.646 Y129.750 Z5.717 E0.04989 F2100
G1 X66.689 Y127.940 Z5.719 E0.51073 F1410
G1 X65.863 Y126.065 Z5.722 E0.51121 F1408
G1 X65.175 Y124.133 Z5.725 E0.51140 F1408
G1 X64.631 Y122.157 Z5.728 E0.51141 F1408
G1 X64.718 Y122.133 Z5.731 E0.02252 F2100
G1 X64.376 Y120.115 Z5.733 E0.51074 F1410
G1 X64.175 Y118.080 Z5.736 E0.50996 F1412
G1 X64.110 Y116.041 Z5.739 E0.50882 F1415
G1 X64.175 Y114.009 Z5.742 E0.50722 F1420
G1 X64.490 Y113.982 Z5.744 E0.07882 F2100
G1 X64.696 Y111.978 Z5.747 E0.50244 F1433
G1 X65.000 Y110.000 Z5.750 E0.49922 F1442
G1 X65.390 Y108.052 Z5.753 E0.49549 F1453
G1 X65.853 Y106.138 Z5.756 E0.49138 F1465
G1 X66.167 Y106.165 Z5.758 E0.07882 F2100
G1 X66.660 Y104.294 Z5.761 E0.48261 F1492
G1 X67.193 Y102.452 Z5.764 E0.47839 F1505
G1 X67.758 Y100.635 Z5.767 E0.47462 F1517
G1 X68.349 Y98.840 Z5.769 E0.47154 F1527
G1 X68.436 Y98.863 Z5.772 E0.02252 F2100
G1 X68.990 Y97.070 Z5.775 E0.46822 F1538
G1 X69.565 Y95.283 Z5.778 E0.46821 F1538
G1 X70.162 Y93.498 Z5.781 E0.46936 F1534
G1 X70.786 Y91.714 Z5.783 E0.47153 F1527
G1 X70.605 Y91.630 Z5.786 E0.04989 F2100
G1 X71.225 Y89.815 Z5.789 E0.47839 F1505
G1 X71.895 Y88.000 Z5.792 E0.48261 F1492
G1 X72.624 Y86.189 Z5.794 E0.48701 F1478
G1 X73.423 Y84.388 Z5.797 E0.49136 F1465
G1 X73.138 Y84.189 Z5.800 E0.08664 F2100
G1 X74.024 Y82.394 Z5.803 E0.49923 F1442
G1 X75.004 Y80.635 Z5.806 E0.50242 F1433
G1 X76.085 Y78.923 Z5.808 E0.50512 F1425
G1 X77.271 Y77.271 Z5.811 E0.50721 F1420
G1 X77.097 Y77.097 Z5.814 E0.06150 F2100
G1 X78.428 Y75.545 Z5.817 E0.50996 F1412
G1 X79.867 Y74.088 Z5.819 E0.51075 F1410
G1 X81.407 Y72.736 Z5.822 E0.51118 F1408
G1 X83.042 Y71.500 Z5.825 E0.51142 F1408
G1 X83.059 Y71.525 Z5.828 E0.00761 F2100
G1 X84.812 Y70.462 Z5.831 E0.51119 F1408
G1 X86.634 Y69.529 Z5.833 E0.51073 F1410
G1 X88.514 Y68.726 Z5.836 E0.50997 F1412
G1 X90.439 Y68.051 Z5.839 E0.50882 F1415
G1 X90.560 Y68.310 Z5.842 E0.07124 F2100
G1 X92.517 Y67.793 Z5.844 E0.50509 F1425
G1 X94.490 Y67.387 Z5.847 E0.50245 F1433
G1 X96.468 Y67.083 Z5.850 E0.49921 F1442
G1 X98.443 Y66.869 Z5.853 E0.49550 F1453
G1 X98.530 Y67.194 Z5.856 E0.08400 F2100
G1 X100.477 Y67.043 Z5.858 E0.48702 F1478
G1 X102.409 Y66.950 Z5.861 E0.48260 F1492
G1 X104.326 Y66.904 Z5.864 E0.47839 F1505
G1 X106.229 Y66.897 Z5.867 E0.47462 F1517
G1 X106.242 Y67.043 Z5.869 E0.03676 F2100
G1 X108.123 Y67.011 Z5.872 E0.46935 F1534
G1 X110.000 Y67.000 Z5.875 E0.46822 F1538
G1 X111.877 Y67.011 Z5.878 E0.46822 F1538
G1 X113.758 Y67.043 Z5.881 E0.46935 F1534
G1 X113.771 Y66.897 Z5.883 E0.03676 F2100
G1 X115.674 Y66.904 Z5.886 E0.47462 F1517
G1 X117.591 Y66.950 Z5.889 E0.47839 F1505
G1 X119.523 Y67.043 Z5.892 E0.48260 F1492
G1 X121.470 Y67.194 Z5.894 E0.48702 F1478
G1 X121.557 Y66.869 Z5.897 E0.08400 F2100
G1 X123.532 Y67.083 Z5.900 E0.49550 F1453
G1 X125.510 Y67.387 Z5.903 E0.49921 F1442
G1 X127.483 Y67.793 Z5.906 E0.50245 F1433
G1 X129.440 Y68.310 Z5.908 E0.50509 F1425
G1 X129.561 Y68.051 Z5.911 E0.07124 F2100
G1 X131.486 Y68.726 Z5.914 E0.50882 F1415
G1 X133.366 Y69.529 Z5.917 E0.50997 F1412
G1 X135.188 Y70.462 Z5.919 E0.51073 F1410
G1 X136.941 Y71.525 Z5.922 E0.51119 F1408
G1 X136.958 Y71.500 Z5.925 E0.00761 F2100
G1 X138.593 Y72.736 Z5.928 E0.51142 F1408
G1 X140.133 Y74.088 Z5.931 E0.51118 F1408
G1 X141.572 Y75.545 Z5.933 E0.51075 F1410
G1 X142.903 Y77.097 Z5.936 E0.50996 F1412
G1 X142.729 Y77.271 Z5.939 E0.06150 F2100
G1 X143.915 Y78.923 Z5.942 E0.50721 F1420
G1 X144.996 Y80.635 Z5.944 E0.50512 F1425
G1 X145.976 Y82.394 Z5.947 E0.50242 F1433
G1 X146.862 Y84.189 Z5.950 E0.49923 F1442
G1 X146.577 Y84.388 Z5.953 E0.08664 F2100
G1 X147.376 Y86.189 Z5.956 E0.49136 F1465
G1 X148.105 Y88.000 Z5.958 E0.48701 F1478
G1 X148.775 Y89.815 Z5.961 E0.48261 F1492
G1 X149.395 Y91.630 Z5.964 E0.47839 F1505
G1 X149.214 Y91.714 Z5.967 E0.04989 F2100
G1 X149.838 Y93.498 Z5.969 E0.47153 F1527
G1 X150.435 Y95.283 Z5.972 E0.46936 F1534
G1 X151.010 Y97.070 Z5.975 E0.46821 F1538
G1 X151.564 Y98.863 Z5.978 E0.46822 F1538
G1 X151.651 Y98.840 Z5.981 E0.02252 F2100
G1 X152.242 Y100.635 Z5.983 E0.47154 F1527
G1 X152.807 Y102.452 Z5.986 E0.47462 F1517
G1 X153.340 Y104.294 Z5.989 E0.47839 F1505
G1 X153.833 Y106.165 Z5.992 E0.48261 F1492
G1 X154.147 Y106.138 Z5.994 E0.07882 F2100
G1 X154.610 Y108.052 Z5.997 E0.49138 F1465
G1 X155.000 Y110.000 Z6.000 E0.49549 F1453
G1 X155.304 Y111.978 Z6.003 E0.49922 F1442
G1 X155.510 Y113.982 Z6.006 E0.50244 F1433
G1 X155.825 Y114.009 Z6.008 E0.07882 F2100
G1 X155.890 Y116.041 Z6.011 E0.50722 F1420
G1 X155.825 Y118.080 Z6.014 E0.50882 F1415
G1 X155.624 Y120.115 Z6.017 E0.50996 F1412
G1 X155.282 Y122.133 Z6.019 E0.51074 F1410
G1 X155.369 Y122.157 Z6.022 E0.02252 F2100
G1 X154.825 Y124.133 Z6.025 E0.51141 F1408
G1 X154.137 Y126.065 Z6.028 E0.51140 F1408
G1 X153.311 Y127.940 Z6.031 E0.51121 F1408
G1 X152.354 Y129.750 Z6.033 E0.51073 F1410
G1 X152.172 Y129.665 Z6.036 E0.04989 F2100
G1 X151.056 Y131.372 Z6.039 E0.50882 F1415
G1 X149.837 Y133.000 Z6.042 E0.50723 F1419
G1 X148.530 Y134.546 Z6.044 E0.50510 F1425
G1 X147.146 Y136.010 Z6.047 E0.50243 F1433
G1 X146.862 Y135.811 Z6.050 E0.08664 F2100
G1 X145.425 Y137.183 Z6.053 E0.49550 F1453
G1 X143.948 Y138.486 Z6.056 E0.49136 F1465
G1 X142.440 Y139.726 Z6.058 E0.48702 F1478
G1 X140.911 Y140.911 Z6.061 E0.48260 F1492
G1 X140.736 Y140.736 Z6.064 E0.06150 F2100
G1 X139.231 Y141.900 Z6.067 E0.47462 F1517
G1 X137.717 Y143.032 Z6.069 E0.47155 F1527
G1 X136.195 Y144.138 Z6.072 E0.46934 F1534
G1 X134.664 Y145.223 Z6.075 E0.46823 F1538
G1 X134.681 Y145.248 Z6.078 E0.00761 F2100
G1 X133.169 Y146.368 Z6.081 E0.46934 F1534
G1 X131.634 Y147.471 Z6.083 E0.47154 F1527
G1 X130.071 Y148.557 Z6.086 E0.47463 F1517
G1 X128.474 Y149.619 Z6.089 E0.47839 F1505
G1 X128.595 Y149.877 Z6.092 E0.07124 F2100
G1 X126.959 Y150.943 Z6.094 E0.48701 F1478
G1 X125.272 Y151.960 Z6.097 E0.49139 F1465
G1 X123.532 Y152.917 Z6.100 E0.49549 F1453
G1 X121.737 Y153.802 Z6.103 E0.49922 F1442
G1 X121.824 Y154.127 Z6.106 E0.08400 F2100
G1 X119.956 Y154.910 Z6.108 E0.50511 F1425
G1 X118.037 Y155.582 Z6.111 E0.50722 F1420
G1 X116.074 Y156.134 Z6.114 E0.50882 F1415
G1 X114.073 Y156.554 Z6.117 E0.50997 F1412
G1 X114.086 Y156.701 Z6.119 E0.03676 F2100
G1 X112.049 Y156.925 Z6.122 E0.51120 F1408
G1 X110.000 Y157.000 Z6.125 E0.51141 F1408
G1 X107.951 Y156.925 Z6.128 E0.51141 F1408
G1 X105.914 Y156.701 Z6.131 E0.51120 F1408
G1 X105.927 Y156.554 Z6.133 E0.03676 F2100
G1 X103.926 Y156.134 Z6.136 E0.50997 F1412
G1 X101.963 Y155.582 Z6.139 E0.50882 F1415
G1 X100.044 Y154.910 Z6.142 E0.50722 F1420
G1 X98.176 Y154.127 Z6.144 E0.50511 F1425
G1 X98.263 Y153.802 Z6.147 E0.08400 F2100
G1 X96.468 Y152.917 Z6.150 E0.49922 F1442
G1 X94.728 Y151.960 Z6.153 E0.49549 F1453
G1 X93.041 Y150.943 Z6.156 E0.49139 F1465
G1 X91.405 Y149.877 Z6.158 E0.48701 F1478
G1 X91.526 Y149.619 Z6.161 E0.07124 F2100
G1 X89.929 Y148.557 Z6.164 E0.47839 F1505
G1 X88.366 Y147.471 Z6.167 E0.47463 F1517
G1 X86.831 Y146.368 Z6.169 E0.47154 F1527
G1 X85.319 Y145.248 Z6.172 E0.46934 F1534
G1 X85.336 Y145.223 Z6.175 E0.00761 F2100
G1 X83.805 Y144.138 Z6.178 E0.46823 F1538
G1 X82.283 Y143.032 Z6.181 E0.46934 F1534
G1 X80.769 Y141.900 Z6.183 E0.47155 F1527
G1 X79.264 Y140.736 Z6.186 E0.47462 F1517
G1 X79.089 Y140.911 Z6.189 E0.06150 F2100
G1 X77.560 Y139.726 Z6.192 E0.48260 F1492
G1 X76.052 Y138.486 Z6.194 E0.48702 F1478
G1 X74.575 Y137.183 Z6.197 E0.49136 F1465
G1 X73.138 Y135.811 Z6.200 E0.49550 F1453
G1 X72.854 Y136.010 Z6.203 E0.08664 F2100
G1 X71.470 Y134.546 Z6.206 E0.50243 F1433
G1 X70.163 Y133.000 Z6.208 E0.50510 F1425
G1 X68.944 Y131.372 Z6.211 E0.50723 F1419
G1 X67.828 Y129.665 Z6.214 E0.50882 F1415
G1 X67.646 Y129.750 Z6.217 E0.04989 F2100
G1 X66.689 Y127.940 Z6.219 E0.51073 F1410
G1 X65.863 Y126.065 Z6.222 E0.51121 F1408
G1 X65.175 Y124.133 Z6.225 E0.51140 F1408
G1 X64.631 Y122.157 Z6.228 E0.51141 F1408
G1 X64.718 Y122.133 Z6.231 E0.02252 F2100
G1 X64.376 Y120.115 Z6.233 E0.51074 F1410
G1 X64.175 Y118.080 Z6.236 E0.50996 F1412
G1 X64.110 Y116.041 Z6.239 E0.50882 F1415
G1 X64.175 Y114.009 Z6.242 E0.50722 F1420
G1 X64.490 Y113.982 Z6.244 E0.07882 F2100
G1 X64.696 Y111.978 Z6.247 E0.50244 F1433
G1 X65.000 Y110.000 Z6.250 E0.49922 F1442
G1 X65.390 Y108.052 Z6.253 E0.49549 F1453
G1 X65.853 Y106.138 Z6.256 E0.49138 F1465
G1 X66.167 Y106.165 Z6.258 E0.07882 F2100
G1 X66.660 Y104.294 Z6.261 E0.48261 F1492
G1 X67.193 Y102.452 Z6.264 E0.47839 F1505
G1 X67.758 Y100.635 Z6.267 E0.47462 F1517
G1 X68.349 Y98.840 Z6.269 E0.47154 F1527
G1 X68.436 Y98.863 Z6.272 E0.02252 F2100
G1 X68.990 Y97.070 Z6.275 E0.46822 F1538
G1 X69.565 Y95.283 Z6.278 E0.46821 F1538
G1 X70.162 Y93.498 Z6.281 E0.46936 F1534
G1 X70.786 Y91.714 Z6.283 E0.47153 F1527
G1 X70.605 Y91.630 Z6.286 E0.04989 F2100
G1 X71.225 Y89.815 Z6.289 E0.47839 F1505
G1 X71.895 Y88.000 Z6.292 E0.48261 F1492
G1 X72.624 Y86.189 Z6.294 E0.48701 F1478
G1 X73.423 Y84.388 Z6.297 E0.49136 F1465
G1 X73.138 Y84.189 Z6.300 E0.08664 F2100
G1 X74.024 Y82.394 Z6.303 E0.49923 F1442
G1 X75.004 Y80.635 Z6.306 E0.50242 F1433
G1 X76.085 Y78.923 Z6.308 E0.50512 F1425
G1 X77.271 Y77.271 Z6.311 E0.50721 F1420
G1 X77.097 Y77.097 Z6.314 E0.06150 F2100
G1 X78.428 Y75.545 Z6.317 E0.50996 F1412
G1 X79.867 Y74.088 Z6.319 E0.51075 F1410
G1 X81.407 Y72.736 Z6.322 E0.51118 F1408
G1 X83.042 Y71.500 Z6.325 E0.51142 F1408
G1 X83.059 Y71.525 Z6.328 E0.00761 F2100
G1 X84.812 Y70.462 Z6.331 E0.51119 F1408
G1 X86.634 Y69.529 Z6.333 E0.51073 F1410
G1 X88.514 Y68.726 Z6.336 E0.50997 F1412
G1 X90.439 Y68.051 Z6.339 E0.50882 F1415
G1 X90.560 Y68.310 Z6.342 E0.07124 F2100
G1 X92.517 Y67.793 Z6.344 E0.50509 F1425
G1 X94.490 Y67.387 Z6.347 E0.50245 F1433
G1 X96.468 Y67.083 Z6.350 E0.49921 F1442
G1 X98.443 Y66.869 Z6.353 E0.49550 F1453
G1 X98.530 Y67.194 Z6.356 E0.08400 F2100
G1 X100.477 Y67.043 Z6.358 E0.48702 F1478
G1 X102.409 Y66.950 Z6.361 E0.48260 F1492
G1 X104.326 Y66.904 Z6.364 E0.47839 F1505
G1 X106.229 Y66.897 Z6.367 E0.47462 F1517
G1 X106.242 Y67.043 Z6.369 E0.03676 F2100
G1 X108.123 Y67.011 Z6.372 E0.46935 F1534
G1 X110.000 Y67.000 Z6.375 E0.46822 F1538
G1 X111.877 Y67.011 Z6.378 E0.46822 F1538
G1 X113.758 Y67.043 Z6.381 E0.46935 F1534
G1 X113.771 Y66.897 Z6.383 E0.03676 F2100
G1 X115.674 Y66.904 Z6.386 E0.47462 F1517
G1 X117.591 Y66.950 Z6.389 E0.47839 F1505
G1 X119.523 Y67.043 Z6.392 E0.48260 F1492
G1 X121.470 Y67.194 Z6.394 E0.48702 F1478
G1 X121.557 Y66.869 Z6.397 E0.08400 F2100
G1 X123.532 Y67.083 Z6.400 E0.49550 F1453
G1 X125.510 Y67.387 Z6.403 E0.49921 F1442
G1 X127.483 Y67.793 Z6.406 E0.50245 F1433
G1 X129.440 Y68.310 Z6.408 E0.50509 F1425
G1 X129.561 Y68.051 Z6.411 E0.07124 F2100
G1 X131.486 Y68.726 Z6.414 E0.50882 F1415
G1 X133.366 Y69.529 Z6.417 E0.50997 F1412
G1 X135.188 Y70.462 Z6.419 E0.51073 F1410
G1 X136.941 Y71.525 Z6.422 E0.51119 F1408
G1 X136.958 Y71.500 Z6.425 E0.00761 F2100
G1 X138.593 Y72.736 Z6.428 E0.51142 F1408
G1 X140.133 Y74.088 Z6.431 E0.51118 F1408
G1 X141.572 Y75.545 Z6.433 E0.51075 F1410
G1 X142.903 Y77.097 Z6.436 E0.50996 F1412
G1 X142.729 Y77.271 Z6.439 E0.06150 F2100
G1 X143.915 Y78.923 Z6.442 E0.50721 F1420
G1 X144.996 Y80.635 Z6.444 E0.50512 F1425
G1 X145.976 Y82.394 Z6.447 E0.50242 F1433
G1 X146.862 Y84.189 Z6.450 E0.49923 F1442
G1 X146.577 Y84.388 Z6.453 E0.08664 F2100
G1 X147.376 Y86.189 Z6.456 E0.49136 F1465
G1 X148.105 Y88.000 Z6.458 E0.48701 F1478
G1 X148.775 Y89.815 Z6.461 E0.48261 F1492
G1 X149.395 Y91.630 Z6.464 E0.47839 F1505
G1 X149.214 Y91.714 Z6.467 E0.04989 F2100
G1 X149.838 Y93.498 Z6.469 E0.47153 F1527
G1 X150.435 Y95.283 Z6.472 E0.46936 F1534
G1 X151.010 Y97.070 Z6.475 E0.46821 F1538
G1 X151.564 Y98.863 Z6.478 E0.46822 F1538
G1 X151.651 Y98.840 Z6.481 E0.02252 F2100
G1 X152.242 Y100.635 Z6.483 E0.47154 F1527
G1 X152.807 Y102.452 Z6.486 E0.47462 F1517
G1 X153.340 Y104.294 Z6.489 E0.47839 F1505
G1 X153.833 Y106.165 Z6.492 E0.48261 F1492
G1 X154.147 Y106.138 Z6.494 E0.07882 F2100
G1 X154.610 Y108.052 Z6.497 E0.49138 F1465
G1 X155.000 Y110.000 Z6.500 E0.49549 F1453
G1 X155.304 Y111.978 Z6.503 E0.49922 F1442
G1 X155.510 Y113.982 Z6.506 E0.50244 F1433
G1 X155.825 Y114.009 Z6.508 E0.07882 F2100
G1 X155.890 Y116.041 Z6.511 E0.50722 F1420
G1 X155.825 Y118.080 Z6.514 E0.50882 F1415
G1 X155.624 Y120.115 Z6.517 E0.50996 F1412
G1 X155.282 Y122.133 Z6.519 E0.51074 F1410
G1 X155.369 Y122.157 Z6.522 E0.02252 F2100
G1 X154.825 Y124.133 Z6.525 E0.51141 F1408
G1 X154.137 Y126.065 Z6.528 E0.51140 F1408
G1 X153.311 Y127.940 Z6.531 E0.51121 F1408
G1 X152.354 Y129.750 Z6.533 E0.51073 F1410
G1 X152.172 Y129.665 Z6.536 E0.04989 F2100
G1 X151.056 Y131.372 Z6.539 E0.50882 F1415
G1 X149.837 Y133.000 Z6.542 E0.50723 F1419
G1 X148.530 Y134.546 Z6.544 E0.50510 F1425
G1 X147.146 Y136.010 Z6.547 E0.50243 F1433
G1 X146.862 Y135.811 Z6.550 E0.08664 F2100
G1 X145.425 Y137.183 Z6.553 E0.49550 F1453
G1 X143.948 Y138.486 Z6.556 E0.49136 F1465
G1 X142.440 Y139.726 Z6.558 E0.48702 F1478
G1 X140.911 Y140.911 Z6.561 E0.48260 F1492
G1 X140.736 Y140.736 Z6.564 E0.06150 F2100
G1 X139.231 Y141.900 Z6.567 E0.47462 F1517
G1 X137.717 Y143.032 Z6.569 E0.47155 F1527
G1 X136.195 Y144.138 Z6.572 E0.46934 F1534
G1 X134.664 Y145.223 Z6.575 E0.46823 F1538
G1 X134.681 Y145.248 Z6.578 E0.00761 F2100
G1 X133.169 Y146.368 Z6.581 E0.46934 F1534
G1 X131.634 Y147.471 Z6.583 E0.47154 F1527
G1 X130.071 Y148.557 Z6.586 E0.47463 F1517
G1 X128.474 Y149.619 Z6.589 E0.47839 F1505
G1 X128.595 Y149.877 Z6.592 E0.07124 F2100
G1 X126.959 Y150.943 Z6.594 E0.48701 F1478
G1 X125.272 Y151.960 Z6.597 E0.49139 F1465
G1 X123.532 Y152.917 Z6.600 E0.49549 F1453
G1 X121.737 Y153.802 Z6.603 E0.49922 F1442
G1 X121.824 Y154.127 Z6.606 E0.08400 F2100
G1 X119.956 Y154.910 Z6.608 E0.50511 F1425
G1 X118.037 Y155.582 Z6.611 E0.50722 F1420
G1 X116.074 Y156.134 Z6.614 E0.50882 F1415
G1 X114.073 Y156.554 Z6.617 E0.50997 F1412
G1 X114.086 Y156.701 Z6.619 E0.03676 F2100
G1 X112.049 Y156.925 Z6.622 E0.51120 F1408
G1 X110.000 Y157.000 Z6.625 E0.51141 F1408
G1 X107.951 Y156.925 Z6.628 E0.51141 F1408
G1 X105.914 Y156.701 Z6.631 E0.51120 F1408
G1 X105.927 Y156.554 Z6.633 E0.03676 F2100
G1 X103.926 Y156.134 Z6.636 E0.50997 F1412
G1 X101.963 Y155.582 Z6.639 E0.50882 F1415
G1 X100.044 Y154.910 Z6.642 E0.50722 F1420
G1 X98.176 Y154.127 Z6.644 E0.50511 F1425
G1 X98.263 Y153.802 Z6.647 E0.08400 F2100
G1 X96.468 Y152.917 Z6.650 E0.49922 F1442
G1 X94.728 Y151.960 Z6.653 E0.49549 F1453
G1 X93.041 Y150.943 Z6.656 E0.49139 F1465
G1 X91.405 Y149.877 Z6.658 E0.48701 F1478
G1 X91.526 Y149.619 Z6.661 E0.07124 F2100
G1 X89.929 Y148.557 Z6.664 E0.47839 F1505
G1 X88.366 Y147.471 Z6.667 E0.47463 F1517
G1 X86.831 Y146.368 Z6.669 E0.47154 F1527
G1 X85.319 Y145.248 Z6.672 E0.46934 F1534
G1 X85.336 Y145.223 Z6.675 E0.00761 F2100
G1 X83.805 Y144.138 Z6.678 E0.46823 F1538
G1 X82.283 Y143.032 Z6.681 E0.46934 F1534
G1 X80.769 Y141.900 Z6.683 E0.47155 F1527
G1 X79.264 Y140.736 Z6.686 E0.47462 F1517
G1 X79.089 Y140.911 Z6.689 E0.06150 F2100
G1 X77.560 Y139.726 Z6.692 E0.48260 F1492
G1 X76.052 Y138.486 Z6.694 E0.48702 F1478
G1 X74.575 Y137.183 Z6.697 E0.49136 F1465
G1 X73.138 Y135.811 Z6.700 E0.49550 F1453
G1 X72.854 Y136.010 Z6.703 E0.08664 F2100
G1 X71.470 Y134.546 Z6.706 E0.50243 F1433
G1 X70.163 Y133.000 Z6.708 E0.50510 F1425
G1 X68.944 Y131.372 Z6.711 E0.50723 F1419
G1 X67.828 Y129.665 Z6.714 E0.50882 F1415
G1 X67.646 Y129.750 Z6.717 E0.04989 F2100
G1 X66.689 Y127.940 Z6.719 E0.51073 F1410
G1 X65.863 Y126.065 Z6.722 E0.51121 F1408
G1 X65.175 Y124.133 Z6.725 E0.51140 F1408
G1 X64.631 Y122.157 Z6.728 E0.51141 F1408
G1 X64.718 Y122.133 Z6.731 E0.02252 F2100
G1 X64.376 Y120.115 Z6.733 E0.51074 F1410
G1 X64.175 Y118.080 Z6.736 E0.50996 F1412
G1 X64.110 Y116.041 Z6.739 E0.50882 F1415
G1 X64.175 Y114.009 Z6.742 E0.50722 F1420
G1 X64.490 Y113.982 Z6.744 E0.07882 F2100
G1 X64.696 Y111.978 Z6.747 E0.50244 F1433
G1 X65.000 Y110.000 Z6.750 E0.49922 F1442
G1 X65.390 Y108.052 Z6.753 E0.49549 F1453
G1 X65.853 Y106.138 Z6.756 E0.49138 F1465
G1 X66.167 Y106.165 Z6.758 E0.07882 F2100
G1 X66.660 Y104.294 Z6.761 E0.48261 F1492
G1 X67.193 Y102.452 Z6.764 E0.47839 F1505
G1 X67.758 Y100.635 Z6.767 E0.47462 F1517
G1 X68.349 Y98.840 Z6.769 E0.47154 F1527
G1 X68.436 Y98.863 Z6.772 E0.02252 F2100
G1 X68.990 Y97.070 Z6.775 E0.46822 F1538
G1 X69.565 Y95.283 Z6.778 E0.46821 F1538
G1 X70.162 Y93.498 Z6.781 E0.46936 F1534
G1 X70.786 Y91.714 Z6.783 E0.47153 F1527
G1 X70.605 Y91.630 Z6.786 E0.04989 F2100
G1 X71.225 Y89.815 Z6.789 E0.47839 F1505
G1 X71.895 Y88.000 Z6.792 E0.48261 F1492
G1 X72.624 Y86.189 Z6.794 E0.48701 F1478
G1 X73.423 Y84.388 Z6.797 E0.49136 F1465
G1 X73.138 Y84.189 Z6.800 E0.08664 F2100
G1 X74.024 Y82.394 Z6.803 E0.49923 F1442
G1 X75.004 Y80.635 Z6.806 E0.50242 F1433
G1 X76.085 Y78.923 Z6.808 E0.50512 F1425
G1 X77.271 Y77.271 Z6.811 E0.50721 F1420
G1 X77.097 Y77.097 Z6.814 E0.06150 F2100
G1 X78.428 Y75.545 Z6.817 E0.50996 F1412
G1 X79.867 Y74.088 Z6.819 E0.51075 F1410
G1 X81.407 Y72.736 Z6.822 E0.51118 F1408
G1 X83.042 Y71.500 Z6.825 E0.51142 F1408
G1 X83.059 Y71.525 Z6.828 E0.00761 F2100
G1 X84.812 Y70.462 Z6.831 E0.51119 F1408
G1 X86.634 Y69.529 Z6.833 E0.51073 F1410
G1 X88.514 Y68.726 Z6.836 E0.50997 F1412
G1 X90.439 Y68.051 Z6.839 E0.50882 F1415
G1 X90.560 Y68.310 Z6.842 E0.07124 F2100
G1 X92.517 Y67.793 Z6.844 E0.50509 F1425
G1 X94.490 Y67.387 Z6.847 E0.50245 F1433
G1 X96.468 Y67.083 Z6.850 E0.49921 F1442
G1 X98.443 Y66.869 Z6.853 E0.49550 F1453
G1 X98.530 Y67.194 Z6.856 E0.08400 F2100
G1 X100.477 Y67.043 Z6.858 E0.48702 F1478
G1 X102.409 Y66.950 Z6.861 E0.48260 F1492
G1 X104.326 Y66.904 Z6.864 E0.47839 F1505
G1 X106.229 Y66.897 Z6.867 E0.47462 F1517
G1 X106.242 Y67.043 Z6.869 E0.03676 F2100
G1 X108.123 Y67.011 Z6.872 E0.46935 F1534
G1 X110.000 Y67.000 Z6.875 E0.46822 F1538
G1 X111.877 Y67.011 Z6.878 E0.46822 F1538
G1 X113.758 Y67.043 Z6.881 E0.46935 F1534
G1 X113.771 Y66.897 Z6.883 E0.03676 F2100
G1 X115.674 Y66.904 Z6.886 E0.47462 F1517
G1 X117.591 Y66.950 Z6.889 E0.47839 F1505
G1 X119.523 Y67.043 Z6.892 E0.48260 F1492
G1 X121.470 Y67.194 Z6.894 E0.48702 F1478
G1 X121.557 Y66.869 Z6.897 E0.08400 F2100
G1 X123.532 Y67.083 Z6.900 E0.49550 F1453
G1 X125.510 Y67.387 Z6.903 E0.49921 F1442
G1 X127.483 Y67.793 Z6.906 E0.50245 F1433
G1 X129.440 Y68.310 Z6.908 E0.50509 F1425
G1 X129.561 Y68.051 Z6.911 E0.07124 F2100
G1 X131.486 Y68.726 Z6.914 E0.50882 F1415
G1 X133.366 Y69.529 Z6.917 E0.50997 F1412
G1 X135.188 Y70.462 Z6.919 E0.51073 F1410
G1 X136.941 Y71.525 Z6.922 E0.51119 F1408
G1 X136.958 Y71.500 Z6.925 E0.00761 F2100
G1 X138.593 Y72.736 Z6.928 E0.51142 F1408
G1 X140.133 Y74.088 Z6.931 E0.51118 F1408
G1 X141.572 Y75.545 Z6.933 E0.51075 F1410
G1 X142.903 Y77.097 Z6.936 E0.50996 F1412
G1 X142.729 Y77.271 Z6.939 E0.06150 F2100
G1 X143.915 Y78.923 Z6.942 E0.50721 F1420
G1 X144.996 Y80.635 Z6.944 E0.50512 F1425
G1 X145.976 Y82.394 Z6.947 E0.50242 F1433
G1 X146.862 Y84.189 Z6.950 E0.49923 F1442
G1 X146.577 Y84.388 Z6.953 E0.08664 F2100
G1 X147.376 Y86.189 Z6.956 E0.49136 F1465
G1 X148.105 Y88.000 Z6.958 E0.48701 F1478
G1 X148.775 Y89.815 Z6.961 E0.48261 F1492
G1 X149.395 Y91.630 Z6.964 E0.47839 F1505
G1 X149.214 Y91.714 Z6.967 E0.04989 F2100
G1 X149.838 Y93.498 Z6.969 E0.47153 F1527
G1 X150.435 Y95.283 Z6.972 E0.46936 F1534
G1 X151.010 Y97.070 Z6.975 E0.46821 F1538
G1 X151.564 Y98.863 Z6.978 E0.46822 F1538
G1 X151.651 Y98.840 Z6.981 E0.02252 F2100
G1 X152.242 Y100.635 Z6.983 E0.47154 F1527
G1 X152.807 Y102.452 Z6.986 E0.47462 F1517
G1 X153.340 Y104.294 Z6.989 E0.47839 F1505
G1 X153.833 Y106.165 Z6.992 E0.48261 F1492
G1 X154.147 Y106.138 Z6.994 E0.07882 F2100
G1 X154.610 Y108.052 Z6.997 E0.49138 F1465
G1 X155.000 Y110.000 Z7.000 E0.49549 F1453
G1 X155.304 Y111.978 Z7.003 E0.49922 F1442
G1 X155.510 Y113.982 Z7.006 E0.50244 F1433
G1 X155.825 Y114.009 Z7.008 E0.07882 F2100
G1 X155.890 Y116.041 Z7.011 E0.50722 F1420
G1 X155.825 Y118.080 Z7.014 E0.50882 F1415
G1 X155.624 Y120.115 Z7.017 E0.50996 F1412
G1 X155.282 Y122.133 Z7.019 E0.51074 F1410
G1 X155.369 Y122.157 Z7.022 E0.02252 F2100
G1 X154.825 Y124.133 Z7.025 E0.51141 F1408
G1 X154.137 Y126.065 Z7.028 E0.51140 F1408
G1 X153.311 Y127.940 Z7.031 E0.51121 F1408
G1 X152.354 Y129.750 Z7.033 E0.51073 F1410
G1 X152.172 Y129.665 Z7.036 E0.04989 F2100
G1 X151.056 Y131.372 Z7.039 E0.50882 F1415
G1 X149.837 Y133.000 Z7.042 E0.50723 F1419
