; MeshVase Slicer - Klipper GCode Output
; Model: mesh
; Generated: 2025-12-02 23:02:38
; Nozzle: 1.0mm, Layer: 0.5mm
; Nozzle temp: 260°C, Bed: 65°C

; --- START GCODE ---
SET_GCODE_VARIABLE MACRO=START_PRINT VARIABLE=bed_temp VALUE=65
SET_GCODE_VARIABLE MACRO=START_PRINT VARIABLE=extruder_temp VALUE=260
START_PRINT

; Absolute positioning for X/Y/Z, relative for E
G90
M83

; --- PURGE LINE ---
; 40mm purge line (20mm away from print) to ensure good extrusion start
G1 X90.000 Y0.000 Z0.500 F2400
G1 X130.000 Y0.000 Z0.500 E9.97804 F2100
; Retract to stop extrusion
G10

; Layer 0, Z=0.500mm, Diameter=127.3mm, Points=576, Amplitude factor=0.00
G1 X65.000 Y110.000 Z0.500 E31.87219 F2100
G1 X65.042 Y108.086 Z0.500 E0.47751 F2100
G1 X65.043 Y108.037 Z0.500 E0.01224 F2100
G1 X65.168 Y106.127 Z0.500 E0.47751 F2100
G1 X65.171 Y106.078 Z0.500 E0.01224 F2100
G1 X65.379 Y104.175 Z0.500 E0.47752 F2100
G1 X65.385 Y104.126 Z0.500 E0.01224 F2100
G1 X65.676 Y102.234 Z0.500 E0.47751 F2100
G1 X65.684 Y102.186 Z0.500 E0.01224 F2100
G1 X66.057 Y100.308 Z0.500 E0.47751 F2100
G1 X66.067 Y100.260 Z0.500 E0.01224 F2100
G1 X66.522 Y98.401 Z0.500 E0.47752 F2100
G1 X66.534 Y98.353 Z0.500 E0.01224 F2100
G1 X67.069 Y96.515 Z0.500 E0.47751 F2100
G1 X67.082 Y96.468 Z0.500 E0.01224 F2100
G1 X67.698 Y94.656 Z0.500 E0.47750 F2100
G1 X67.714 Y94.609 Z0.500 E0.01224 F2100
G1 X68.407 Y92.825 Z0.500 E0.47753 F2100
G1 X68.425 Y92.779 Z0.500 E0.01224 F2100
G1 X69.197 Y91.027 Z0.500 E0.47750 F2100
G1 X69.217 Y90.982 Z0.500 E0.01224 F2100
G1 X70.062 Y89.265 Z0.500 E0.47751 F2100
G1 X70.084 Y89.221 Z0.500 E0.01224 F2100
G1 X71.006 Y87.543 Z0.500 E0.47752 F2100
G1 X71.029 Y87.500 Z0.500 E0.01224 F2100
G1 X72.022 Y85.863 Z0.500 E0.47751 F2100
G1 X72.047 Y85.821 Z0.500 E0.01224 F2100
G1 X73.111 Y84.230 Z0.500 E0.47751 F2100
G1 X73.139 Y84.189 Z0.500 E0.01224 F2100
G1 X74.270 Y82.645 Z0.500 E0.47752 F2100
G1 X74.299 Y82.605 Z0.500 E0.01224 F2100
G1 X75.498 Y81.113 Z0.500 E0.47750 F2100
G1 X75.528 Y81.075 Z0.500 E0.01224 F2100
G1 X76.790 Y79.635 Z0.500 E0.47753 F2100
G1 X76.822 Y79.598 Z0.500 E0.01224 F2100
G1 X78.147 Y78.216 Z0.500 E0.47751 F2100
G1 X78.181 Y78.181 Z0.500 E0.01224 F2100
G1 X79.563 Y76.856 Z0.500 E0.47751 F2100
G1 X79.598 Y76.822 Z0.500 E0.01224 F2100
G1 X81.038 Y75.561 Z0.500 E0.47753 F2100
G1 X81.075 Y75.528 Z0.500 E0.01224 F2100
G1 X82.567 Y74.329 Z0.500 E0.47750 F2100
G1 X82.605 Y74.299 Z0.500 E0.01224 F2100
G1 X84.150 Y73.168 Z0.500 E0.47752 F2100
G1 X84.189 Y73.139 Z0.500 E0.01224 F2100
G1 X85.780 Y72.074 Z0.500 E0.47751 F2100
G1 X85.821 Y72.047 Z0.500 E0.01224 F2100
G1 X87.458 Y71.055 Z0.500 E0.47751 F2100
G1 X87.500 Y71.029 Z0.500 E0.01224 F2100
G1 X89.178 Y70.108 Z0.500 E0.47752 F2100
G1 X89.221 Y70.084 Z0.500 E0.01224 F2100
G1 X90.938 Y69.238 Z0.500 E0.47751 F2100
G1 X90.982 Y69.217 Z0.500 E0.01224 F2100
G1 X92.734 Y68.445 Z0.500 E0.47751 F2100
G1 X92.779 Y68.425 Z0.500 E0.01224 F2100
G1 X94.564 Y67.732 Z0.500 E0.47753 F2100
G1 X94.609 Y67.714 Z0.500 E0.01224 F2100
G1 X96.422 Y67.098 Z0.500 E0.47750 F2100
G1 X96.468 Y67.082 Z0.500 E0.01224 F2100
G1 X98.306 Y66.548 Z0.500 E0.47751 F2100
G1 X98.353 Y66.534 Z0.500 E0.01224 F2100
G1 X100.212 Y66.078 Z0.500 E0.47752 F2100
G1 X100.260 Y66.066 Z0.500 E0.01224 F2100
G1 X102.138 Y65.694 Z0.500 E0.47751 F2100
G1 X102.186 Y65.684 Z0.500 E0.01224 F2100
G1 X104.078 Y65.392 Z0.500 E0.47751 F2100
G1 X104.126 Y65.384 Z0.500 E0.01224 F2100
G1 X106.029 Y65.177 Z0.500 E0.47752 F2100
G1 X106.078 Y65.172 Z0.500 E0.01224 F2100
G1 X107.988 Y65.045 Z0.500 E0.47751 F2100
G1 X108.037 Y65.042 Z0.500 E0.01224 F2100
G1 X109.951 Y65.002 Z0.500 E0.47751 F2100
G1 X110.000 Y65.001 Z0.500 E0.01224 F2100
G1 X111.914 Y65.041 Z0.500 E0.47751 F2100
G1 X111.963 Y65.042 Z0.500 E0.01224 F2100
G1 X113.873 Y65.168 Z0.500 E0.47751 F2100
G1 X113.922 Y65.172 Z0.500 E0.01224 F2100
G1 X115.825 Y65.379 Z0.500 E0.47751 F2100
G1 X115.874 Y65.385 Z0.500 E0.01224 F2100
G1 X117.766 Y65.677 Z0.500 E0.47751 F2100
G1 X117.814 Y65.684 Z0.500 E0.01224 F2100
G1 X119.692 Y66.057 Z0.500 E0.47751 F2100
G1 X119.740 Y66.066 Z0.500 E0.01224 F2100
G1 X121.599 Y66.522 Z0.500 E0.47752 F2100
G1 X121.647 Y66.534 Z0.500 E0.01224 F2100
G1 X123.485 Y67.069 Z0.500 E0.47751 F2100
G1 X123.532 Y67.082 Z0.500 E0.01224 F2100
G1 X125.344 Y67.698 Z0.500 E0.47750 F2100
G1 X125.391 Y67.714 Z0.500 E0.01224 F2100
G1 X127.175 Y68.407 Z0.500 E0.47753 F2100
G1 X127.221 Y68.425 Z0.500 E0.01224 F2100
G1 X128.973 Y69.197 Z0.500 E0.47751 F2100
G1 X129.018 Y69.216 Z0.500 E0.01224 F2100
G1 X130.735 Y70.063 Z0.500 E0.47751 F2100
G1 X130.779 Y70.084 Z0.500 E0.01224 F2100
G1 X132.457 Y71.005 Z0.500 E0.47752 F2100
G1 X132.500 Y71.029 Z0.500 E0.01224 F2100
G1 X134.137 Y72.022 Z0.500 E0.47751 F2100
G1 X134.179 Y72.047 Z0.500 E0.01224 F2100
G1 X135.770 Y73.111 Z0.500 E0.47751 F2100
G1 X135.811 Y73.138 Z0.500 E0.01224 F2100
G1 X137.355 Y74.270 Z0.500 E0.47752 F2100
G1 X137.394 Y74.299 Z0.500 E0.01224 F2100
G1 X138.887 Y75.497 Z0.500 E0.47750 F2100
G1 X138.925 Y75.528 Z0.500 E0.01224 F2100
G1 X140.365 Y76.790 Z0.500 E0.47752 F2100
G1 X140.402 Y76.822 Z0.500 E0.01224 F2100
G1 X141.784 Y78.146 Z0.500 E0.47751 F2100
G1 X141.820 Y78.180 Z0.500 E0.01224 F2100
G1 X143.144 Y79.563 Z0.500 E0.47751 F2100
G1 X143.177 Y79.598 Z0.500 E0.01224 F2100
G1 X144.440 Y81.038 Z0.500 E0.47753 F2100
G1 X144.472 Y81.075 Z0.500 E0.01224 F2100
G1 X145.670 Y82.568 Z0.500 E0.47750 F2100
G1 X145.701 Y82.606 Z0.500 E0.01224 F2100
G1 X146.833 Y84.149 Z0.500 E0.47752 F2100
G1 X146.862 Y84.189 Z0.500 E0.01224 F2100
G1 X147.925 Y85.781 Z0.500 E0.47750 F2100
G1 X147.952 Y85.822 Z0.500 E0.01224 F2100
G1 X148.946 Y87.458 Z0.500 E0.47751 F2100
G1 X148.971 Y87.500 Z0.500 E0.01224 F2100
G1 X149.892 Y89.178 Z0.500 E0.47752 F2100
G1 X149.915 Y89.221 Z0.500 E0.01224 F2100
G1 X150.762 Y90.938 Z0.500 E0.47751 F2100
G1 X150.784 Y90.982 Z0.500 E0.01224 F2100
G1 X151.555 Y92.734 Z0.500 E0.47750 F2100
G1 X151.574 Y92.779 Z0.500 E0.01224 F2100
G1 X152.269 Y94.563 Z0.500 E0.47753 F2100
G1 X152.287 Y94.609 Z0.500 E0.01224 F2100
G1 X152.901 Y96.422 Z0.500 E0.47750 F2100
G1 X152.917 Y96.468 Z0.500 E0.01224 F2100
G1 X153.453 Y98.306 Z0.500 E0.47751 F2100
G1 X153.467 Y98.353 Z0.500 E0.01224 F2100
G1 X153.921 Y100.213 Z0.500 E0.47752 F2100
G1 X153.933 Y100.260 Z0.500 E0.01224 F2100
G1 X154.307 Y102.138 Z0.500 E0.47751 F2100
G1 X154.317 Y102.186 Z0.500 E0.01224 F2100
G1 X154.607 Y104.078 Z0.500 E0.47751 F2100
G1 X154.615 Y104.126 Z0.500 E0.01224 F2100
G1 X154.824 Y106.029 Z0.500 E0.47751 F2100
G1 X154.829 Y106.078 Z0.500 E0.01224 F2100
G1 X154.953 Y107.988 Z0.500 E0.47751 F2100
G1 X154.957 Y108.037 Z0.500 E0.01224 F2100
G1 X154.999 Y109.951 Z0.500 E0.47751 F2100
G1 X155.001 Y110.000 Z0.500 E0.01224 F2100
G1 X154.958 Y111.914 Z0.500 E0.47751 F2100
G1 X154.957 Y111.963 Z0.500 E0.01224 F2100
G1 X154.833 Y113.873 Z0.500 E0.47751 F2100
G1 X154.829 Y113.922 Z0.500 E0.01224 F2100
G1 X154.620 Y115.825 Z0.500 E0.47751 F2100
G1 X154.614 Y115.874 Z0.500 E0.01224 F2100
G1 X154.324 Y117.766 Z0.500 E0.47751 F2100
G1 X154.317 Y117.814 Z0.500 E0.01224 F2100
G1 X153.942 Y119.692 Z0.500 E0.47751 F2100
G1 X153.933 Y119.740 Z0.500 E0.01224 F2100
G1 X153.479 Y121.599 Z0.500 E0.47752 F2100
G1 X153.467 Y121.647 Z0.500 E0.01224 F2100
G1 X152.930 Y123.484 Z0.500 E0.47751 F2100
G1 X152.917 Y123.532 Z0.500 E0.01224 F2100
G1 X152.303 Y125.345 Z0.500 E0.47750 F2100
G1 X152.287 Y125.391 Z0.500 E0.01224 F2100
G1 X151.592 Y127.175 Z0.500 E0.47753 F2100
G1 X151.574 Y127.221 Z0.500 E0.01224 F2100
G1 X150.804 Y128.973 Z0.500 E0.47751 F2100
G1 X150.784 Y129.018 Z0.500 E0.01224 F2100
G1 X149.937 Y130.734 Z0.500 E0.47751 F2100
G1 X149.915 Y130.778 Z0.500 E0.01224 F2100
G1 X148.995 Y132.457 Z0.500 E0.47752 F2100
G1 X148.972 Y132.500 Z0.500 E0.01224 F2100
G1 X147.978 Y134.136 Z0.500 E0.47751 F2100
G1 X147.952 Y134.178 Z0.500 E0.01224 F2100
G1 X146.890 Y135.770 Z0.500 E0.47751 F2100
G1 X146.862 Y135.811 Z0.500 E0.01224 F2100
G1 X145.729 Y137.354 Z0.500 E0.47752 F2100
G1 X145.700 Y137.394 Z0.500 E0.01224 F2100
G1 X144.503 Y138.887 Z0.500 E0.47750 F2100
G1 X144.472 Y138.926 Z0.500 E0.01224 F2100
G1 X143.209 Y140.364 Z0.500 E0.47753 F2100
G1 X143.177 Y140.401 Z0.500 E0.01224 F2100
G1 X141.854 Y141.785 Z0.500 E0.47751 F2100
G1 X141.820 Y141.820 Z0.500 E0.01224 F2100
G1 X140.437 Y143.143 Z0.500 E0.47751 F2100
G1 X140.401 Y143.177 Z0.500 E0.01224 F2100
G1 X138.963 Y144.440 Z0.500 E0.47752 F2100
G1 X138.926 Y144.472 Z0.500 E0.01224 F2100
G1 X137.432 Y145.670 Z0.500 E0.47750 F2100
G1 X137.394 Y145.700 Z0.500 E0.01224 F2100
G1 X135.851 Y146.833 Z0.500 E0.47752 F2100
G1 X135.811 Y146.862 Z0.500 E0.01224 F2100
G1 X134.219 Y147.925 Z0.500 E0.47751 F2100
G1 X134.178 Y147.952 Z0.500 E0.01224 F2100
G1 X132.542 Y148.946 Z0.500 E0.47751 F2100
G1 X132.500 Y148.971 Z0.500 E0.01224 F2100
G1 X130.822 Y149.892 Z0.500 E0.47752 F2100
G1 X130.779 Y149.915 Z0.500 E0.01224 F2100
G1 X129.062 Y150.762 Z0.500 E0.47751 F2100
G1 X129.018 Y150.784 Z0.500 E0.01224 F2100
G1 X127.266 Y151.555 Z0.500 E0.47751 F2100
G1 X127.221 Y151.574 Z0.500 E0.01224 F2100
G1 X125.437 Y152.269 Z0.500 E0.47753 F2100
G1 X125.391 Y152.287 Z0.500 E0.01224 F2100
G1 X123.578 Y152.901 Z0.500 E0.47750 F2100
G1 X123.532 Y152.917 Z0.500 E0.01224 F2100
G1 X121.694 Y153.453 Z0.500 E0.47751 F2100
G1 X121.647 Y153.467 Z0.500 E0.01224 F2100
G1 X119.787 Y153.921 Z0.500 E0.47752 F2100
G1 X119.740 Y153.933 Z0.500 E0.01224 F2100
G1 X117.862 Y154.307 Z0.500 E0.47751 F2100
G1 X117.814 Y154.316 Z0.500 E0.01224 F2100
G1 X115.922 Y154.607 Z0.500 E0.47751 F2100
G1 X115.874 Y154.615 Z0.500 E0.01224 F2100
G1 X113.971 Y154.824 Z0.500 E0.47751 F2100
G1 X113.922 Y154.829 Z0.500 E0.01224 F2100
G1 X112.012 Y154.954 Z0.500 E0.47751 F2100
G1 X111.963 Y154.957 Z0.500 E0.01224 F2100
G1 X110.049 Y154.999 Z0.500 E0.47751 F2100
G1 X110.000 Y155.000 Z0.500 E0.01224 F2100
G1 X108.086 Y154.958 Z0.500 E0.47751 F2100
G1 X108.037 Y154.957 Z0.500 E0.01224 F2100
G1 X106.127 Y154.832 Z0.500 E0.47751 F2100
G1 X106.078 Y154.829 Z0.500 E0.01224 F2100
G1 X104.175 Y154.620 Z0.500 E0.47752 F2100
G1 X104.126 Y154.615 Z0.500 E0.01224 F2100
G1 X102.234 Y154.324 Z0.500 E0.47751 F2100
G1 X102.186 Y154.316 Z0.500 E0.01224 F2100
G1 X100.308 Y153.943 Z0.500 E0.47751 F2100
G1 X100.260 Y153.933 Z0.500 E0.01224 F2100
G1 X98.401 Y153.478 Z0.500 E0.47752 F2100
G1 X98.353 Y153.467 Z0.500 E0.01224 F2100
G1 X96.515 Y152.931 Z0.500 E0.47751 F2100
G1 X96.468 Y152.918 Z0.500 E0.01224 F2100
G1 X94.656 Y152.302 Z0.500 E0.47750 F2100
G1 X94.609 Y152.286 Z0.500 E0.01224 F2100
G1 X92.825 Y151.593 Z0.500 E0.47753 F2100
G1 X92.779 Y151.575 Z0.500 E0.01224 F2100
G1 X91.027 Y150.803 Z0.500 E0.47750 F2100
G1 X90.982 Y150.784 Z0.500 E0.01224 F2100
G1 X89.265 Y149.938 Z0.500 E0.47751 F2100
G1 X89.221 Y149.916 Z0.500 E0.01224 F2100
G1 X87.543 Y148.994 Z0.500 E0.47752 F2100
G1 X87.500 Y148.971 Z0.500 E0.01224 F2100
G1 X85.863 Y147.978 Z0.500 E0.47751 F2100
G1 X85.821 Y147.953 Z0.500 E0.01224 F2100
G1 X84.230 Y146.889 Z0.500 E0.47751 F2100
G1 X84.189 Y146.861 Z0.500 E0.01224 F2100
G1 X82.645 Y145.730 Z0.500 E0.47752 F2100
G1 X82.605 Y145.701 Z0.500 E0.01224 F2100
G1 X81.113 Y144.502 Z0.500 E0.47750 F2100
G1 X81.075 Y144.472 Z0.500 E0.01224 F2100
G1 X79.635 Y143.210 Z0.500 E0.47753 F2100
G1 X79.598 Y143.178 Z0.500 E0.01224 F2100
G1 X78.216 Y141.853 Z0.500 E0.47751 F2100
G1 X78.181 Y141.819 Z0.500 E0.01224 F2100
G1 X76.856 Y140.437 Z0.500 E0.47751 F2100
G1 X76.822 Y140.402 Z0.500 E0.01224 F2100
G1 X75.561 Y138.962 Z0.500 E0.47753 F2100
G1 X75.528 Y138.925 Z0.500 E0.01224 F2100
G1 X74.329 Y137.433 Z0.500 E0.47750 F2100
G1 X74.299 Y137.395 Z0.500 E0.01224 F2100
G1 X73.168 Y135.850 Z0.500 E0.47752 F2100
G1 X73.139 Y135.811 Z0.500 E0.01224 F2100
G1 X72.074 Y134.220 Z0.500 E0.47751 F2100
G1 X72.047 Y134.179 Z0.500 E0.01224 F2100
G1 X71.055 Y132.542 Z0.500 E0.47751 F2100
G1 X71.029 Y132.500 Z0.500 E0.01224 F2100
G1 X70.108 Y130.822 Z0.500 E0.47752 F2100
G1 X70.084 Y130.779 Z0.500 E0.01224 F2100
G1 X69.238 Y129.062 Z0.500 E0.47751 F2100
G1 X69.217 Y129.018 Z0.500 E0.01224 F2100
G1 X68.445 Y127.266 Z0.500 E0.47751 F2100
G1 X68.425 Y127.221 Z0.500 E0.01224 F2100
G1 X67.732 Y125.436 Z0.500 E0.47753 F2100
G1 X67.714 Y125.391 Z0.500 E0.01224 F2100
G1 X67.098 Y123.578 Z0.500 E0.47750 F2100
G1 X67.082 Y123.532 Z0.500 E0.01224 F2100
G1 X66.548 Y121.694 Z0.500 E0.47751 F2100
G1 X66.534 Y121.647 Z0.500 E0.01224 F2100
G1 X66.078 Y119.788 Z0.500 E0.47752 F2100
G1 X66.066 Y119.740 Z0.500 E0.01224 F2100
G1 X65.694 Y117.862 Z0.500 E0.47751 F2100
G1 X65.684 Y117.814 Z0.500 E0.01224 F2100
G1 X65.392 Y115.922 Z0.500 E0.47751 F2100
G1 X65.384 Y115.874 Z0.500 E0.01224 F2100
G1 X65.177 Y113.971 Z0.500 E0.47752 F2100
G1 X65.172 Y113.922 Z0.500 E0.01224 F2100
G1 X65.045 Y112.012 Z0.500 E0.47751 F2100
G1 X65.042 Y111.963 Z0.500 E0.01224 F2100
G1 X65.002 Y110.049 Z0.500 E0.47751 F2100

; Layer 1, Z=1.000mm, Diameter=127.3mm, Points=576, Amplitude factor=0.00
G1 X65.000 Y110.000 Z1.000 E0.12533 F2100
G1 X65.040 Y108.135 Z1.000 E0.46527 F2100
G1 X65.043 Y108.037 Z1.000 E0.02449 F2100
G1 X65.165 Y106.176 Z1.000 E0.46527 F2100
G1 X65.171 Y106.078 Z1.000 E0.02449 F2100
G1 X65.373 Y104.224 Z1.000 E0.46527 F2100
G1 X65.385 Y104.126 Z1.000 E0.02449 F2100
G1 X65.670 Y102.283 Z1.000 E0.46527 F2100
G1 X65.684 Y102.186 Z1.000 E0.02449 F2100
G1 X66.046 Y100.356 Z1.000 E0.46527 F2100
G1 X66.066 Y100.260 Z1.000 E0.02449 F2100
G1 X66.511 Y98.449 Z1.000 E0.46527 F2100
G1 X66.534 Y98.353 Z1.000 E0.02449 F2100
G1 X67.054 Y96.562 Z1.000 E0.46527 F2100
G1 X67.082 Y96.468 Z1.000 E0.02449 F2100
G1 X67.684 Y94.703 Z1.000 E0.46526 F2100
G1 X67.715 Y94.609 Z1.000 E0.02449 F2100
G1 X68.388 Y92.870 Z1.000 E0.46528 F2100
G1 X68.424 Y92.779 Z1.000 E0.02449 F2100
G1 X69.178 Y91.073 Z1.000 E0.46526 F2100
G1 X69.217 Y90.983 Z1.000 E0.02449 F2100
G1 X70.039 Y89.309 Z1.000 E0.46527 F2100
G1 X70.083 Y89.221 Z1.000 E0.02449 F2100
G1 X70.983 Y87.587 Z1.000 E0.46527 F2100
G1 X71.030 Y87.501 Z1.000 E0.02449 F2100
G1 X71.995 Y85.904 Z1.000 E0.46527 F2100
G1 X72.046 Y85.821 Z1.000 E0.02449 F2100
G1 X73.085 Y84.272 Z1.000 E0.46526 F2100
G1 X73.140 Y84.190 Z1.000 E0.02449 F2100
G1 X74.239 Y82.684 Z1.000 E0.46528 F2100
G1 X74.298 Y82.605 Z1.000 E0.02449 F2100
G1 X75.468 Y81.153 Z1.000 E0.46526 F2100
G1 X75.530 Y81.076 Z1.000 E0.02449 F2100
G1 X76.756 Y79.671 Z1.000 E0.46528 F2100
G1 X76.821 Y79.597 Z1.000 E0.02449 F2100
G1 X78.114 Y78.253 Z1.000 E0.46527 F2100
G1 X78.182 Y78.182 Z1.000 E0.02449 F2100
G1 X79.526 Y76.889 Z1.000 E0.46527 F2100
G1 X79.597 Y76.821 Z1.000 E0.02449 F2100
G1 X81.002 Y75.595 Z1.000 E0.46528 F2100
G1 X81.076 Y75.530 Z1.000 E0.02449 F2100
G1 X82.528 Y74.359 Z1.000 E0.46526 F2100
G1 X82.604 Y74.297 Z1.000 E0.02449 F2100
G1 X84.111 Y73.198 Z1.000 E0.46528 F2100
G1 X84.190 Y73.140 Z1.000 E0.02449 F2100
G1 X85.739 Y72.100 Z1.000 E0.46526 F2100
G1 X85.820 Y72.045 Z1.000 E0.02449 F2100
G1 X87.417 Y71.082 Z1.000 E0.46527 F2100
G1 X87.501 Y71.031 Z1.000 E0.02449 F2100
G1 X89.134 Y70.129 Z1.000 E0.46527 F2100
G1 X89.220 Y70.082 Z1.000 E0.02449 F2100
G1 X90.895 Y69.262 Z1.000 E0.46527 F2100
G1 X90.983 Y69.219 Z1.000 E0.02449 F2100
G1 X92.688 Y68.463 Z1.000 E0.46526 F2100
G1 X92.778 Y68.423 Z1.000 E0.02449 F2100
G1 X94.518 Y67.752 Z1.000 E0.46528 F2100
G1 X94.610 Y67.716 Z1.000 E0.02449 F2100
G1 X96.374 Y67.112 Z1.000 E0.46526 F2100
G1 X96.467 Y67.080 Z1.000 E0.02449 F2100
G1 X98.259 Y66.563 Z1.000 E0.46527 F2100
G1 X98.354 Y66.536 Z1.000 E0.02449 F2100
G1 X100.164 Y66.088 Z1.000 E0.46528 F2100
G1 X100.260 Y66.064 Z1.000 E0.02449 F2100
G1 X102.090 Y65.705 Z1.000 E0.46527 F2100
G1 X102.186 Y65.686 Z1.000 E0.02449 F2100
G1 X104.029 Y65.398 Z1.000 E0.46527 F2100
G1 X104.126 Y65.383 Z1.000 E0.02449 F2100
G1 X105.981 Y65.184 Z1.000 E0.46527 F2100
G1 X106.078 Y65.174 Z1.000 E0.02449 F2100
G1 X107.939 Y65.047 Z1.000 E0.46527 F2100
G1 X108.037 Y65.040 Z1.000 E0.02449 F2100
G1 X109.902 Y65.004 Z1.000 E0.46527 F2100
G1 X110.000 Y65.002 Z1.000 E0.02449 F2100
G1 X111.865 Y65.039 Z1.000 E0.46527 F2100
G1 X111.963 Y65.041 Z1.000 E0.02449 F2100
G1 X113.824 Y65.167 Z1.000 E0.46527 F2100
G1 X113.922 Y65.173 Z1.000 E0.02449 F2100
G1 X115.776 Y65.373 Z1.000 E0.46527 F2100
G1 X115.874 Y65.383 Z1.000 E0.02449 F2100
G1 X117.717 Y65.670 Z1.000 E0.46527 F2100
G1 X117.814 Y65.686 Z1.000 E0.02449 F2100
G1 X119.644 Y66.046 Z1.000 E0.46526 F2100
G1 X119.740 Y66.065 Z1.000 E0.02449 F2100
G1 X121.551 Y66.511 Z1.000 E0.46528 F2100
G1 X121.646 Y66.535 Z1.000 E0.02449 F2100
G1 X123.438 Y67.054 Z1.000 E0.46527 F2100
G1 X123.532 Y67.081 Z1.000 E0.02449 F2100
G1 X125.298 Y67.683 Z1.000 E0.46526 F2100
G1 X125.390 Y67.715 Z1.000 E0.02449 F2100
G1 X127.130 Y68.389 Z1.000 E0.46528 F2100
G1 X127.221 Y68.424 Z1.000 E0.02449 F2100
G1 X128.928 Y69.177 Z1.000 E0.46526 F2100
G1 X129.017 Y69.217 Z1.000 E0.02449 F2100
G1 X130.691 Y70.040 Z1.000 E0.46527 F2100
G1 X130.779 Y70.084 Z1.000 E0.02449 F2100
G1 X132.414 Y70.982 Z1.000 E0.46528 F2100
G1 X132.500 Y71.030 Z1.000 E0.02449 F2100
G1 X134.095 Y71.996 Z1.000 E0.46527 F2100
G1 X134.179 Y72.047 Z1.000 E0.02449 F2100
G1 X135.729 Y73.084 Z1.000 E0.46526 F2100
G1 X135.811 Y73.139 Z1.000 E0.02449 F2100
G1 X137.315 Y74.241 Z1.000 E0.46527 F2100
G1 X137.395 Y74.299 Z1.000 E0.02449 F2100
G1 X138.849 Y75.467 Z1.000 E0.46526 F2100
G1 X138.925 Y75.528 Z1.000 E0.02449 F2100
G1 X140.328 Y76.758 Z1.000 E0.46528 F2100
G1 X140.402 Y76.822 Z1.000 E0.02449 F2100
G1 X141.749 Y78.112 Z1.000 E0.46527 F2100
G1 X141.820 Y78.180 Z1.000 E0.02449 F2100
G1 X143.109 Y79.528 Z1.000 E0.46526 F2100
G1 X143.177 Y79.598 Z1.000 E0.02449 F2100
G1 X144.408 Y81.000 Z1.000 E0.46528 F2100
G1 X144.472 Y81.074 Z1.000 E0.02449 F2100
G1 X145.639 Y82.530 Z1.000 E0.46525 F2100
G1 X145.701 Y82.606 Z1.000 E0.02449 F2100
G1 X146.804 Y84.109 Z1.000 E0.46528 F2100
G1 X146.862 Y84.189 Z1.000 E0.02449 F2100
G1 X147.897 Y85.740 Z1.000 E0.46526 F2100
G1 X147.952 Y85.822 Z1.000 E0.02449 F2100
G1 X148.921 Y87.415 Z1.000 E0.46527 F2100
G1 X148.972 Y87.500 Z1.000 E0.02449 F2100
G1 X149.867 Y89.136 Z1.000 E0.46527 F2100
G1 X149.915 Y89.222 Z1.000 E0.02449 F2100
G1 X150.742 Y90.894 Z1.000 E0.46527 F2100
G1 X150.785 Y90.982 Z1.000 E0.02449 F2100
G1 X151.534 Y92.690 Z1.000 E0.46526 F2100
G1 X151.573 Y92.780 Z1.000 E0.02449 F2100
G1 X152.252 Y94.517 Z1.000 E0.46528 F2100
G1 X152.287 Y94.609 Z1.000 E0.02449 F2100
G1 X152.884 Y96.376 Z1.000 E0.46526 F2100
G1 X152.916 Y96.469 Z1.000 E0.02449 F2100
G1 X153.441 Y98.258 Z1.000 E0.46527 F2100
G1 X153.468 Y98.353 Z1.000 E0.02449 F2100
G1 X153.908 Y100.165 Z1.000 E0.46528 F2100
G1 X153.932 Y100.261 Z1.000 E0.02449 F2100
G1 X154.299 Y102.089 Z1.000 E0.46527 F2100
G1 X154.318 Y102.186 Z1.000 E0.02449 F2100
G1 X154.598 Y104.030 Z1.000 E0.46527 F2100
G1 X154.613 Y104.127 Z1.000 E0.02449 F2100
G1 X154.820 Y105.980 Z1.000 E0.46527 F2100
G1 X154.831 Y106.078 Z1.000 E0.02449 F2100
G1 X154.949 Y107.939 Z1.000 E0.46527 F2100
G1 X154.955 Y108.037 Z1.000 E0.02449 F2100
G1 X155.000 Y109.902 Z1.000 E0.46527 F2100
G1 X155.002 Y110.000 Z1.000 E0.02449 F2100
G1 X154.957 Y111.865 Z1.000 E0.46527 F2100
G1 X154.955 Y111.963 Z1.000 E0.02449 F2100
G1 X154.838 Y113.824 Z1.000 E0.46527 F2100
G1 X154.831 Y113.922 Z1.000 E0.02449 F2100
G1 X154.623 Y115.776 Z1.000 E0.46527 F2100
G1 X154.613 Y115.873 Z1.000 E0.02449 F2100
G1 X154.334 Y117.718 Z1.000 E0.46527 F2100
G1 X154.319 Y117.815 Z1.000 E0.02449 F2100
G1 X153.950 Y119.643 Z1.000 E0.46527 F2100
G1 X153.931 Y119.739 Z1.000 E0.02449 F2100
G1 X153.492 Y121.552 Z1.000 E0.46528 F2100
G1 X153.469 Y121.648 Z1.000 E0.02449 F2100
G1 X152.942 Y123.437 Z1.000 E0.46527 F2100
G1 X152.915 Y123.531 Z1.000 E0.02449 F2100
G1 X152.320 Y125.299 Z1.000 E0.46526 F2100
G1 X152.289 Y125.392 Z1.000 E0.02449 F2100
G1 X151.608 Y127.128 Z1.000 E0.46528 F2100
G1 X151.572 Y127.220 Z1.000 E0.02449 F2100
G1 X150.826 Y128.929 Z1.000 E0.46526 F2100
G1 X150.786 Y129.019 Z1.000 E0.02449 F2100
G1 X149.957 Y130.690 Z1.000 E0.46527 F2100
G1 X149.913 Y130.778 Z1.000 E0.02449 F2100
G1 X149.020 Y132.415 Z1.000 E0.46527 F2100
G1 X148.973 Y132.501 Z1.000 E0.02449 F2100
G1 X148.001 Y134.093 Z1.000 E0.46527 F2100
G1 X147.950 Y134.177 Z1.000 E0.02449 F2100
G1 X146.918 Y135.731 Z1.000 E0.46526 F2100
G1 X146.864 Y135.812 Z1.000 E0.02449 F2100
G1 X145.757 Y137.314 Z1.000 E0.46528 F2100
G1 X145.699 Y137.393 Z1.000 E0.02449 F2100
G1 X144.535 Y138.850 Z1.000 E0.46525 F2100
G1 X144.474 Y138.927 Z1.000 E0.02449 F2100
G1 X143.241 Y140.326 Z1.000 E0.46528 F2100
G1 X143.176 Y140.400 Z1.000 E0.02449 F2100
G1 X141.889 Y141.750 Z1.000 E0.46526 F2100
G1 X141.821 Y141.821 Z1.000 E0.02449 F2100
G1 X140.471 Y143.108 Z1.000 E0.46527 F2100
G1 X140.400 Y143.176 Z1.000 E0.02449 F2100
G1 X139.000 Y144.409 Z1.000 E0.46528 F2100
G1 X138.927 Y144.474 Z1.000 E0.02449 F2100
G1 X137.470 Y145.638 Z1.000 E0.46526 F2100
G1 X137.393 Y145.699 Z1.000 E0.02448 F2100
G1 X135.891 Y146.805 Z1.000 E0.46528 F2100
G1 X135.812 Y146.863 Z1.000 E0.02449 F2100
G1 X134.259 Y147.897 Z1.000 E0.46527 F2100
G1 X134.178 Y147.951 Z1.000 E0.02449 F2100
G1 X132.585 Y148.921 Z1.000 E0.46527 F2100
G1 X132.501 Y148.973 Z1.000 E0.02449 F2100
G1 X130.864 Y149.867 Z1.000 E0.46528 F2100
G1 X130.778 Y149.914 Z1.000 E0.02449 F2100
G1 X129.106 Y150.741 Z1.000 E0.46527 F2100
G1 X129.018 Y150.785 Z1.000 E0.02449 F2100
G1 X127.310 Y151.534 Z1.000 E0.46526 F2100
G1 X127.220 Y151.573 Z1.000 E0.02449 F2100
G1 X125.483 Y152.251 Z1.000 E0.46528 F2100
G1 X125.391 Y152.287 Z1.000 E0.02449 F2100
G1 X123.625 Y152.885 Z1.000 E0.46526 F2100
G1 X123.531 Y152.916 Z1.000 E0.02449 F2100
G1 X121.741 Y153.440 Z1.000 E0.46527 F2100
G1 X121.647 Y153.468 Z1.000 E0.02449 F2100
G1 X119.835 Y153.909 Z1.000 E0.46528 F2100
G1 X119.740 Y153.932 Z1.000 E0.02449 F2100
G1 X117.911 Y154.298 Z1.000 E0.46526 F2100
G1 X117.814 Y154.317 Z1.000 E0.02449 F2100
G1 X115.971 Y154.600 Z1.000 E0.46527 F2100
G1 X115.874 Y154.614 Z1.000 E0.02449 F2100
G1 X114.020 Y154.818 Z1.000 E0.46527 F2100
G1 X113.922 Y154.829 Z1.000 E0.02449 F2100
G1 X112.061 Y154.951 Z1.000 E0.46527 F2100
G1 X111.963 Y154.957 Z1.000 E0.02449 F2100
G1 X110.098 Y154.998 Z1.000 E0.46527 F2100
G1 X110.000 Y155.000 Z1.000 E0.02449 F2100
G1 X108.135 Y154.960 Z1.000 E0.46527 F2100
G1 X108.037 Y154.957 Z1.000 E0.02449 F2100
G1 X106.176 Y154.835 Z1.000 E0.46527 F2100
G1 X106.078 Y154.829 Z1.000 E0.02449 F2100
G1 X104.224 Y154.626 Z1.000 E0.46527 F2100
G1 X104.126 Y154.615 Z1.000 E0.02449 F2100
G1 X102.283 Y154.330 Z1.000 E0.46527 F2100
G1 X102.186 Y154.316 Z1.000 E0.02449 F2100
G1 X100.356 Y153.953 Z1.000 E0.46527 F2100
G1 X100.260 Y153.934 Z1.000 E0.02449 F2100
G1 X98.449 Y153.489 Z1.000 E0.46527 F2100
G1 X98.353 Y153.466 Z1.000 E0.02449 F2100
G1 X96.562 Y152.946 Z1.000 E0.46527 F2100
G1 X96.468 Y152.918 Z1.000 E0.02449 F2100
G1 X94.703 Y152.316 Z1.000 E0.46526 F2100
G1 X94.609 Y152.285 Z1.000 E0.02449 F2100
G1 X92.870 Y151.612 Z1.000 E0.46528 F2100
G1 X92.779 Y151.576 Z1.000 E0.02449 F2100
G1 X91.073 Y150.822 Z1.000 E0.46526 F2100
G1 X90.983 Y150.783 Z1.000 E0.02449 F2100
G1 X89.309 Y149.960 Z1.000 E0.46527 F2100
G1 X89.221 Y149.917 Z1.000 E0.02449 F2100
G1 X87.587 Y149.017 Z1.000 E0.46527 F2100
G1 X87.501 Y148.970 Z1.000 E0.02449 F2100
G1 X85.904 Y148.005 Z1.000 E0.46527 F2100
G1 X85.821 Y147.954 Z1.000 E0.02449 F2100
G1 X84.272 Y146.915 Z1.000 E0.46526 F2100
G1 X84.190 Y146.860 Z1.000 E0.02449 F2100
G1 X82.684 Y145.761 Z1.000 E0.46528 F2100
G1 X82.605 Y145.702 Z1.000 E0.02449 F2100
G1 X81.153 Y144.532 Z1.000 E0.46526 F2100
G1 X81.076 Y144.471 Z1.000 E0.02449 F2100
G1 X79.671 Y143.244 Z1.000 E0.46528 F2100
G1 X79.597 Y143.179 Z1.000 E0.02449 F2100
G1 X78.253 Y141.886 Z1.000 E0.46527 F2100
G1 X78.182 Y141.818 Z1.000 E0.02449 F2100
G1 X76.889 Y140.474 Z1.000 E0.46527 F2100
G1 X76.821 Y140.403 Z1.000 E0.02449 F2100
G1 X75.595 Y138.998 Z1.000 E0.46528 F2100
G1 X75.530 Y138.924 Z1.000 E0.02449 F2100
G1 X74.359 Y137.472 Z1.000 E0.46526 F2100
G1 X74.297 Y137.396 Z1.000 E0.02449 F2100
G1 X73.198 Y135.889 Z1.000 E0.46528 F2100
G1 X73.140 Y135.810 Z1.000 E0.02449 F2100
G1 X72.100 Y134.261 Z1.000 E0.46526 F2100
G1 X72.045 Y134.180 Z1.000 E0.02449 F2100
G1 X71.082 Y132.583 Z1.000 E0.46527 F2100
G1 X71.031 Y132.499 Z1.000 E0.02449 F2100
G1 X70.129 Y130.866 Z1.000 E0.46527 F2100
G1 X70.082 Y130.780 Z1.000 E0.02449 F2100
G1 X69.262 Y129.105 Z1.000 E0.46527 F2100
G1 X69.218 Y129.017 Z1.000 E0.02449 F2100
G1 X68.463 Y127.312 Z1.000 E0.46526 F2100
G1 X68.423 Y127.222 Z1.000 E0.02449 F2100
G1 X67.752 Y125.482 Z1.000 E0.46528 F2100
G1 X67.716 Y125.390 Z1.000 E0.02449 F2100
G1 X67.112 Y123.626 Z1.000 E0.46526 F2100
G1 X67.080 Y123.533 Z1.000 E0.02449 F2100
G1 X66.563 Y121.740 Z1.000 E0.46527 F2100
G1 X66.536 Y121.646 Z1.000 E0.02449 F2100
G1 X66.088 Y119.836 Z1.000 E0.46528 F2100
G1 X66.064 Y119.740 Z1.000 E0.02449 F2100
G1 X65.705 Y117.910 Z1.000 E0.46527 F2100
G1 X65.686 Y117.814 Z1.000 E0.02449 F2100
G1 X65.398 Y115.971 Z1.000 E0.46527 F2100
G1 X65.383 Y115.874 Z1.000 E0.02449 F2100
G1 X65.184 Y114.019 Z1.000 E0.46527 F2100
G1 X65.174 Y113.922 Z1.000 E0.02449 F2100
G1 X65.047 Y112.061 Z1.000 E0.46527 F2100
G1 X65.040 Y111.963 Z1.000 E0.02449 F2100
G1 X65.004 Y110.098 Z1.000 E0.46527 F2100

; Layer 2, Z=1.500mm, Diameter=127.3mm, Points=576, Amplitude factor=0.00
G1 X64.996 Y110.000 Z1.500 E0.12712 F2100
G1 X65.043 Y108.184 Z1.500 E0.45304 F2100
G1 X65.047 Y108.037 Z1.500 E0.03672 F2100
G1 X65.159 Y106.225 Z1.500 E0.45302 F2100
G1 X65.167 Y106.078 Z1.500 E0.03674 F2100
G1 X65.372 Y104.273 Z1.500 E0.45304 F2100
G1 X65.389 Y104.127 Z1.500 E0.03672 F2100
G1 X65.659 Y102.331 Z1.500 E0.45302 F2100
G1 X65.680 Y102.185 Z1.500 E0.03674 F2100
G1 X66.040 Y100.405 Z1.500 E0.45303 F2100
G1 X66.070 Y100.261 Z1.500 E0.03672 F2100
G1 X66.497 Y98.496 Z1.500 E0.45302 F2100
G1 X66.531 Y98.352 Z1.500 E0.03674 F2100
G1 X67.043 Y96.610 Z1.500 E0.45304 F2100
G1 X67.085 Y96.469 Z1.500 E0.03673 F2100
G1 X67.665 Y94.748 Z1.500 E0.45301 F2100
G1 X67.712 Y94.608 Z1.500 E0.03674 F2100
G1 X68.373 Y92.917 Z1.500 E0.45305 F2100
G1 X68.427 Y92.780 Z1.500 E0.03673 F2100
G1 X69.157 Y91.117 Z1.500 E0.45301 F2100
G1 X69.215 Y90.981 Z1.500 E0.03674 F2100
G1 X70.019 Y89.353 Z1.500 E0.45304 F2100
G1 X70.086 Y89.222 Z1.500 E0.03673 F2100
G1 X70.958 Y87.629 Z1.500 E0.45302 F2100
G1 X71.028 Y87.499 Z1.500 E0.03674 F2100
G1 X71.970 Y85.947 Z1.500 E0.45303 F2100
G1 X72.048 Y85.822 Z1.500 E0.03673 F2100
G1 X73.057 Y84.312 Z1.500 E0.45301 F2100
G1 X73.138 Y84.189 Z1.500 E0.03674 F2100
G1 X74.211 Y82.724 Z1.500 E0.45304 F2100
G1 X74.299 Y82.606 Z1.500 E0.03673 F2100
G1 X75.437 Y81.190 Z1.500 E0.45300 F2100
G1 X75.528 Y81.075 Z1.500 E0.03674 F2100
G1 X76.724 Y79.708 Z1.500 E0.45304 F2100
G1 X76.822 Y79.598 Z1.500 E0.03673 F2100
G1 X78.080 Y78.288 Z1.500 E0.45302 F2100
G1 X78.181 Y78.181 Z1.500 E0.03674 F2100
G1 X79.490 Y76.922 Z1.500 E0.45303 F2100
G1 X79.598 Y76.822 Z1.500 E0.03673 F2100
G1 X80.966 Y75.627 Z1.500 E0.45303 F2100
G1 X81.076 Y75.529 Z1.500 E0.03674 F2100
G1 X82.489 Y74.389 Z1.500 E0.45302 F2100
G1 X82.605 Y74.298 Z1.500 E0.03673 F2100
G1 X84.072 Y73.228 Z1.500 E0.45303 F2100
G1 X84.190 Y73.140 Z1.500 E0.03674 F2100
G1 X85.697 Y72.126 Z1.500 E0.45302 F2100
G1 X85.820 Y72.045 Z1.500 E0.03673 F2100
G1 X87.376 Y71.109 Z1.500 E0.45302 F2100
G1 X87.501 Y71.031 Z1.500 E0.03674 F2100
G1 X89.090 Y70.152 Z1.500 E0.45304 F2100
G1 X89.220 Y70.082 Z1.500 E0.03673 F2100
G1 X90.852 Y69.285 Z1.500 E0.45303 F2100
G1 X90.984 Y69.219 Z1.500 E0.03673 F2100
G1 X92.643 Y68.481 Z1.500 E0.45302 F2100
G1 X92.778 Y68.422 Z1.500 E0.03673 F2100
G1 X94.473 Y67.772 Z1.500 E0.45304 F2100
G1 X94.610 Y67.717 Z1.500 E0.03673 F2100
G1 X96.327 Y67.125 Z1.500 E0.45302 F2100
G1 X96.467 Y67.079 Z1.500 E0.03673 F2100
G1 X98.213 Y66.579 Z1.500 E0.45303 F2100
G1 X98.354 Y66.537 Z1.500 E0.03673 F2100
G1 X100.116 Y66.097 Z1.500 E0.45304 F2100
G1 X100.259 Y66.062 Z1.500 E0.03673 F2100
G1 X102.042 Y65.718 Z1.500 E0.45303 F2100
G1 X102.187 Y65.688 Z1.500 E0.03673 F2100
G1 X103.980 Y65.402 Z1.500 E0.45303 F2100
G1 X104.126 Y65.380 Z1.500 E0.03673 F2100
G1 X105.932 Y65.193 Z1.500 E0.45304 F2100
G1 X106.078 Y65.176 Z1.500 E0.03673 F2100
G1 X107.890 Y65.047 Z1.500 E0.45303 F2100
G1 X108.037 Y65.038 Z1.500 E0.03673 F2100
G1 X109.853 Y65.009 Z1.500 E0.45303 F2100
G1 X110.000 Y65.005 Z1.500 E0.03673 F2100
G1 X111.816 Y65.034 Z1.500 E0.45303 F2100
G1 X111.963 Y65.037 Z1.500 E0.03674 F2100
G1 X113.775 Y65.167 Z1.500 E0.45304 F2100
G1 X113.922 Y65.177 Z1.500 E0.03673 F2100
G1 X115.728 Y65.363 Z1.500 E0.45303 F2100
G1 X115.874 Y65.379 Z1.500 E0.03674 F2100
G1 X117.668 Y65.667 Z1.500 E0.45304 F2100
G1 X117.813 Y65.689 Z1.500 E0.03673 F2100
G1 X119.597 Y66.032 Z1.500 E0.45303 F2100
G1 X119.741 Y66.061 Z1.500 E0.03674 F2100
G1 X121.502 Y66.504 Z1.500 E0.45305 F2100
G1 X121.645 Y66.539 Z1.500 E0.03673 F2100
G1 X123.392 Y67.036 Z1.500 E0.45303 F2100
G1 X123.534 Y67.077 Z1.500 E0.03674 F2100
G1 X125.250 Y67.672 Z1.500 E0.45303 F2100
G1 X125.389 Y67.719 Z1.500 E0.03673 F2100
G1 X127.086 Y68.367 Z1.500 E0.45304 F2100
G1 X127.223 Y68.420 Z1.500 E0.03674 F2100
G1 X128.881 Y69.162 Z1.500 E0.45303 F2100
G1 X129.015 Y69.221 Z1.500 E0.03672 F2100
G1 X130.649 Y70.015 Z1.500 E0.45303 F2100
G1 X130.781 Y70.080 Z1.500 E0.03674 F2100
G1 X132.368 Y70.962 Z1.500 E0.45304 F2100
G1 X132.497 Y71.034 Z1.500 E0.03673 F2100
G1 X134.055 Y71.967 Z1.500 E0.45302 F2100
G1 X134.181 Y72.043 Z1.500 E0.03674 F2100
G1 X135.686 Y73.060 Z1.500 E0.45303 F2100
G1 X135.808 Y73.142 Z1.500 E0.03672 F2100
G1 X137.278 Y74.209 Z1.500 E0.45303 F2100
G1 X137.397 Y74.295 Z1.500 E0.03674 F2100
G1 X138.808 Y75.439 Z1.500 E0.45303 F2100
G1 X138.922 Y75.532 Z1.500 E0.03672 F2100
G1 X140.293 Y76.723 Z1.500 E0.45303 F2100
G1 X140.405 Y76.819 Z1.500 E0.03674 F2100
G1 X141.711 Y78.081 Z1.500 E0.45304 F2100
G1 X141.817 Y78.183 Z1.500 E0.03672 F2100
G1 X143.078 Y79.490 Z1.500 E0.45302 F2100
G1 X143.181 Y79.595 Z1.500 E0.03674 F2100
G1 X144.373 Y80.966 Z1.500 E0.45305 F2100
G1 X144.469 Y81.077 Z1.500 E0.03673 F2100
G1 X145.611 Y82.489 Z1.500 E0.45300 F2100
G1 X145.704 Y82.603 Z1.500 E0.03674 F2100
G1 X146.773 Y84.072 Z1.500 E0.45305 F2100
G1 X146.859 Y84.191 Z1.500 E0.03673 F2100
G1 X147.873 Y85.698 Z1.500 E0.45301 F2100
G1 X147.955 Y85.820 Z1.500 E0.03674 F2100
G1 X148.893 Y87.375 Z1.500 E0.45304 F2100
G1 X148.968 Y87.502 Z1.500 E0.03672 F2100
G1 X149.846 Y89.091 Z1.500 E0.45302 F2100
G1 X149.918 Y89.220 Z1.500 E0.03674 F2100
G1 X150.718 Y90.851 Z1.500 E0.45304 F2100
G1 X150.782 Y90.983 Z1.500 E0.03673 F2100
G1 X151.516 Y92.644 Z1.500 E0.45301 F2100
G1 X151.577 Y92.778 Z1.500 E0.03674 F2100
G1 X152.232 Y94.472 Z1.500 E0.45305 F2100
G1 X152.284 Y94.610 Z1.500 E0.03673 F2100
G1 X152.870 Y96.329 Z1.500 E0.45301 F2100
G1 X152.919 Y96.468 Z1.500 E0.03674 F2100
G1 X153.426 Y98.212 Z1.500 E0.45303 F2100
G1 X153.466 Y98.353 Z1.500 E0.03673 F2100
G1 X153.898 Y100.117 Z1.500 E0.45302 F2100
G1 X153.934 Y100.260 Z1.500 E0.03674 F2100
G1 X154.288 Y102.041 Z1.500 E0.45303 F2100
G1 X154.316 Y102.186 Z1.500 E0.03673 F2100
G1 X154.592 Y103.981 Z1.500 E0.45302 F2100
G1 X154.615 Y104.126 Z1.500 E0.03674 F2100
G1 X154.814 Y105.931 Z1.500 E0.45303 F2100
G1 X154.829 Y106.078 Z1.500 E0.03673 F2100
G1 X154.946 Y107.890 Z1.500 E0.45302 F2100
G1 X154.957 Y108.037 Z1.500 E0.03674 F2100
G1 X154.999 Y109.853 Z1.500 E0.45303 F2100
G1 X155.001 Y110.000 Z1.500 E0.03673 F2100
G1 X154.958 Y111.816 Z1.500 E0.45302 F2100
G1 X154.956 Y111.963 Z1.500 E0.03674 F2100
G1 X154.841 Y113.775 Z1.500 E0.45303 F2100
G1 X154.830 Y113.922 Z1.500 E0.03673 F2100
G1 X154.628 Y115.727 Z1.500 E0.45302 F2100
G1 X154.613 Y115.873 Z1.500 E0.03674 F2100
G1 X154.342 Y117.669 Z1.500 E0.45303 F2100
G1 X154.318 Y117.815 Z1.500 E0.03673 F2100
G1 X153.959 Y119.595 Z1.500 E0.45302 F2100
G1 X153.931 Y119.739 Z1.500 E0.03674 F2100
G1 X153.505 Y121.505 Z1.500 E0.45304 F2100
G1 X153.469 Y121.648 Z1.500 E0.03673 F2100
G1 X152.955 Y123.389 Z1.500 E0.45302 F2100
G1 X152.915 Y123.531 Z1.500 E0.03674 F2100
G1 X152.337 Y125.253 Z1.500 E0.45302 F2100
G1 X152.289 Y125.392 Z1.500 E0.03673 F2100
G1 X151.624 Y127.082 Z1.500 E0.45304 F2100
G1 X151.571 Y127.219 Z1.500 E0.03674 F2100
G1 X150.847 Y128.885 Z1.500 E0.45302 F2100
G1 X150.787 Y129.019 Z1.500 E0.03673 F2100
G1 X149.976 Y130.644 Z1.500 E0.45303 F2100
G1 X149.912 Y130.777 Z1.500 E0.03673 F2100
G1 X149.046 Y132.373 Z1.500 E0.45304 F2100
G1 X148.975 Y132.502 Z1.500 E0.03673 F2100
G1 X148.025 Y134.050 Z1.500 E0.45303 F2100
G1 X147.949 Y134.176 Z1.500 E0.03673 F2100
G1 X146.948 Y135.691 Z1.500 E0.45302 F2100
G1 X146.866 Y135.814 Z1.500 E0.03673 F2100
G1 X145.784 Y137.272 Z1.500 E0.45304 F2100
G1 X145.697 Y137.391 Z1.500 E0.03673 F2100
G1 X144.568 Y138.814 Z1.500 E0.45302 F2100
G1 X144.476 Y138.929 Z1.500 E0.03673 F2100
G1 X143.270 Y140.287 Z1.500 E0.45305 F2100
G1 X143.174 Y140.398 Z1.500 E0.03673 F2100
G1 X141.926 Y141.717 Z1.500 E0.45303 F2100
G1 X141.824 Y141.824 Z1.500 E0.03673 F2100
G1 X140.504 Y143.071 Z1.500 E0.45303 F2100
G1 X140.398 Y143.174 Z1.500 E0.03673 F2100
G1 X139.040 Y144.379 Z1.500 E0.45304 F2100
G1 X138.929 Y144.476 Z1.500 E0.03674 F2100
G1 X137.506 Y145.604 Z1.500 E0.45302 F2100
G1 X137.391 Y145.696 Z1.500 E0.03673 F2100
G1 X135.933 Y146.779 Z1.500 E0.45304 F2100
G1 X135.814 Y146.866 Z1.500 E0.03674 F2100
G1 X134.298 Y147.866 Z1.500 E0.45303 F2100
G1 X134.175 Y147.948 Z1.500 E0.03673 F2100
G1 X132.629 Y148.900 Z1.500 E0.45303 F2100
G1 X132.503 Y148.976 Z1.500 E0.03674 F2100
G1 X130.905 Y149.840 Z1.500 E0.45304 F2100
G1 X130.776 Y149.910 Z1.500 E0.03673 F2100
G1 X129.152 Y150.724 Z1.500 E0.45303 F2100
G1 X129.020 Y150.789 Z1.500 E0.03674 F2100
G1 X127.353 Y151.510 Z1.500 E0.45303 F2100
G1 X127.219 Y151.569 Z1.500 E0.03673 F2100
G1 X125.530 Y152.238 Z1.500 E0.45304 F2100
G1 X125.393 Y152.292 Z1.500 E0.03674 F2100
G1 X123.670 Y152.865 Z1.500 E0.45303 F2100
G1 X123.530 Y152.912 Z1.500 E0.03672 F2100
G1 X121.790 Y153.430 Z1.500 E0.45302 F2100
G1 X121.648 Y153.472 Z1.500 E0.03674 F2100
G1 X119.882 Y153.894 Z1.500 E0.45305 F2100
G1 X119.739 Y153.928 Z1.500 E0.03673 F2100
G1 X117.959 Y154.292 Z1.500 E0.45302 F2100
G1 X117.815 Y154.321 Z1.500 E0.03674 F2100
G1 X116.019 Y154.588 Z1.500 E0.45304 F2100
G1 X115.873 Y154.610 Z1.500 E0.03672 F2100
G1 X114.069 Y154.817 Z1.500 E0.45302 F2100
G1 X113.922 Y154.834 Z1.500 E0.03674 F2100
G1 X112.110 Y154.944 Z1.500 E0.45304 F2100
G1 X111.963 Y154.952 Z1.500 E0.03672 F2100
G1 X110.147 Y155.001 Z1.500 E0.45302 F2100
G1 X110.000 Y155.005 Z1.500 E0.03674 F2100
G1 X108.184 Y154.957 Z1.500 E0.45304 F2100
G1 X108.037 Y154.953 Z1.500 E0.03672 F2100
G1 X106.225 Y154.842 Z1.500 E0.45302 F2100
G1 X106.078 Y154.833 Z1.500 E0.03674 F2100
G1 X104.273 Y154.628 Z1.500 E0.45304 F2100
G1 X104.127 Y154.611 Z1.500 E0.03672 F2100
G1 X102.331 Y154.341 Z1.500 E0.45302 F2100
G1 X102.185 Y154.320 Z1.500 E0.03674 F2100
G1 X100.405 Y153.960 Z1.500 E0.45303 F2100
G1 X100.261 Y153.930 Z1.500 E0.03672 F2100
G1 X98.496 Y153.504 Z1.500 E0.45302 F2100
G1 X98.352 Y153.470 Z1.500 E0.03674 F2100
G1 X96.610 Y152.957 Z1.500 E0.45304 F2100
G1 X96.469 Y152.915 Z1.500 E0.03672 F2100
G1 X94.748 Y152.335 Z1.500 E0.45301 F2100
G1 X94.608 Y152.289 Z1.500 E0.03674 F2100
G1 X92.917 Y151.627 Z1.500 E0.45305 F2100
G1 X92.780 Y151.572 Z1.500 E0.03673 F2100
G1 X91.117 Y150.844 Z1.500 E0.45301 F2100
G1 X90.981 Y150.786 Z1.500 E0.03674 F2100
G1 X89.354 Y149.980 Z1.500 E0.45304 F2100
G1 X89.222 Y149.914 Z1.500 E0.03673 F2100
G1 X87.629 Y149.042 Z1.500 E0.45302 F2100
G1 X87.499 Y148.972 Z1.500 E0.03674 F2100
G1 X85.947 Y148.029 Z1.500 E0.45303 F2100
G1 X85.822 Y147.952 Z1.500 E0.03673 F2100
G1 X84.312 Y146.943 Z1.500 E0.45301 F2100
G1 X84.189 Y146.862 Z1.500 E0.03674 F2100
G1 X82.724 Y145.789 Z1.500 E0.45304 F2100
G1 X82.606 Y145.701 Z1.500 E0.03673 F2100
G1 X81.190 Y144.563 Z1.500 E0.45300 F2100
G1 X81.075 Y144.472 Z1.500 E0.03674 F2100
G1 X79.708 Y143.276 Z1.500 E0.45304 F2100
G1 X79.598 Y143.178 Z1.500 E0.03673 F2100
G1 X78.288 Y141.920 Z1.500 E0.45301 F2100
G1 X78.181 Y141.819 Z1.500 E0.03674 F2100
G1 X76.923 Y140.509 Z1.500 E0.45303 F2100
G1 X76.822 Y140.402 Z1.500 E0.03673 F2100
G1 X75.627 Y139.035 Z1.500 E0.45303 F2100
G1 X75.529 Y138.925 Z1.500 E0.03674 F2100
G1 X74.389 Y137.511 Z1.500 E0.45302 F2100
G1 X74.298 Y137.395 Z1.500 E0.03673 F2100
G1 X73.228 Y135.928 Z1.500 E0.45303 F2100
G1 X73.140 Y135.810 Z1.500 E0.03674 F2100
G1 X72.126 Y134.303 Z1.500 E0.45302 F2100
G1 X72.046 Y134.180 Z1.500 E0.03673 F2100
G1 X71.108 Y132.624 Z1.500 E0.45302 F2100
G1 X71.031 Y132.499 Z1.500 E0.03674 F2100
G1 X70.152 Y130.910 Z1.500 E0.45304 F2100
G1 X70.082 Y130.780 Z1.500 E0.03673 F2100
G1 X69.285 Y129.148 Z1.500 E0.45303 F2100
G1 X69.219 Y129.017 Z1.500 E0.03674 F2100
G1 X68.481 Y127.357 Z1.500 E0.45302 F2100
G1 X68.422 Y127.222 Z1.500 E0.03673 F2100
G1 X67.771 Y125.527 Z1.500 E0.45304 F2100
G1 X67.717 Y125.390 Z1.500 E0.03673 F2100
G1 X67.126 Y123.673 Z1.500 E0.45302 F2100
G1 X67.079 Y123.533 Z1.500 E0.03673 F2100
G1 X66.579 Y121.787 Z1.500 E0.45303 F2100
G1 X66.537 Y121.646 Z1.500 E0.03673 F2100
G1 X66.097 Y119.884 Z1.500 E0.45304 F2100
G1 X66.062 Y119.741 Z1.500 E0.03673 F2100
G1 X65.718 Y117.958 Z1.500 E0.45303 F2100
G1 X65.688 Y117.813 Z1.500 E0.03673 F2100
G1 X65.402 Y116.020 Z1.500 E0.45303 F2100
G1 X65.380 Y115.874 Z1.500 E0.03673 F2100
G1 X65.193 Y114.068 Z1.500 E0.45303 F2100
G1 X65.176 Y113.922 Z1.500 E0.03673 F2100
G1 X65.047 Y112.110 Z1.500 E0.45303 F2100
G1 X65.038 Y111.963 Z1.500 E0.03673 F2100
G1 X65.009 Y110.147 Z1.500 E0.45303 F2100

; Layer 3, Z=2.000mm, Diameter=127.3mm, Points=576, Amplitude factor=0.01
G1 X64.992 Y110.000 Z2.000 E0.13008 F2100
G1 X65.043 Y108.234 Z2.000 E0.44081 F2100
G1 X65.050 Y108.037 Z2.000 E0.04896 F2100
G1 X65.154 Y106.274 Z2.000 E0.44077 F2100
G1 X65.164 Y106.077 Z2.000 E0.04900 F2100
G1 X65.367 Y104.322 Z2.000 E0.44081 F2100
G1 X65.392 Y104.127 Z2.000 E0.04896 F2100
G1 X65.651 Y102.379 Z2.000 E0.44077 F2100
G1 X65.678 Y102.185 Z2.000 E0.04900 F2100
G1 X66.031 Y100.453 Z2.000 E0.44081 F2100
G1 X66.072 Y100.261 Z2.000 E0.04896 F2100
G1 X66.484 Y98.543 Z2.000 E0.44077 F2100
G1 X66.528 Y98.352 Z2.000 E0.04900 F2100
G1 X67.029 Y96.657 Z2.000 E0.44080 F2100
G1 X67.087 Y96.470 Z2.000 E0.04896 F2100
G1 X67.650 Y94.795 Z2.000 E0.44075 F2100
G1 X67.710 Y94.608 Z2.000 E0.04900 F2100
G1 X68.355 Y92.962 Z2.000 E0.44081 F2100
G1 X68.429 Y92.781 Z2.000 E0.04897 F2100
G1 X69.137 Y91.162 Z2.000 E0.44075 F2100
G1 X69.213 Y90.981 Z2.000 E0.04900 F2100
G1 X69.997 Y89.397 Z2.000 E0.44080 F2100
G1 X70.087 Y89.222 Z2.000 E0.04897 F2100
G1 X70.936 Y87.673 Z2.000 E0.44077 F2100
G1 X71.027 Y87.499 Z2.000 E0.04900 F2100
G1 X71.944 Y85.988 Z2.000 E0.44080 F2100
G1 X72.048 Y85.822 Z2.000 E0.04897 F2100
G1 X73.031 Y84.354 Z2.000 E0.44076 F2100
G1 X73.138 Y84.189 Z2.000 E0.04900 F2100
G1 X74.181 Y82.762 Z2.000 E0.44081 F2100
G1 X74.299 Y82.606 Z2.000 E0.04897 F2100
G1 X75.408 Y81.230 Z2.000 E0.44075 F2100
G1 X75.528 Y81.075 Z2.000 E0.04899 F2100
G1 X76.690 Y79.743 Z2.000 E0.44081 F2100
G1 X76.822 Y79.598 Z2.000 E0.04897 F2100
G1 X78.048 Y78.325 Z2.000 E0.44077 F2100
G1 X78.181 Y78.181 Z2.000 E0.04899 F2100
G1 X79.453 Y76.954 Z2.000 E0.44079 F2100
G1 X79.597 Y76.821 Z2.000 E0.04897 F2100
G1 X80.931 Y75.662 Z2.000 E0.44078 F2100
G1 X81.076 Y75.530 Z2.000 E0.04899 F2100
G1 X82.449 Y74.417 Z2.000 E0.44078 F2100
G1 X82.604 Y74.296 Z2.000 E0.04897 F2100
G1 X84.035 Y73.260 Z2.000 E0.44079 F2100
G1 X84.191 Y73.141 Z2.000 E0.04899 F2100
G1 X85.654 Y72.151 Z2.000 E0.44079 F2100
G1 X85.819 Y72.044 Z2.000 E0.04897 F2100
G1 X87.336 Y71.137 Z2.000 E0.44078 F2100
G1 X87.502 Y71.033 Z2.000 E0.04898 F2100
G1 X89.046 Y70.172 Z2.000 E0.44080 F2100
G1 X89.219 Y70.080 Z2.000 E0.04898 F2100
G1 X90.810 Y69.310 Z2.000 E0.44079 F2100
G1 X90.985 Y69.222 Z2.000 E0.04898 F2100
G1 X92.596 Y68.497 Z2.000 E0.44079 F2100
G1 X92.777 Y68.419 Z2.000 E0.04898 F2100
G1 X94.429 Y67.793 Z2.000 E0.44081 F2100
G1 X94.611 Y67.720 Z2.000 E0.04898 F2100
G1 X96.280 Y67.137 Z2.000 E0.44079 F2100
G1 X96.466 Y67.076 Z2.000 E0.04898 F2100
G1 X98.167 Y66.597 Z2.000 E0.44080 F2100
G1 X98.355 Y66.541 Z2.000 E0.04898 F2100
G1 X100.067 Y66.104 Z2.000 E0.44081 F2100
G1 X100.258 Y66.059 Z2.000 E0.04898 F2100
G1 X101.995 Y65.732 Z2.000 E0.44080 F2100
G1 X102.187 Y65.692 Z2.000 E0.04897 F2100
G1 X103.931 Y65.405 Z2.000 E0.44080 F2100
G1 X104.125 Y65.376 Z2.000 E0.04898 F2100
G1 X105.884 Y65.203 Z2.000 E0.44081 F2100
G1 X106.079 Y65.180 Z2.000 E0.04897 F2100
G1 X107.841 Y65.046 Z2.000 E0.44080 F2100
G1 X108.037 Y65.034 Z2.000 E0.04898 F2100
G1 X109.804 Y65.014 Z2.000 E0.44081 F2100
G1 X110.000 Y65.010 Z2.000 E0.04897 F2100
G1 X111.767 Y65.028 Z2.000 E0.44080 F2100
G1 X111.963 Y65.033 Z2.000 E0.04898 F2100
G1 X113.725 Y65.169 Z2.000 E0.44082 F2100
G1 X113.921 Y65.181 Z2.000 E0.04897 F2100
G1 X115.680 Y65.354 Z2.000 E0.44080 F2100
G1 X115.875 Y65.375 Z2.000 E0.04899 F2100
G1 X117.618 Y65.664 Z2.000 E0.44082 F2100
G1 X117.812 Y65.694 Z2.000 E0.04896 F2100
G1 X119.549 Y66.019 Z2.000 E0.44080 F2100
G1 X119.742 Y66.057 Z2.000 E0.04899 F2100
G1 X121.454 Y66.496 Z2.000 E0.44083 F2100
G1 X121.644 Y66.543 Z2.000 E0.04896 F2100
G1 X123.346 Y67.019 Z2.000 E0.44079 F2100
G1 X123.535 Y67.073 Z2.000 E0.04899 F2100
G1 X125.202 Y67.660 Z2.000 E0.44081 F2100
G1 X125.387 Y67.723 Z2.000 E0.04896 F2100
G1 X127.041 Y68.346 Z2.000 E0.44080 F2100
G1 X127.225 Y68.416 Z2.000 E0.04899 F2100
G1 X128.834 Y69.145 Z2.000 E0.44082 F2100
G1 X129.014 Y69.225 Z2.000 E0.04896 F2100
G1 X130.607 Y69.990 Z2.000 E0.44079 F2100
G1 X130.783 Y70.076 Z2.000 E0.04899 F2100
G1 X132.324 Y70.942 Z2.000 E0.44083 F2100
G1 X132.495 Y71.037 Z2.000 E0.04896 F2100
G1 X134.015 Y71.939 Z2.000 E0.44079 F2100
G1 X134.184 Y72.039 Z2.000 E0.04899 F2100
G1 X135.643 Y73.035 Z2.000 E0.44081 F2100
G1 X135.806 Y73.146 Z2.000 E0.04896 F2100
G1 X137.240 Y74.177 Z2.000 E0.44079 F2100
G1 X137.400 Y74.292 Z2.000 E0.04900 F2100
G1 X138.768 Y75.410 Z2.000 E0.44080 F2100
G1 X138.920 Y75.535 Z2.000 E0.04896 F2100
G1 X140.258 Y76.688 Z2.000 E0.44079 F2100
G1 X140.407 Y76.816 Z2.000 E0.04900 F2100
G1 X141.674 Y78.048 Z2.000 E0.44081 F2100
G1 X141.814 Y78.186 Z2.000 E0.04896 F2100
G1 X143.046 Y79.453 Z2.000 E0.44077 F2100
G1 X143.183 Y79.593 Z2.000 E0.04900 F2100
G1 X144.339 Y80.930 Z2.000 E0.44082 F2100
G1 X144.466 Y81.079 Z2.000 E0.04896 F2100
G1 X145.581 Y82.450 Z2.000 E0.44076 F2100
G1 X145.706 Y82.602 Z2.000 E0.04900 F2100
G1 X146.743 Y84.033 Z2.000 E0.44082 F2100
G1 X146.857 Y84.193 Z2.000 E0.04896 F2100
G1 X147.846 Y85.657 Z2.000 E0.44076 F2100
G1 X147.958 Y85.818 Z2.000 E0.04900 F2100
G1 X148.867 Y87.333 Z2.000 E0.44081 F2100
G1 X148.966 Y87.503 Z2.000 E0.04896 F2100
G1 X149.823 Y89.048 Z2.000 E0.44077 F2100
G1 X149.920 Y89.219 Z2.000 E0.04900 F2100
G1 X150.696 Y90.807 Z2.000 E0.44081 F2100
G1 X150.780 Y90.984 Z2.000 E0.04896 F2100
G1 X151.496 Y92.599 Z2.000 E0.44076 F2100
G1 X151.578 Y92.778 Z2.000 E0.04900 F2100
G1 X152.215 Y94.426 Z2.000 E0.44081 F2100
G1 X152.283 Y94.610 Z2.000 E0.04897 F2100
G1 X152.854 Y96.282 Z2.000 E0.44075 F2100
G1 X152.920 Y96.467 Z2.000 E0.04900 F2100
G1 X153.413 Y98.164 Z2.000 E0.44080 F2100
G1 X153.465 Y98.354 Z2.000 E0.04897 F2100
G1 X153.885 Y100.070 Z2.000 E0.44077 F2100
G1 X153.935 Y100.260 Z2.000 E0.04900 F2100
G1 X154.280 Y101.993 Z2.000 E0.44080 F2100
G1 X154.315 Y102.186 Z2.000 E0.04897 F2100
G1 X154.582 Y103.933 Z2.000 E0.44077 F2100
G1 X154.615 Y104.126 Z2.000 E0.04900 F2100
G1 X154.811 Y105.883 Z2.000 E0.44080 F2100
G1 X154.829 Y106.078 Z2.000 E0.04897 F2100
G1 X154.941 Y107.841 Z2.000 E0.44077 F2100
G1 X154.956 Y108.037 Z2.000 E0.04899 F2100
G1 X155.000 Y109.804 Z2.000 E0.44080 F2100
G1 X155.001 Y110.000 Z2.000 E0.04897 F2100
G1 X154.957 Y111.766 Z2.000 E0.44077 F2100
G1 X154.955 Y111.963 Z2.000 E0.04899 F2100
G1 X154.847 Y113.727 Z2.000 E0.44080 F2100
G1 X154.831 Y113.922 Z2.000 E0.04897 F2100
G1 X154.631 Y115.678 Z2.000 E0.44078 F2100
G1 X154.612 Y115.873 Z2.000 E0.04899 F2100
G1 X154.352 Y117.621 Z2.000 E0.44080 F2100
G1 X154.320 Y117.815 Z2.000 E0.04897 F2100
G1 X153.965 Y119.546 Z2.000 E0.44078 F2100
G1 X153.929 Y119.739 Z2.000 E0.04899 F2100
G1 X153.520 Y121.458 Z2.000 E0.44081 F2100
G1 X153.471 Y121.648 Z2.000 E0.04897 F2100
G1 X152.965 Y123.341 Z2.000 E0.44078 F2100
G1 X152.912 Y123.530 Z2.000 E0.04898 F2100
G1 X152.357 Y125.208 Z2.000 E0.44079 F2100
G1 X152.292 Y125.393 Z2.000 E0.04897 F2100
G1 X151.638 Y127.035 Z2.000 E0.44080 F2100
G1 X151.569 Y127.218 Z2.000 E0.04898 F2100
G1 X150.871 Y128.842 Z2.000 E0.44079 F2100
G1 X150.790 Y129.021 Z2.000 E0.04898 F2100
G1 X149.994 Y130.599 Z2.000 E0.44080 F2100
G1 X149.909 Y130.775 Z2.000 E0.04898 F2100
G1 X149.074 Y132.332 Z2.000 E0.44081 F2100
G1 X148.978 Y132.504 Z2.000 E0.04898 F2100
G1 X148.046 Y134.006 Z2.000 E0.44080 F2100
G1 X147.946 Y134.174 Z2.000 E0.04898 F2100
G1 X146.979 Y135.653 Z2.000 E0.44079 F2100
G1 X146.869 Y135.816 Z2.000 E0.04898 F2100
G1 X145.809 Y137.230 Z2.000 E0.44081 F2100
G1 X145.694 Y137.389 Z2.000 E0.04897 F2100
G1 X144.603 Y138.779 Z2.000 E0.44079 F2100
G1 X144.479 Y138.931 Z2.000 E0.04898 F2100
G1 X143.299 Y140.247 Z2.000 E0.44082 F2100
G1 X143.171 Y140.395 Z2.000 E0.04897 F2100
G1 X141.963 Y141.685 Z2.000 E0.44080 F2100
G1 X141.826 Y141.826 Z2.000 E0.04898 F2100
G1 X140.536 Y143.034 Z2.000 E0.44081 F2100
G1 X140.395 Y143.170 Z2.000 E0.04897 F2100
G1 X139.080 Y144.350 Z2.000 E0.44081 F2100
G1 X138.932 Y144.479 Z2.000 E0.04899 F2100
G1 X137.541 Y145.570 Z2.000 E0.44080 F2100
G1 X137.388 Y145.693 Z2.000 E0.04896 F2100
G1 X135.975 Y146.754 Z2.000 E0.44081 F2100
G1 X135.817 Y146.870 Z2.000 E0.04899 F2100
G1 X134.336 Y147.835 Z2.000 E0.44081 F2100
G1 X134.173 Y147.944 Z2.000 E0.04896 F2100
G1 X132.673 Y148.878 Z2.000 E0.44080 F2100
G1 X132.505 Y148.980 Z2.000 E0.04899 F2100
G1 X130.946 Y149.812 Z2.000 E0.44083 F2100
G1 X130.774 Y149.906 Z2.000 E0.04896 F2100
G1 X129.198 Y150.706 Z2.000 E0.44080 F2100
G1 X129.022 Y150.793 Z2.000 E0.04899 F2100
G1 X127.397 Y151.487 Z2.000 E0.44082 F2100
G1 X127.217 Y151.565 Z2.000 E0.04896 F2100
G1 X125.577 Y152.224 Z2.000 E0.44080 F2100
G1 X125.394 Y152.296 Z2.000 E0.04899 F2100
G1 X123.715 Y152.846 Z2.000 E0.44081 F2100
G1 X123.529 Y152.908 Z2.000 E0.04896 F2100
G1 X121.838 Y153.420 Z2.000 E0.44079 F2100
G1 X121.649 Y153.476 Z2.000 E0.04899 F2100
G1 X119.929 Y153.879 Z2.000 E0.44083 F2100
G1 X119.738 Y153.924 Z2.000 E0.04896 F2100
G1 X118.008 Y154.286 Z2.000 E0.44078 F2100
G1 X117.816 Y154.326 Z2.000 E0.04899 F2100
G1 X116.067 Y154.578 Z2.000 E0.44082 F2100
G1 X115.872 Y154.606 Z2.000 E0.04896 F2100
G1 X114.118 Y154.814 Z2.000 E0.44078 F2100
G1 X113.923 Y154.838 Z2.000 E0.04900 F2100
G1 X112.158 Y154.938 Z2.000 E0.44082 F2100
G1 X111.962 Y154.949 Z2.000 E0.04896 F2100
G1 X110.196 Y155.002 Z2.000 E0.44078 F2100
G1 X110.000 Y155.008 Z2.000 E0.04900 F2100
G1 X108.234 Y154.956 Z2.000 E0.44081 F2100
G1 X108.037 Y154.949 Z2.000 E0.04896 F2100
G1 X106.273 Y154.847 Z2.000 E0.44077 F2100
G1 X106.077 Y154.836 Z2.000 E0.04900 F2100
G1 X104.322 Y154.632 Z2.000 E0.44081 F2100
G1 X104.127 Y154.608 Z2.000 E0.04896 F2100
G1 X102.379 Y154.350 Z2.000 E0.44077 F2100
G1 X102.185 Y154.323 Z2.000 E0.04900 F2100
G1 X100.454 Y153.968 Z2.000 E0.44081 F2100
G1 X100.262 Y153.927 Z2.000 E0.04896 F2100
G1 X98.543 Y153.516 Z2.000 E0.44077 F2100
G1 X98.352 Y153.472 Z2.000 E0.04900 F2100
G1 X96.657 Y152.970 Z2.000 E0.44081 F2100
G1 X96.470 Y152.912 Z2.000 E0.04896 F2100
G1 X94.794 Y152.351 Z2.000 E0.44075 F2100
G1 X94.608 Y152.291 Z2.000 E0.04900 F2100
G1 X92.963 Y151.645 Z2.000 E0.44082 F2100
G1 X92.781 Y151.571 Z2.000 E0.04897 F2100
G1 X91.162 Y150.863 Z2.000 E0.44076 F2100
G1 X90.981 Y150.787 Z2.000 E0.04900 F2100
G1 X89.397 Y150.002 Z2.000 E0.44080 F2100
G1 X89.223 Y149.913 Z2.000 E0.04897 F2100
G1 X87.672 Y149.065 Z2.000 E0.44077 F2100
G1 X87.499 Y148.973 Z2.000 E0.04900 F2100
G1 X85.989 Y148.055 Z2.000 E0.44080 F2100
G1 X85.823 Y147.951 Z2.000 E0.04897 F2100
G1 X84.353 Y146.969 Z2.000 E0.44076 F2100
G1 X84.188 Y146.863 Z2.000 E0.04900 F2100
G1 X82.763 Y145.819 Z2.000 E0.44081 F2100
G1 X82.606 Y145.700 Z2.000 E0.04897 F2100
G1 X81.230 Y144.593 Z2.000 E0.44075 F2100
G1 X81.075 Y144.472 Z2.000 E0.04899 F2100
G1 X79.744 Y143.310 Z2.000 E0.44081 F2100
G1 X79.598 Y143.178 Z2.000 E0.04897 F2100
G1 X78.325 Y141.953 Z2.000 E0.44076 F2100
G1 X78.181 Y141.819 Z2.000 E0.04899 F2100
G1 X76.955 Y140.547 Z2.000 E0.44079 F2100
G1 X76.821 Y140.403 Z2.000 E0.04897 F2100
G1 X75.661 Y139.070 Z2.000 E0.44078 F2100
G1 X75.530 Y138.924 Z2.000 E0.04899 F2100
G1 X74.418 Y137.551 Z2.000 E0.44078 F2100
G1 X74.297 Y137.396 Z2.000 E0.04897 F2100
G1 X73.259 Y135.966 Z2.000 E0.44078 F2100
G1 X73.141 Y135.809 Z2.000 E0.04899 F2100
G1 X72.151 Y134.345 Z2.000 E0.44079 F2100
G1 X72.044 Y134.181 Z2.000 E0.04897 F2100
G1 X71.137 Y132.664 Z2.000 E0.44078 F2100
G1 X71.033 Y132.498 Z2.000 E0.04899 F2100
G1 X70.172 Y130.954 Z2.000 E0.44080 F2100
G1 X70.080 Y130.781 Z2.000 E0.04897 F2100
G1 X69.310 Y129.191 Z2.000 E0.44079 F2100
G1 X69.221 Y129.016 Z2.000 E0.04898 F2100
G1 X68.497 Y127.404 Z2.000 E0.44079 F2100
G1 X68.420 Y127.223 Z2.000 E0.04897 F2100
G1 X67.793 Y125.571 Z2.000 E0.44080 F2100
G1 X67.720 Y125.389 Z2.000 E0.04898 F2100
G1 X67.137 Y123.720 Z2.000 E0.44079 F2100
G1 X67.076 Y123.534 Z2.000 E0.04898 F2100
G1 X66.597 Y121.833 Z2.000 E0.44080 F2100
G1 X66.540 Y121.645 Z2.000 E0.04898 F2100
G1 X66.104 Y119.933 Z2.000 E0.44081 F2100
G1 X66.059 Y119.741 Z2.000 E0.04898 F2100
G1 X65.731 Y118.005 Z2.000 E0.44080 F2100
G1 X65.692 Y117.813 Z2.000 E0.04897 F2100
G1 X65.405 Y116.069 Z2.000 E0.44080 F2100
G1 X65.377 Y115.875 Z2.000 E0.04898 F2100
G1 X65.202 Y114.116 Z2.000 E0.44081 F2100
G1 X65.180 Y113.921 Z2.000 E0.04897 F2100
G1 X65.046 Y112.159 Z2.000 E0.44080 F2100
G1 X65.034 Y111.963 Z2.000 E0.04898 F2100
G1 X65.014 Y110.196 Z2.000 E0.44081 F2100

; Layer 4, Z=2.500mm, Diameter=127.3mm, Points=576, Amplitude factor=0.01
G1 X65.000 Y110.000 Z2.500 E0.13404 F2100
G1 X65.031 Y108.282 Z2.500 E0.42857 F2100
G1 X65.042 Y108.037 Z2.500 E0.06121 F2100
G1 X65.163 Y106.324 Z2.500 E0.42852 F2100
G1 X65.173 Y106.078 Z2.500 E0.06126 F2100
G1 X65.350 Y104.369 Z2.500 E0.42857 F2100
G1 X65.382 Y104.126 Z2.500 E0.06122 F2100
G1 X65.655 Y102.430 Z2.500 E0.42853 F2100
G1 X65.687 Y102.186 Z2.500 E0.06125 F2100
G1 X66.009 Y100.499 Z2.500 E0.42857 F2100
G1 X66.062 Y100.259 Z2.500 E0.06122 F2100
G1 X66.485 Y98.594 Z2.500 E0.42854 F2100
G1 X66.539 Y98.354 Z2.500 E0.06125 F2100
G1 X67.003 Y96.700 Z2.500 E0.42857 F2100
G1 X67.077 Y96.466 Z2.500 E0.06122 F2100
G1 X67.646 Y94.846 Z2.500 E0.42854 F2100
G1 X67.720 Y94.612 Z2.500 E0.06124 F2100
G1 X68.325 Y93.003 Z2.500 E0.42859 F2100
G1 X68.418 Y92.776 Z2.500 E0.06122 F2100
G1 X69.129 Y91.212 Z2.500 E0.42855 F2100
G1 X69.224 Y90.986 Z2.500 E0.06123 F2100
G1 X69.964 Y89.435 Z2.500 E0.42858 F2100
G1 X70.076 Y89.217 Z2.500 E0.06122 F2100
G1 X70.923 Y87.722 Z2.500 E0.42858 F2100
G1 X71.038 Y87.505 Z2.500 E0.06123 F2100
G1 X71.908 Y86.024 Z2.500 E0.42859 F2100
G1 X72.038 Y85.816 Z2.500 E0.06123 F2100
G1 X73.014 Y84.402 Z2.500 E0.42858 F2100
G1 X73.148 Y84.196 Z2.500 E0.06122 F2100
G1 X74.142 Y82.794 Z2.500 E0.42860 F2100
G1 X74.289 Y82.598 Z2.500 E0.06123 F2100
G1 X75.386 Y81.276 Z2.500 E0.42858 F2100
G1 X75.538 Y81.083 Z2.500 E0.06122 F2100
G1 X76.649 Y79.772 Z2.500 E0.42860 F2100
G1 X76.813 Y79.589 Z2.500 E0.06123 F2100
G1 X78.022 Y78.369 Z2.500 E0.42860 F2100
G1 X78.190 Y78.190 Z2.500 E0.06121 F2100
G1 X79.410 Y76.981 Z2.500 E0.42859 F2100
G1 X79.589 Y76.812 Z2.500 E0.06123 F2100
G1 X80.900 Y75.702 Z2.500 E0.42863 F2100
G1 X81.084 Y75.539 Z2.500 E0.06121 F2100
G1 X82.405 Y74.440 Z2.500 E0.42858 F2100
G1 X82.597 Y74.287 Z2.500 E0.06123 F2100
G1 X84.000 Y73.296 Z2.500 E0.42863 F2100
G1 X84.198 Y73.151 Z2.500 E0.06120 F2100
G1 X85.609 Y72.170 Z2.500 E0.42858 F2100
G1 X85.813 Y72.034 Z2.500 E0.06124 F2100
G1 X87.298 Y71.170 Z2.500 E0.42863 F2100
G1 X87.508 Y71.042 Z2.500 E0.06120 F2100
G1 X88.999 Y70.189 Z2.500 E0.42859 F2100
G1 X89.214 Y70.070 Z2.500 E0.06124 F2100
G1 X90.769 Y69.338 Z2.500 E0.42863 F2100
G1 X90.989 Y69.231 Z2.500 E0.06120 F2100
G1 X92.549 Y68.511 Z2.500 E0.42857 F2100
G1 X92.773 Y68.411 Z2.500 E0.06125 F2100
G1 X94.385 Y67.816 Z2.500 E0.42864 F2100
G1 X94.615 Y67.729 Z2.500 E0.06119 F2100
G1 X96.231 Y67.148 Z2.500 E0.42856 F2100
G1 X96.463 Y67.068 Z2.500 E0.06125 F2100
G1 X98.121 Y66.615 Z2.500 E0.42863 F2100
G1 X98.357 Y66.549 Z2.500 E0.06119 F2100
G1 X100.019 Y66.112 Z2.500 E0.42857 F2100
G1 X100.257 Y66.051 Z2.500 E0.06125 F2100
G1 X101.947 Y65.744 Z2.500 E0.42863 F2100
G1 X102.188 Y65.699 Z2.500 E0.06119 F2100
G1 X103.882 Y65.410 Z2.500 E0.42856 F2100
G1 X104.124 Y65.370 Z2.500 E0.06126 F2100
G1 X105.835 Y65.209 Z2.500 E0.42863 F2100
G1 X106.079 Y65.186 Z2.500 E0.06119 F2100
G1 X107.792 Y65.048 Z2.500 E0.42855 F2100
G1 X108.037 Y65.028 Z2.500 E0.06126 F2100
G1 X109.755 Y65.015 Z2.500 E0.42862 F2100
G1 X110.000 Y65.014 Z2.500 E0.06119 F2100
G1 X111.718 Y65.028 Z2.500 E0.42854 F2100
G1 X111.963 Y65.029 Z2.500 E0.06126 F2100
G1 X113.676 Y65.164 Z2.500 E0.42861 F2100
G1 X113.921 Y65.184 Z2.500 E0.06119 F2100
G1 X115.631 Y65.351 Z2.500 E0.42853 F2100
G1 X115.875 Y65.373 Z2.500 E0.06127 F2100
G1 X117.570 Y65.653 Z2.500 E0.42861 F2100
G1 X117.812 Y65.695 Z2.500 E0.06120 F2100
G1 X119.500 Y66.013 Z2.500 E0.42852 F2100
G1 X119.742 Y66.056 Z2.500 E0.06127 F2100
G1 X121.407 Y66.480 Z2.500 E0.42860 F2100
G1 X121.644 Y66.543 Z2.500 E0.06120 F2100
G1 X123.297 Y67.010 Z2.500 E0.42851 F2100
G1 X123.535 Y67.073 Z2.500 E0.06127 F2100
G1 X125.157 Y67.638 Z2.500 E0.42858 F2100
G1 X125.388 Y67.722 Z2.500 E0.06120 F2100
G1 X126.993 Y68.334 Z2.500 E0.42852 F2100
G1 X127.224 Y68.418 Z2.500 E0.06127 F2100
G1 X128.792 Y69.119 Z2.500 E0.42858 F2100
G1 X129.015 Y69.223 Z2.500 E0.06120 F2100
G1 X130.559 Y69.975 Z2.500 E0.42851 F2100
G1 X130.782 Y70.079 Z2.500 E0.06127 F2100
G1 X132.285 Y70.911 Z2.500 E0.42858 F2100
G1 X132.497 Y71.034 Z2.500 E0.06121 F2100
G1 X133.968 Y71.921 Z2.500 E0.42850 F2100
G1 X134.181 Y72.043 Z2.500 E0.06127 F2100
G1 X135.608 Y73.000 Z2.500 E0.42857 F2100
G1 X135.809 Y73.142 Z2.500 E0.06121 F2100
G1 X137.195 Y74.156 Z2.500 E0.42851 F2100
G1 X137.396 Y74.297 Z2.500 E0.06127 F2100
G1 X138.736 Y75.371 Z2.500 E0.42856 F2100
G1 X138.924 Y75.530 Z2.500 E0.06121 F2100
G1 X140.214 Y76.664 Z2.500 E0.42852 F2100
G1 X140.403 Y76.821 Z2.500 E0.06127 F2100
G1 X141.646 Y78.007 Z2.500 E0.42857 F2100
G1 X141.819 Y78.181 Z2.500 E0.06121 F2100
G1 X143.003 Y79.425 Z2.500 E0.42851 F2100
G1 X143.177 Y79.599 Z2.500 E0.06126 F2100
G1 X144.316 Y80.885 Z2.500 E0.42858 F2100
G1 X144.473 Y81.074 Z2.500 E0.06122 F2100
G1 X145.541 Y82.419 Z2.500 E0.42850 F2100
G1 X145.699 Y82.607 Z2.500 E0.06126 F2100
G1 X146.724 Y83.986 Z2.500 E0.42858 F2100
G1 X146.864 Y84.187 Z2.500 E0.06122 F2100
G1 X147.808 Y85.623 Z2.500 E0.42852 F2100
G1 X147.949 Y85.824 Z2.500 E0.06125 F2100
G1 X148.853 Y87.285 Z2.500 E0.42857 F2100
G1 X148.975 Y87.498 Z2.500 E0.06122 F2100
G1 X149.788 Y89.011 Z2.500 E0.42854 F2100
G1 X149.910 Y89.224 Z2.500 E0.06125 F2100
G1 X150.686 Y90.757 Z2.500 E0.42858 F2100
G1 X150.790 Y90.979 Z2.500 E0.06122 F2100
G1 X151.464 Y92.559 Z2.500 E0.42854 F2100
G1 X151.568 Y92.782 Z2.500 E0.06124 F2100
G1 X152.209 Y94.376 Z2.500 E0.42859 F2100
G1 X152.294 Y94.606 Z2.500 E0.06122 F2100
G1 X152.826 Y96.240 Z2.500 E0.42855 F2100
G1 X152.909 Y96.471 Z2.500 E0.06123 F2100
G1 X153.411 Y98.114 Z2.500 E0.42858 F2100
G1 X153.476 Y98.351 Z2.500 E0.06122 F2100
G1 X153.861 Y100.025 Z2.500 E0.42858 F2100
G1 X153.923 Y100.262 Z2.500 E0.06123 F2100
G1 X154.283 Y101.943 Z2.500 E0.42858 F2100
G1 X154.327 Y102.184 Z2.500 E0.06123 F2100
G1 X154.563 Y103.886 Z2.500 E0.42859 F2100
G1 X154.603 Y104.128 Z2.500 E0.06122 F2100
G1 X154.817 Y105.833 Z2.500 E0.42859 F2100
G1 X154.841 Y106.077 Z2.500 E0.06123 F2100
G1 X154.926 Y107.793 Z2.500 E0.42860 F2100
G1 X154.944 Y108.038 Z2.500 E0.06122 F2100
G1 X155.010 Y109.755 Z2.500 E0.42859 F2100
G1 X155.013 Y110.000 Z2.500 E0.06123 F2100
G1 X154.947 Y111.717 Z2.500 E0.42861 F2100
G1 X154.943 Y111.962 Z2.500 E0.06121 F2100
G1 X154.861 Y113.678 Z2.500 E0.42859 F2100
G1 X154.843 Y113.923 Z2.500 E0.06123 F2100
G1 X154.626 Y115.628 Z2.500 E0.42862 F2100
G1 X154.600 Y115.872 Z2.500 E0.06121 F2100
G1 X154.369 Y117.574 Z2.500 E0.42859 F2100
G1 X154.331 Y117.817 Z2.500 E0.06124 F2100
G1 X153.966 Y119.496 Z2.500 E0.42862 F2100
G1 X153.918 Y119.736 Z2.500 E0.06120 F2100
G1 X153.540 Y121.412 Z2.500 E0.42860 F2100
G1 X153.482 Y121.651 Z2.500 E0.06124 F2100
G1 X152.971 Y123.292 Z2.500 E0.42863 F2100
G1 X152.902 Y123.527 Z2.500 E0.06120 F2100
G1 X152.380 Y125.164 Z2.500 E0.42858 F2100
G1 X152.301 Y125.396 Z2.500 E0.06124 F2100
G1 X151.650 Y126.986 Z2.500 E0.42864 F2100
G1 X151.560 Y127.215 Z2.500 E0.06120 F2100
G1 X150.896 Y128.799 Z2.500 E0.42857 F2100
G1 X150.798 Y129.025 Z2.500 E0.06125 F2100
G1 X150.011 Y130.552 Z2.500 E0.42863 F2100
G1 X149.901 Y130.771 Z2.500 E0.06119 F2100
G1 X149.101 Y132.292 Z2.500 E0.42858 F2100
G1 X148.985 Y132.508 Z2.500 E0.06125 F2100
G1 X148.069 Y133.962 Z2.500 E0.42863 F2100
G1 X147.939 Y134.170 Z2.500 E0.06119 F2100
G1 X147.009 Y135.614 Z2.500 E0.42856 F2100
G1 X146.874 Y135.820 Z2.500 E0.06125 F2100
G1 X145.836 Y137.189 Z2.500 E0.42864 F2100
G1 X145.689 Y137.385 Z2.500 E0.06119 F2100
G1 X144.635 Y138.742 Z2.500 E0.42854 F2100
G1 X144.483 Y138.935 Z2.500 E0.06126 F2100
G1 X143.331 Y140.210 Z2.500 E0.42863 F2100
G1 X143.167 Y140.392 Z2.500 E0.06119 F2100
G1 X141.997 Y141.650 Z2.500 E0.42854 F2100
G1 X141.830 Y141.830 Z2.500 E0.06126 F2100
G1 X140.572 Y143.001 Z2.500 E0.42861 F2100
G1 X140.392 Y143.167 Z2.500 E0.06119 F2100
G1 X139.116 Y144.317 Z2.500 E0.42855 F2100
G1 X138.934 Y144.482 Z2.500 E0.06127 F2100
G1 X137.581 Y145.541 Z2.500 E0.42860 F2100
G1 X137.387 Y145.691 Z2.500 E0.06119 F2100
G1 X136.013 Y146.723 Z2.500 E0.42854 F2100
G1 X135.818 Y146.872 Z2.500 E0.06127 F2100
G1 X134.379 Y147.811 Z2.500 E0.42860 F2100
G1 X134.172 Y147.943 Z2.500 E0.06120 F2100
G1 X132.713 Y148.849 Z2.500 E0.42852 F2100
G1 X132.505 Y148.981 Z2.500 E0.06127 F2100
G1 X130.992 Y149.793 Z2.500 E0.42860 F2100
G1 X130.774 Y149.906 Z2.500 E0.06120 F2100
G1 X129.240 Y150.679 Z2.500 E0.42851 F2100
G1 X129.022 Y150.792 Z2.500 E0.06127 F2100
G1 X127.444 Y151.473 Z2.500 E0.42858 F2100
G1 X127.217 Y151.567 Z2.500 E0.06120 F2100
G1 X125.620 Y152.199 Z2.500 E0.42852 F2100
G1 X125.394 Y152.294 Z2.500 E0.06127 F2100
G1 X123.764 Y152.837 Z2.500 E0.42857 F2100
G1 X123.530 Y152.910 Z2.500 E0.06120 F2100
G1 X121.883 Y153.398 Z2.500 E0.42850 F2100
G1 X121.649 Y153.473 Z2.500 E0.06127 F2100
G1 X119.978 Y153.875 Z2.500 E0.42858 F2100
G1 X119.739 Y153.928 Z2.500 E0.06121 F2100
G1 X118.055 Y154.267 Z2.500 E0.42850 F2100
G1 X117.815 Y154.321 Z2.500 E0.06127 F2100
G1 X116.117 Y154.580 Z2.500 E0.42857 F2100
G1 X115.873 Y154.611 Z2.500 E0.06121 F2100
G1 X114.166 Y154.799 Z2.500 E0.42851 F2100
G1 X113.922 Y154.832 Z2.500 E0.06127 F2100
G1 X112.208 Y154.945 Z2.500 E0.42857 F2100
G1 X111.963 Y154.955 Z2.500 E0.06121 F2100
G1 X110.245 Y154.990 Z2.500 E0.42851 F2100
G1 X110.000 Y155.001 Z2.500 E0.06126 F2100
G1 X108.282 Y154.968 Z2.500 E0.42857 F2100
G1 X108.037 Y154.957 Z2.500 E0.06121 F2100
G1 X106.323 Y154.838 Z2.500 E0.42851 F2100
G1 X106.078 Y154.828 Z2.500 E0.06126 F2100
G1 X104.369 Y154.649 Z2.500 E0.42857 F2100
G1 X104.126 Y154.617 Z2.500 E0.06122 F2100
G1 X102.430 Y154.345 Z2.500 E0.42852 F2100
G1 X102.186 Y154.314 Z2.500 E0.06126 F2100
G1 X100.499 Y153.990 Z2.500 E0.42857 F2100
G1 X100.259 Y153.937 Z2.500 E0.06122 F2100
G1 X98.594 Y153.515 Z2.500 E0.42854 F2100
G1 X98.354 Y153.462 Z2.500 E0.06125 F2100
G1 X96.701 Y152.996 Z2.500 E0.42857 F2100
G1 X96.467 Y152.922 Z2.500 E0.06122 F2100
G1 X94.845 Y152.355 Z2.500 E0.42853 F2100
G1 X94.611 Y152.280 Z2.500 E0.06124 F2100
G1 X93.003 Y151.675 Z2.500 E0.42859 F2100
G1 X92.777 Y151.581 Z2.500 E0.06122 F2100
G1 X91.212 Y150.871 Z2.500 E0.42855 F2100
G1 X90.986 Y150.777 Z2.500 E0.06124 F2100
G1 X89.435 Y150.036 Z2.500 E0.42858 F2100
G1 X89.217 Y149.923 Z2.500 E0.06122 F2100
G1 X87.722 Y149.077 Z2.500 E0.42857 F2100
G1 X87.505 Y148.963 Z2.500 E0.06123 F2100
G1 X86.024 Y148.092 Z2.500 E0.42858 F2100
G1 X85.816 Y147.961 Z2.500 E0.06123 F2100
G1 X84.401 Y146.986 Z2.500 E0.42857 F2100
G1 X84.195 Y146.853 Z2.500 E0.06123 F2100
G1 X82.795 Y145.858 Z2.500 E0.42859 F2100
G1 X82.599 Y145.710 Z2.500 E0.06123 F2100
G1 X81.276 Y144.614 Z2.500 E0.42858 F2100
G1 X81.082 Y144.463 Z2.500 E0.06122 F2100
G1 X79.773 Y143.351 Z2.500 E0.42860 F2100
G1 X79.590 Y143.187 Z2.500 E0.06123 F2100
G1 X78.368 Y141.978 Z2.500 E0.42860 F2100
G1 X78.190 Y141.810 Z2.500 E0.06121 F2100
G1 X76.981 Y140.590 Z2.500 E0.42859 F2100
G1 X76.812 Y140.411 Z2.500 E0.06123 F2100
G1 X75.702 Y139.100 Z2.500 E0.42862 F2100
G1 X75.539 Y138.916 Z2.500 E0.06121 F2100
G1 X74.440 Y137.595 Z2.500 E0.42858 F2100
G1 X74.288 Y137.403 Z2.500 E0.06123 F2100
G1 X73.296 Y136.000 Z2.500 E0.42863 F2100
G1 X73.150 Y135.802 Z2.500 E0.06121 F2100
G1 X72.170 Y134.391 Z2.500 E0.42858 F2100
G1 X72.035 Y134.187 Z2.500 E0.06124 F2100
G1 X71.170 Y132.702 Z2.500 E0.42863 F2100
G1 X71.042 Y132.492 Z2.500 E0.06120 F2100
G1 X70.189 Y131.001 Z2.500 E0.42859 F2100
G1 X70.071 Y130.786 Z2.500 E0.06124 F2100
G1 X69.339 Y129.231 Z2.500 E0.42863 F2100
G1 X69.231 Y129.011 Z2.500 E0.06120 F2100
G1 X68.510 Y127.451 Z2.500 E0.42858 F2100
G1 X68.411 Y127.227 Z2.500 E0.06124 F2100
G1 X67.817 Y125.614 Z2.500 E0.42864 F2100
G1 X67.729 Y125.385 Z2.500 E0.06120 F2100
G1 X67.148 Y123.769 Z2.500 E0.42857 F2100
G1 X67.068 Y123.537 Z2.500 E0.06125 F2100
G1 X66.616 Y121.879 Z2.500 E0.42863 F2100
G1 X66.549 Y121.643 Z2.500 E0.06119 F2100
G1 X66.112 Y119.981 Z2.500 E0.42858 F2100
G1 X66.051 Y119.743 Z2.500 E0.06125 F2100
G1 X65.745 Y118.053 Z2.500 E0.42863 F2100
G1 X65.699 Y117.811 Z2.500 E0.06119 F2100
G1 X65.410 Y116.118 Z2.500 E0.42856 F2100
G1 X65.370 Y115.876 Z2.500 E0.06126 F2100
G1 X65.210 Y114.165 Z2.500 E0.42863 F2100
G1 X65.186 Y113.921 Z2.500 E0.06119 F2100
G1 X65.047 Y112.208 Z2.500 E0.42855 F2100
G1 X65.028 Y111.964 Z2.500 E0.06126 F2100
G1 X65.016 Y110.245 Z2.500 E0.42862 F2100

; Layer 5, Z=3.000mm, Diameter=127.3mm, Points=576, Amplitude factor=0.01
G1 X65.000 Y110.000 Z3.000 E0.13899 F2100
G1 X65.025 Y108.331 Z3.000 E0.41635 F2100
G1 X65.041 Y108.037 Z3.000 E0.07347 F2100
G1 X65.164 Y106.373 Z3.000 E0.41627 F2100
G1 X65.174 Y106.078 Z3.000 E0.07354 F2100
G1 X65.339 Y104.417 Z3.000 E0.41635 F2100
G1 X65.381 Y104.126 Z3.000 E0.07347 F2100
G1 X65.653 Y102.479 Z3.000 E0.41629 F2100
G1 X65.689 Y102.187 Z3.000 E0.07353 F2100
G1 X65.994 Y100.546 Z3.000 E0.41636 F2100
G1 X66.060 Y100.259 Z3.000 E0.07347 F2100
G1 X66.479 Y98.643 Z3.000 E0.41631 F2100
G1 X66.541 Y98.355 Z3.000 E0.07352 F2100
G1 X66.984 Y96.746 Z3.000 E0.41636 F2100
G1 X67.074 Y96.465 Z3.000 E0.07348 F2100
G1 X67.636 Y94.894 Z3.000 E0.41632 F2100
G1 X67.723 Y94.613 Z3.000 E0.07350 F2100
G1 X68.301 Y93.046 Z3.000 E0.41639 F2100
G1 X68.415 Y92.775 Z3.000 E0.07348 F2100
G1 X69.116 Y91.260 Z3.000 E0.41635 F2100
G1 X69.228 Y90.987 Z3.000 E0.07349 F2100
G1 X69.936 Y89.476 Z3.000 E0.41639 F2100
G1 X70.072 Y89.215 Z3.000 E0.07348 F2100
G1 X70.905 Y87.769 Z3.000 E0.41638 F2100
G1 X71.042 Y87.507 Z3.000 E0.07348 F2100
G1 X71.876 Y86.062 Z3.000 E0.41639 F2100
G1 X72.034 Y85.813 Z3.000 E0.07348 F2100
G1 X72.993 Y84.446 Z3.000 E0.41639 F2100
G1 X73.152 Y84.199 Z3.000 E0.07347 F2100
G1 X74.107 Y82.830 Z3.000 E0.41641 F2100
G1 X74.285 Y82.595 Z3.000 E0.07348 F2100
G1 X75.361 Y81.319 Z3.000 E0.41641 F2100
G1 X75.542 Y81.086 Z3.000 E0.07346 F2100
G1 X76.611 Y79.805 Z3.000 E0.41642 F2100
G1 X76.808 Y79.586 Z3.000 E0.07349 F2100
G1 X77.993 Y78.409 Z3.000 E0.41644 F2100
G1 X78.194 Y78.194 Z3.000 E0.07345 F2100
G1 X79.370 Y77.009 Z3.000 E0.41641 F2100
G1 X79.585 Y76.807 Z3.000 E0.07349 F2100
G1 X80.868 Y75.740 Z3.000 E0.41647 F2100
G1 X81.088 Y75.544 Z3.000 E0.07344 F2100
G1 X82.362 Y74.465 Z3.000 E0.41640 F2100
G1 X82.593 Y74.282 Z3.000 E0.07349 F2100
G1 X83.965 Y73.331 Z3.000 E0.41648 F2100
G1 X84.202 Y73.156 Z3.000 E0.07343 F2100
G1 X85.564 Y72.192 Z3.000 E0.41640 F2100
G1 X85.810 Y72.029 Z3.000 E0.07350 F2100
G1 X87.259 Y71.201 Z3.000 E0.41648 F2100
G1 X87.511 Y71.048 Z3.000 E0.07343 F2100
G1 X88.953 Y70.207 Z3.000 E0.41640 F2100
G1 X89.211 Y70.064 Z3.000 E0.07351 F2100
G1 X90.727 Y69.366 Z3.000 E0.41648 F2100
G1 X90.992 Y69.237 Z3.000 E0.07342 F2100
G1 X92.502 Y68.525 Z3.000 E0.41638 F2100
G1 X92.770 Y68.404 Z3.000 E0.07351 F2100
G1 X94.342 Y67.839 Z3.000 E0.41649 F2100
G1 X94.617 Y67.735 Z3.000 E0.07342 F2100
G1 X96.183 Y67.159 Z3.000 E0.41637 F2100
G1 X96.461 Y67.061 Z3.000 E0.07352 F2100
G1 X98.075 Y66.634 Z3.000 E0.41647 F2100
G1 X98.359 Y66.555 Z3.000 E0.07342 F2100
G1 X99.970 Y66.119 Z3.000 E0.41637 F2100
G1 X100.255 Y66.045 Z3.000 E0.07353 F2100
G1 X101.900 Y65.758 Z3.000 E0.41647 F2100
G1 X102.190 Y65.705 Z3.000 E0.07342 F2100
G1 X103.833 Y65.414 Z3.000 E0.41635 F2100
G1 X104.123 Y65.363 Z3.000 E0.07353 F2100
G1 X105.787 Y65.218 Z3.000 E0.41646 F2100
G1 X106.080 Y65.192 Z3.000 E0.07342 F2100
G1 X107.743 Y65.048 Z3.000 E0.41633 F2100
G1 X108.036 Y65.022 Z3.000 E0.07354 F2100
G1 X109.706 Y65.019 Z3.000 E0.41644 F2100
G1 X110.000 Y65.020 Z3.000 E0.07342 F2100
G1 X111.669 Y65.024 Z3.000 E0.41631 F2100
G1 X111.964 Y65.023 Z3.000 E0.07355 F2100
G1 X113.627 Y65.163 Z3.000 E0.41643 F2100
G1 X113.920 Y65.190 Z3.000 E0.07343 F2100
G1 X115.582 Y65.343 Z3.000 E0.41629 F2100
G1 X115.876 Y65.367 Z3.000 E0.07355 F2100
G1 X117.522 Y65.647 Z3.000 E0.41641 F2100
G1 X117.811 Y65.701 Z3.000 E0.07343 F2100
G1 X119.452 Y66.002 Z3.000 E0.41627 F2100
G1 X119.743 Y66.051 Z3.000 E0.07356 F2100
G1 X121.359 Y66.469 Z3.000 E0.41640 F2100
G1 X121.643 Y66.548 Z3.000 E0.07344 F2100
G1 X123.250 Y66.996 Z3.000 E0.41626 F2100
G1 X123.536 Y67.069 Z3.000 E0.07356 F2100
G1 X125.111 Y67.622 Z3.000 E0.41637 F2100
G1 X125.386 Y67.726 Z3.000 E0.07344 F2100
G1 X126.947 Y68.317 Z3.000 E0.41626 F2100
G1 X127.225 Y68.414 Z3.000 E0.07357 F2100
G1 X128.748 Y69.098 Z3.000 E0.41636 F2100
G1 X129.013 Y69.226 Z3.000 E0.07345 F2100
G1 X130.514 Y69.955 Z3.000 E0.41624 F2100
G1 X130.783 Y70.076 Z3.000 E0.07356 F2100
G1 X132.243 Y70.886 Z3.000 E0.41636 F2100
G1 X132.496 Y71.036 Z3.000 E0.07346 F2100
G1 X133.925 Y71.897 Z3.000 E0.41624 F2100
G1 X134.182 Y72.041 Z3.000 E0.07356 F2100
G1 X135.569 Y72.971 Z3.000 E0.41634 F2100
G1 X135.807 Y73.143 Z3.000 E0.07346 F2100
G1 X137.153 Y74.130 Z3.000 E0.41625 F2100
G1 X137.397 Y74.295 Z3.000 E0.07356 F2100
G1 X138.700 Y75.338 Z3.000 E0.41633 F2100
G1 X138.923 Y75.531 Z3.000 E0.07346 F2100
G1 X140.175 Y76.635 Z3.000 E0.41626 F2100
G1 X140.403 Y76.821 Z3.000 E0.07355 F2100
G1 X141.614 Y77.970 Z3.000 E0.41634 F2100
G1 X141.819 Y78.181 Z3.000 E0.07347 F2100
G1 X142.966 Y79.393 Z3.000 E0.41625 F2100
G1 X143.177 Y79.599 Z3.000 E0.07354 F2100
G1 X144.287 Y80.845 Z3.000 E0.41636 F2100
G1 X144.473 Y81.073 Z3.000 E0.07347 F2100
G1 X145.506 Y82.384 Z3.000 E0.41626 F2100
G1 X145.698 Y82.608 Z3.000 E0.07353 F2100
G1 X146.699 Y83.943 Z3.000 E0.41636 F2100
G1 X146.866 Y84.187 Z3.000 E0.07347 F2100
G1 X147.776 Y85.585 Z3.000 E0.41628 F2100
G1 X147.948 Y85.825 Z3.000 E0.07352 F2100
G1 X148.832 Y87.240 Z3.000 E0.41636 F2100
G1 X148.977 Y87.496 Z3.000 E0.07348 F2100
G1 X149.759 Y88.971 Z3.000 E0.41631 F2100
G1 X149.908 Y89.225 Z3.000 E0.07352 F2100
G1 X150.670 Y90.710 Z3.000 E0.41637 F2100
G1 X150.792 Y90.978 Z3.000 E0.07348 F2100
G1 X151.439 Y92.517 Z3.000 E0.41633 F2100
G1 X151.565 Y92.783 Z3.000 E0.07350 F2100
G1 X152.198 Y94.328 Z3.000 E0.41639 F2100
G1 X152.297 Y94.605 Z3.000 E0.07348 F2100
G1 X152.804 Y96.195 Z3.000 E0.41635 F2100
G1 X152.905 Y96.472 Z3.000 E0.07349 F2100
G1 X153.404 Y98.065 Z3.000 E0.41639 F2100
G1 X153.480 Y98.349 Z3.000 E0.07348 F2100
G1 X153.843 Y99.979 Z3.000 E0.41639 F2100
G1 X153.919 Y100.263 Z3.000 E0.07348 F2100
G1 X154.280 Y101.893 Z3.000 E0.41639 F2100
G1 X154.332 Y102.183 Z3.000 E0.07348 F2100
G1 X154.548 Y103.838 Z3.000 E0.41641 F2100
G1 X154.598 Y104.129 Z3.000 E0.07347 F2100
G1 X154.819 Y105.783 Z3.000 E0.41640 F2100
G1 X154.847 Y106.076 Z3.000 E0.07348 F2100
G1 X154.915 Y107.744 Z3.000 E0.41643 F2100
G1 X154.939 Y108.038 Z3.000 E0.07346 F2100
G1 X155.016 Y109.705 Z3.000 E0.41641 F2100
G1 X155.019 Y110.000 Z3.000 E0.07349 F2100
G1 X154.941 Y111.668 Z3.000 E0.41644 F2100
G1 X154.937 Y111.962 Z3.000 E0.07345 F2100
G1 X154.871 Y113.630 Z3.000 E0.41641 F2100
G1 X154.849 Y113.924 Z3.000 E0.07349 F2100
G1 X154.624 Y115.578 Z3.000 E0.41646 F2100
G1 X154.594 Y115.871 Z3.000 E0.07344 F2100
G1 X154.384 Y117.527 Z3.000 E0.41641 F2100
G1 X154.338 Y117.818 Z3.000 E0.07350 F2100
G1 X153.969 Y119.446 Z3.000 E0.41647 F2100
G1 X153.912 Y119.735 Z3.000 E0.07343 F2100
G1 X153.558 Y121.366 Z3.000 E0.41641 F2100
G1 X153.488 Y121.653 Z3.000 E0.07350 F2100
G1 X152.979 Y123.243 Z3.000 E0.41648 F2100
G1 X152.896 Y123.525 Z3.000 E0.07342 F2100
G1 X152.401 Y125.119 Z3.000 E0.41639 F2100
G1 X152.308 Y125.399 Z3.000 E0.07351 F2100
G1 X151.662 Y126.938 Z3.000 E0.41649 F2100
G1 X151.553 Y127.212 Z3.000 E0.07342 F2100
G1 X150.921 Y128.757 Z3.000 E0.41638 F2100
G1 X150.805 Y129.028 Z3.000 E0.07351 F2100
G1 X150.028 Y130.506 Z3.000 E0.41648 F2100
G1 X149.895 Y130.768 Z3.000 E0.07342 F2100
G1 X149.129 Y132.251 Z3.000 E0.41638 F2100
G1 X148.991 Y132.511 Z3.000 E0.07352 F2100
G1 X148.090 Y133.917 Z3.000 E0.41647 F2100
G1 X147.934 Y134.166 Z3.000 E0.07342 F2100
G1 X147.040 Y135.576 Z3.000 E0.41635 F2100
G1 X146.880 Y135.824 Z3.000 E0.07353 F2100
G1 X145.862 Y137.147 Z3.000 E0.41647 F2100
G1 X145.683 Y137.381 Z3.000 E0.07342 F2100
G1 X144.668 Y138.706 Z3.000 E0.41633 F2100
G1 X144.488 Y138.939 Z3.000 E0.07353 F2100
G1 X143.361 Y140.170 Z3.000 E0.41646 F2100
G1 X143.162 Y140.387 Z3.000 E0.07342 F2100
G1 X142.033 Y141.617 Z3.000 E0.41632 F2100
G1 X141.834 Y141.834 Z3.000 E0.07354 F2100
G1 X140.606 Y142.965 Z3.000 E0.41643 F2100
G1 X140.388 Y143.163 Z3.000 E0.07343 F2100
G1 X139.154 Y144.287 Z3.000 E0.41631 F2100
G1 X138.938 Y144.487 Z3.000 E0.07355 F2100
G1 X137.618 Y145.508 Z3.000 E0.41641 F2100
G1 X137.383 Y145.686 Z3.000 E0.07343 F2100
G1 X136.054 Y146.695 Z3.000 E0.41629 F2100
G1 X135.821 Y146.876 Z3.000 E0.07356 F2100
G1 X134.419 Y147.782 Z3.000 E0.41640 F2100
G1 X134.170 Y147.939 Z3.000 E0.07343 F2100
G1 X132.755 Y148.824 Z3.000 E0.41627 F2100
G1 X132.508 Y148.985 Z3.000 E0.07356 F2100
G1 X131.034 Y149.769 Z3.000 E0.41640 F2100
G1 X130.772 Y149.902 Z3.000 E0.07344 F2100
G1 X129.284 Y150.657 Z3.000 E0.41626 F2100
G1 X129.024 Y150.796 Z3.000 E0.07356 F2100
G1 X127.489 Y151.453 Z3.000 E0.41637 F2100
G1 X127.216 Y151.563 Z3.000 E0.07345 F2100
G1 X125.666 Y152.181 Z3.000 E0.41626 F2100
G1 X125.395 Y152.297 Z3.000 E0.07357 F2100
G1 X123.811 Y152.823 Z3.000 E0.41636 F2100
G1 X123.529 Y152.907 Z3.000 E0.07345 F2100
G1 X121.929 Y153.383 Z3.000 E0.41624 F2100
G1 X121.649 Y153.476 Z3.000 E0.07356 F2100
G1 X120.026 Y153.866 Z3.000 E0.41636 F2100
G1 X119.738 Y153.926 Z3.000 E0.07346 F2100
G1 X118.102 Y154.255 Z3.000 E0.41623 F2100
G1 X117.815 Y154.323 Z3.000 E0.07356 F2100
G1 X116.165 Y154.575 Z3.000 E0.41635 F2100
G1 X115.873 Y154.610 Z3.000 E0.07346 F2100
G1 X114.214 Y154.790 Z3.000 E0.41624 F2100
G1 X113.922 Y154.833 Z3.000 E0.07356 F2100
G1 X112.257 Y154.946 Z3.000 E0.41635 F2100
G1 X111.963 Y154.954 Z3.000 E0.07347 F2100
G1 X110.294 Y154.985 Z3.000 E0.41625 F2100
G1 X110.000 Y155.001 Z3.000 E0.07355 F2100
G1 X108.331 Y154.974 Z3.000 E0.41634 F2100
G1 X108.037 Y154.957 Z3.000 E0.07347 F2100
G1 X106.373 Y154.837 Z3.000 E0.41626 F2100
G1 X106.078 Y154.828 Z3.000 E0.07354 F2100
G1 X104.418 Y154.659 Z3.000 E0.41635 F2100
G1 X104.126 Y154.617 Z3.000 E0.07347 F2100
G1 X102.479 Y154.348 Z3.000 E0.41628 F2100
G1 X102.186 Y154.313 Z3.000 E0.07353 F2100
G1 X100.546 Y154.005 Z3.000 E0.41635 F2100
G1 X100.259 Y153.938 Z3.000 E0.07347 F2100
G1 X98.643 Y153.522 Z3.000 E0.41630 F2100
G1 X98.355 Y153.461 Z3.000 E0.07352 F2100
G1 X96.746 Y153.015 Z3.000 E0.41636 F2100
G1 X96.466 Y152.925 Z3.000 E0.07348 F2100
G1 X94.894 Y152.364 Z3.000 E0.41631 F2100
G1 X94.612 Y152.278 Z3.000 E0.07351 F2100
G1 X93.047 Y151.698 Z3.000 E0.41638 F2100
G1 X92.775 Y151.584 Z3.000 E0.07348 F2100
G1 X91.260 Y150.885 Z3.000 E0.41633 F2100
G1 X90.987 Y150.774 Z3.000 E0.07350 F2100
G1 X89.476 Y150.063 Z3.000 E0.41638 F2100
G1 X89.216 Y149.926 Z3.000 E0.07348 F2100
G1 X87.768 Y149.095 Z3.000 E0.41637 F2100
G1 X87.507 Y148.959 Z3.000 E0.07349 F2100
G1 X86.062 Y148.123 Z3.000 E0.41639 F2100
G1 X85.814 Y147.965 Z3.000 E0.07348 F2100
G1 X84.446 Y147.008 Z3.000 E0.41638 F2100
G1 X84.198 Y146.849 Z3.000 E0.07347 F2100
G1 X82.830 Y145.892 Z3.000 E0.41640 F2100
G1 X82.596 Y145.714 Z3.000 E0.07348 F2100
G1 X81.318 Y144.639 Z3.000 E0.41640 F2100
G1 X81.086 Y144.459 Z3.000 E0.07346 F2100
G1 X79.805 Y143.388 Z3.000 E0.41641 F2100
G1 X79.586 Y143.191 Z3.000 E0.07349 F2100
G1 X78.409 Y142.007 Z3.000 E0.41643 F2100
G1 X78.194 Y141.806 Z3.000 E0.07345 F2100
G1 X77.009 Y140.630 Z3.000 E0.41641 F2100
G1 X76.808 Y140.415 Z3.000 E0.07349 F2100
G1 X75.740 Y139.132 Z3.000 E0.41646 F2100
G1 X75.544 Y138.912 Z3.000 E0.07345 F2100
G1 X74.465 Y137.638 Z3.000 E0.41640 F2100
G1 X74.283 Y137.407 Z3.000 E0.07349 F2100
G1 X73.331 Y136.035 Z3.000 E0.41647 F2100
G1 X73.156 Y135.799 Z3.000 E0.07344 F2100
G1 X72.192 Y134.436 Z3.000 E0.41640 F2100
G1 X72.029 Y134.190 Z3.000 E0.07350 F2100
G1 X71.201 Y132.740 Z3.000 E0.41647 F2100
G1 X71.048 Y132.489 Z3.000 E0.07343 F2100
G1 X70.207 Y131.047 Z3.000 E0.41641 F2100
G1 X70.065 Y130.789 Z3.000 E0.07350 F2100
G1 X69.366 Y129.273 Z3.000 E0.41648 F2100
G1 X69.237 Y129.008 Z3.000 E0.07342 F2100
G1 X68.524 Y127.499 Z3.000 E0.41639 F2100
G1 X68.404 Y127.230 Z3.000 E0.07351 F2100
G1 X67.840 Y125.658 Z3.000 E0.41649 F2100
G1 X67.735 Y125.383 Z3.000 E0.07342 F2100
G1 X67.158 Y123.817 Z3.000 E0.41638 F2100
G1 X67.061 Y123.539 Z3.000 E0.07351 F2100
G1 X66.635 Y121.924 Z3.000 E0.41648 F2100
G1 X66.555 Y121.641 Z3.000 E0.07342 F2100
G1 X66.118 Y120.030 Z3.000 E0.41638 F2100
G1 X66.045 Y119.745 Z3.000 E0.07352 F2100
G1 X65.759 Y118.100 Z3.000 E0.41647 F2100
G1 X65.706 Y117.810 Z3.000 E0.07342 F2100
G1 X65.413 Y116.167 Z3.000 E0.41635 F2100
G1 X65.363 Y115.877 Z3.000 E0.07353 F2100
G1 X65.219 Y114.213 Z3.000 E0.41646 F2100
G1 X65.193 Y113.920 Z3.000 E0.07342 F2100
G1 X65.047 Y112.258 Z3.000 E0.41634 F2100
G1 X65.022 Y111.964 Z3.000 E0.07354 F2100
G1 X65.021 Y110.294 Z3.000 E0.41645 F2100

; Layer 6, Z=3.500mm, Diameter=127.3mm, Points=576, Amplitude factor=0.02
G1 X64.976 Y110.000 Z3.500 E0.14516 F2100
G1 X65.044 Y108.381 Z3.500 E0.40423 F2100
G1 X65.066 Y108.038 Z3.500 E0.08569 F2100
G1 X65.142 Y106.420 Z3.500 E0.40402 F2100
G1 X65.150 Y106.076 Z3.500 E0.08588 F2100
G1 X65.353 Y104.468 Z3.500 E0.40420 F2100
G1 X65.405 Y104.129 Z3.500 E0.08570 F2100
G1 X65.628 Y102.525 Z3.500 E0.40399 F2100
G1 X65.665 Y102.183 Z3.500 E0.08589 F2100
G1 X66.001 Y100.597 Z3.500 E0.40418 F2100
G1 X66.084 Y100.264 Z3.500 E0.08571 F2100
G1 X66.452 Y98.687 Z3.500 E0.40398 F2100
G1 X66.518 Y98.349 Z3.500 E0.08589 F2100
G1 X66.984 Y96.797 Z3.500 E0.40416 F2100
G1 X67.096 Y96.472 Z3.500 E0.08572 F2100
G1 X67.607 Y94.936 Z3.500 E0.40396 F2100
G1 X67.702 Y94.605 Z3.500 E0.08589 F2100
G1 X68.296 Y93.097 Z3.500 E0.40415 F2100
G1 X68.435 Y92.783 Z3.500 E0.08573 F2100
G1 X69.085 Y91.300 Z3.500 E0.40396 F2100
G1 X69.208 Y90.978 Z3.500 E0.08588 F2100
G1 X69.924 Y89.525 Z3.500 E0.40413 F2100
G1 X70.091 Y89.225 Z3.500 E0.08574 F2100
G1 X70.873 Y87.807 Z3.500 E0.40397 F2100
G1 X71.024 Y87.497 Z3.500 E0.08588 F2100
G1 X71.858 Y86.109 Z3.500 E0.40413 F2100
G1 X72.051 Y85.824 Z3.500 E0.08574 F2100
G1 X72.959 Y84.483 Z3.500 E0.40398 F2100
G1 X73.137 Y84.188 Z3.500 E0.08586 F2100
G1 X74.083 Y82.873 Z3.500 E0.40414 F2100
G1 X74.299 Y82.606 Z3.500 E0.08575 F2100
G1 X75.326 Y81.354 Z3.500 E0.40400 F2100
G1 X75.529 Y81.076 Z3.500 E0.08585 F2100
G1 X76.582 Y79.844 Z3.500 E0.40415 F2100
G1 X76.820 Y79.596 Z3.500 E0.08575 F2100
G1 X77.957 Y78.443 Z3.500 E0.40404 F2100
G1 X78.184 Y78.184 Z3.500 E0.08583 F2100
G1 X79.336 Y77.044 Z3.500 E0.40415 F2100
G1 X79.594 Y76.817 Z3.500 E0.08575 F2100
G1 X80.831 Y75.772 Z3.500 E0.40408 F2100
G1 X81.080 Y75.535 Z3.500 E0.08582 F2100
G1 X82.323 Y74.495 Z3.500 E0.40416 F2100
G1 X82.599 Y74.291 Z3.500 E0.08574 F2100
G1 X83.927 Y73.362 Z3.500 E0.40412 F2100
G1 X84.196 Y73.148 Z3.500 E0.08579 F2100
G1 X85.522 Y72.216 Z3.500 E0.40418 F2100
G1 X85.814 Y72.036 Z3.500 E0.08574 F2100
G1 X87.220 Y71.230 Z3.500 E0.40416 F2100
G1 X87.508 Y71.042 Z3.500 E0.08577 F2100
G1 X88.907 Y70.225 Z3.500 E0.40421 F2100
G1 X89.214 Y70.070 Z3.500 E0.08575 F2100
G1 X90.686 Y69.394 Z3.500 E0.40420 F2100
G1 X90.990 Y69.233 Z3.500 E0.08575 F2100
G1 X92.453 Y68.537 Z3.500 E0.40422 F2100
G1 X92.772 Y68.407 Z3.500 E0.08574 F2100
G1 X94.299 Y67.866 Z3.500 E0.40425 F2100
G1 X94.616 Y67.734 Z3.500 E0.08573 F2100
G1 X96.133 Y67.164 Z3.500 E0.40424 F2100
G1 X96.461 Y67.061 Z3.500 E0.08574 F2100
G1 X98.031 Y66.659 Z3.500 E0.40428 F2100
G1 X98.359 Y66.556 Z3.500 E0.08571 F2100
G1 X99.920 Y66.118 Z3.500 E0.40427 F2100
G1 X100.255 Y66.043 Z3.500 E0.08575 F2100
G1 X101.854 Y65.781 Z3.500 E0.40431 F2100
G1 X102.190 Y65.709 Z3.500 E0.08569 F2100
G1 X103.782 Y65.406 Z3.500 E0.40427 F2100
G1 X104.123 Y65.358 Z3.500 E0.08575 F2100
G1 X105.739 Y65.240 Z3.500 E0.40434 F2100
G1 X106.080 Y65.199 Z3.500 E0.08567 F2100
G1 X107.693 Y65.034 Z3.500 E0.40427 F2100
G1 X108.036 Y65.014 Z3.500 E0.08576 F2100
G1 X109.657 Y65.038 Z3.500 E0.40436 F2100
G1 X110.000 Y65.029 Z3.500 E0.08566 F2100
G1 X111.620 Y65.005 Z3.500 E0.40427 F2100
G1 X111.964 Y65.013 Z3.500 E0.08576 F2100
G1 X113.577 Y65.179 Z3.500 E0.40438 F2100
G1 X113.919 Y65.201 Z3.500 E0.08565 F2100
G1 X115.536 Y65.318 Z3.500 E0.40426 F2100
G1 X115.878 Y65.355 Z3.500 E0.08577 F2100
G1 X117.470 Y65.660 Z3.500 E0.40439 F2100
G1 X117.809 Y65.714 Z3.500 E0.08564 F2100
G1 X119.409 Y65.972 Z3.500 E0.40425 F2100
G1 X119.747 Y66.036 Z3.500 E0.08578 F2100
G1 X121.306 Y66.478 Z3.500 E0.40439 F2100
G1 X121.639 Y66.563 Z3.500 E0.08564 F2100
G1 X123.210 Y66.961 Z3.500 E0.40423 F2100
G1 X123.541 Y67.053 Z3.500 E0.08579 F2100
G1 X125.057 Y67.627 Z3.500 E0.40437 F2100
G1 X125.380 Y67.743 Z3.500 E0.08564 F2100
G1 X126.910 Y68.278 Z3.500 E0.40421 F2100
G1 X127.233 Y68.397 Z3.500 E0.08581 F2100
G1 X128.694 Y69.099 Z3.500 E0.40435 F2100
G1 X129.005 Y69.244 Z3.500 E0.08564 F2100
G1 X130.480 Y69.913 Z3.500 E0.40417 F2100
G1 X130.793 Y70.058 Z3.500 E0.08582 F2100
G1 X132.189 Y70.881 Z3.500 E0.40434 F2100
G1 X132.485 Y71.055 Z3.500 E0.08565 F2100
G1 X133.895 Y71.853 Z3.500 E0.40414 F2100
G1 X134.194 Y72.023 Z3.500 E0.08584 F2100
G1 X135.515 Y72.962 Z3.500 E0.40431 F2100
G1 X135.795 Y73.161 Z3.500 E0.08566 F2100
G1 X137.127 Y74.083 Z3.500 E0.40411 F2100
G1 X137.411 Y74.277 Z3.500 E0.08585 F2100
G1 X138.648 Y75.324 Z3.500 E0.40427 F2100
G1 X138.908 Y75.548 Z3.500 E0.08567 F2100
G1 X140.152 Y76.586 Z3.500 E0.40408 F2100
G1 X140.419 Y76.804 Z3.500 E0.08586 F2100
G1 X141.564 Y77.951 Z3.500 E0.40425 F2100
G1 X141.802 Y78.198 Z3.500 E0.08568 F2100
G1 X142.947 Y79.344 Z3.500 E0.40404 F2100
G1 X143.195 Y79.583 Z3.500 E0.08587 F2100
G1 X144.240 Y80.821 Z3.500 E0.40423 F2100
G1 X144.455 Y81.089 Z3.500 E0.08569 F2100
G1 X145.491 Y82.334 Z3.500 E0.40400 F2100
G1 X145.717 Y82.593 Z3.500 E0.08588 F2100
G1 X146.655 Y83.914 Z3.500 E0.40420 F2100
G1 X146.846 Y84.200 Z3.500 E0.08570 F2100
G1 X147.764 Y85.535 Z3.500 E0.40398 F2100
G1 X147.968 Y85.812 Z3.500 E0.08588 F2100
G1 X148.792 Y87.207 Z3.500 E0.40417 F2100
G1 X148.957 Y87.508 Z3.500 E0.08571 F2100
G1 X149.749 Y88.921 Z3.500 E0.40398 F2100
G1 X149.929 Y89.214 Z3.500 E0.08589 F2100
G1 X150.635 Y90.673 Z3.500 E0.40415 F2100
G1 X150.772 Y90.988 Z3.500 E0.08572 F2100
G1 X151.432 Y92.467 Z3.500 E0.40396 F2100
G1 X151.585 Y92.775 Z3.500 E0.08589 F2100
G1 X152.168 Y94.287 Z3.500 E0.40415 F2100
G1 X152.277 Y94.613 Z3.500 E0.08573 F2100
G1 X152.799 Y96.145 Z3.500 E0.40396 F2100
G1 X152.925 Y96.466 Z3.500 E0.08588 F2100
G1 X153.380 Y98.021 Z3.500 E0.40413 F2100
G1 X153.460 Y98.355 Z3.500 E0.08574 F2100
G1 X153.840 Y99.929 Z3.500 E0.40398 F2100
G1 X153.938 Y100.259 Z3.500 E0.08588 F2100
G1 X154.262 Y101.846 Z3.500 E0.40413 F2100
G1 X154.313 Y102.186 Z3.500 E0.08574 F2100
G1 X154.548 Y103.789 Z3.500 E0.40399 F2100
G1 X154.616 Y104.126 Z3.500 E0.08586 F2100
G1 X154.808 Y105.735 Z3.500 E0.40413 F2100
G1 X154.829 Y106.078 Z3.500 E0.08574 F2100
G1 X154.917 Y107.695 Z3.500 E0.40402 F2100
G1 X154.955 Y108.037 Z3.500 E0.08585 F2100
G1 X155.012 Y109.656 Z3.500 E0.40414 F2100
G1 X155.004 Y110.000 Z3.500 E0.08575 F2100
G1 X154.944 Y111.619 Z3.500 E0.40405 F2100
G1 X154.951 Y111.963 Z3.500 E0.08583 F2100
G1 X154.873 Y113.581 Z3.500 E0.40416 F2100
G1 X154.836 Y113.923 Z3.500 E0.08575 F2100
G1 X154.629 Y115.529 Z3.500 E0.40408 F2100
G1 X154.606 Y115.872 Z3.500 E0.08581 F2100
G1 X154.393 Y117.479 Z3.500 E0.40417 F2100
G1 X154.327 Y117.816 Z3.500 E0.08575 F2100
G1 X153.975 Y119.397 Z3.500 E0.40412 F2100
G1 X153.921 Y119.737 Z3.500 E0.08579 F2100
G1 X153.574 Y121.320 Z3.500 E0.40420 F2100
G1 X153.481 Y121.651 Z3.500 E0.08575 F2100
G1 X152.987 Y123.194 Z3.500 E0.40416 F2100
G1 X152.902 Y123.527 Z3.500 E0.08577 F2100
G1 X152.423 Y125.075 Z3.500 E0.40420 F2100
G1 X152.303 Y125.397 Z3.500 E0.08574 F2100
G1 X151.672 Y126.890 Z3.500 E0.40422 F2100
G1 X151.557 Y127.214 Z3.500 E0.08575 F2100
G1 X150.949 Y128.716 Z3.500 E0.40423 F2100
G1 X150.802 Y129.026 Z3.500 E0.08574 F2100
G1 X150.041 Y130.457 Z3.500 E0.40425 F2100
G1 X149.896 Y130.769 Z3.500 E0.08572 F2100
G1 X149.163 Y132.214 Z3.500 E0.40425 F2100
G1 X148.991 Y132.511 Z3.500 E0.08575 F2100
G1 X148.105 Y133.868 Z3.500 E0.40429 F2100
G1 X147.932 Y134.166 Z3.500 E0.08570 F2100
G1 X147.078 Y135.543 Z3.500 E0.40426 F2100
G1 X146.882 Y135.825 Z3.500 E0.08575 F2100
G1 X145.879 Y137.098 Z3.500 E0.40433 F2100
G1 X145.680 Y137.378 Z3.500 E0.08569 F2100
G1 X144.711 Y138.677 Z3.500 E0.40426 F2100
G1 X144.493 Y138.943 Z3.500 E0.08575 F2100
G1 X143.381 Y140.122 Z3.500 E0.40436 F2100
G1 X143.157 Y140.383 Z3.500 E0.08567 F2100
G1 X142.079 Y141.593 Z3.500 E0.40427 F2100
G1 X141.840 Y141.840 Z3.500 E0.08576 F2100
G1 X140.629 Y142.917 Z3.500 E0.40437 F2100
G1 X140.382 Y143.156 Z3.500 E0.08566 F2100
G1 X139.203 Y144.268 Z3.500 E0.40428 F2100
G1 X138.945 Y144.495 Z3.500 E0.08577 F2100
G1 X137.644 Y145.462 Z3.500 E0.40437 F2100
G1 X137.376 Y145.677 Z3.500 E0.08564 F2100
G1 X136.105 Y146.682 Z3.500 E0.40427 F2100
G1 X135.829 Y146.887 Z3.500 E0.08577 F2100
G1 X134.449 Y147.738 Z3.500 E0.40438 F2100
G1 X134.162 Y147.926 Z3.500 E0.08564 F2100
G1 X132.808 Y148.817 Z3.500 E0.40424 F2100
G1 X132.516 Y148.998 Z3.500 E0.08578 F2100
G1 X131.067 Y149.727 Z3.500 E0.40439 F2100
G1 X130.764 Y149.888 Z3.500 E0.08564 F2100
G1 X129.337 Y150.655 Z3.500 E0.40422 F2100
G1 X129.031 Y150.812 Z3.500 E0.08580 F2100
G1 X127.526 Y151.413 Z3.500 E0.40437 F2100
G1 X127.209 Y151.546 Z3.500 E0.08564 F2100
G1 X125.719 Y152.184 Z3.500 E0.40421 F2100
G1 X125.401 Y152.315 Z3.500 E0.08581 F2100
G1 X123.850 Y152.786 Z3.500 E0.40435 F2100
G1 X123.523 Y152.888 Z3.500 E0.08564 F2100
G1 X121.982 Y153.391 Z3.500 E0.40416 F2100
G1 X121.655 Y153.496 Z3.500 E0.08582 F2100
G1 X120.069 Y153.832 Z3.500 E0.40434 F2100
G1 X119.733 Y153.905 Z3.500 E0.08565 F2100
G1 X118.154 Y154.267 Z3.500 E0.40413 F2100
G1 X117.819 Y154.345 Z3.500 E0.08584 F2100
G1 X116.211 Y154.546 Z3.500 E0.40431 F2100
G1 X115.870 Y154.587 Z3.500 E0.08566 F2100
G1 X114.265 Y154.807 Z3.500 E0.40410 F2100
G1 X113.924 Y154.856 Z3.500 E0.08585 F2100
G1 X112.305 Y154.921 Z3.500 E0.40428 F2100
G1 X111.962 Y154.931 Z3.500 E0.08567 F2100
G1 X110.344 Y155.005 Z3.500 E0.40406 F2100
G1 X110.000 Y155.025 Z3.500 E0.08586 F2100
G1 X108.381 Y154.954 Z3.500 E0.40425 F2100
G1 X108.038 Y154.933 Z3.500 E0.08568 F2100
G1 X106.420 Y154.860 Z3.500 E0.40403 F2100
G1 X106.076 Y154.852 Z3.500 E0.08587 F2100
G1 X104.469 Y154.646 Z3.500 E0.40422 F2100
G1 X104.129 Y154.594 Z3.500 E0.08569 F2100
G1 X102.525 Y154.374 Z3.500 E0.40401 F2100
G1 X102.182 Y154.336 Z3.500 E0.08588 F2100
G1 X100.598 Y153.997 Z3.500 E0.40419 F2100
G1 X100.264 Y153.915 Z3.500 E0.08570 F2100
G1 X98.686 Y153.550 Z3.500 E0.40399 F2100
G1 X98.349 Y153.484 Z3.500 E0.08589 F2100
G1 X96.798 Y153.014 Z3.500 E0.40417 F2100
G1 X96.473 Y152.902 Z3.500 E0.08571 F2100
G1 X94.935 Y152.395 Z3.500 E0.40396 F2100
G1 X94.604 Y152.300 Z3.500 E0.08589 F2100
G1 X93.098 Y151.703 Z3.500 E0.40416 F2100
G1 X92.784 Y151.563 Z3.500 E0.08573 F2100
G1 X91.299 Y150.917 Z3.500 E0.40396 F2100
G1 X90.978 Y150.794 Z3.500 E0.08589 F2100
G1 X89.526 Y150.074 Z3.500 E0.40414 F2100
G1 X89.226 Y149.907 Z3.500 E0.08573 F2100
G1 X87.806 Y149.128 Z3.500 E0.40397 F2100
G1 X87.496 Y148.978 Z3.500 E0.08588 F2100
G1 X86.110 Y148.140 Z3.500 E0.40413 F2100
G1 X85.825 Y147.948 Z3.500 E0.08574 F2100
G1 X84.482 Y147.042 Z3.500 E0.40397 F2100
G1 X84.187 Y146.865 Z3.500 E0.08587 F2100
G1 X82.874 Y145.915 Z3.500 E0.40414 F2100
G1 X82.607 Y145.699 Z3.500 E0.08574 F2100
G1 X81.353 Y144.675 Z3.500 E0.40398 F2100
G1 X81.074 Y144.472 Z3.500 E0.08586 F2100
G1 X79.845 Y143.417 Z3.500 E0.40414 F2100
G1 X79.598 Y143.178 Z3.500 E0.08575 F2100
G1 X78.441 Y142.044 Z3.500 E0.40402 F2100
G1 X78.182 Y141.818 Z3.500 E0.08584 F2100
G1 X77.045 Y140.663 Z3.500 E0.40414 F2100
G1 X76.819 Y140.405 Z3.500 E0.08575 F2100
G1 X75.771 Y139.170 Z3.500 E0.40406 F2100
G1 X75.533 Y138.921 Z3.500 E0.08583 F2100
G1 X74.496 Y137.676 Z3.500 E0.40415 F2100
G1 X74.292 Y137.399 Z3.500 E0.08574 F2100
G1 X73.361 Y136.074 Z3.500 E0.40410 F2100
G1 X73.147 Y135.805 Z3.500 E0.08581 F2100
G1 X72.217 Y134.478 Z3.500 E0.40417 F2100
G1 X72.037 Y134.185 Z3.500 E0.08574 F2100
G1 X71.230 Y132.781 Z3.500 E0.40413 F2100
G1 X71.041 Y132.493 Z3.500 E0.08578 F2100
G1 X70.226 Y131.093 Z3.500 E0.40420 F2100
G1 X70.071 Y130.786 Z3.500 E0.08575 F2100
G1 X69.393 Y129.314 Z3.500 E0.40418 F2100
G1 X69.231 Y129.011 Z3.500 E0.08576 F2100
G1 X68.537 Y127.546 Z3.500 E0.40421 F2100
G1 X68.409 Y127.228 Z3.500 E0.08574 F2100
G1 X67.866 Y125.701 Z3.500 E0.40423 F2100
G1 X67.732 Y125.384 Z3.500 E0.08574 F2100
G1 X67.165 Y123.866 Z3.500 E0.40423 F2100
G1 X67.063 Y123.538 Z3.500 E0.08574 F2100
G1 X66.659 Y121.969 Z3.500 E0.40426 F2100
G1 X66.555 Y121.641 Z3.500 E0.08572 F2100
G1 X66.118 Y120.080 Z3.500 E0.40426 F2100
G1 X66.044 Y119.745 Z3.500 E0.08575 F2100
G1 X65.781 Y118.146 Z3.500 E0.40429 F2100
G1 X65.708 Y117.810 Z3.500 E0.08570 F2100
G1 X65.406 Y116.218 Z3.500 E0.40427 F2100
G1 X65.360 Y115.877 Z3.500 E0.08575 F2100
G1 X65.240 Y114.261 Z3.500 E0.40433 F2100
G1 X65.198 Y113.920 Z3.500 E0.08568 F2100
G1 X65.034 Y112.307 Z3.500 E0.40427 F2100
G1 X65.015 Y111.964 Z3.500 E0.08575 F2100
G1 X65.039 Y110.343 Z3.500 E0.40435 F2100

; Layer 7, Z=4.000mm, Diameter=127.3mm, Points=576, Amplitude factor=0.02
G1 X64.969 Y110.000 Z4.000 E0.15229 F2100
G1 X65.042 Y108.430 Z4.000 E0.39207 F2100
G1 X65.072 Y108.038 Z4.000 E0.09796 F2100
G1 X65.140 Y106.469 Z4.000 E0.39176 F2100
G1 X65.143 Y106.076 Z4.000 E0.09824 F2100
G1 X65.346 Y104.517 Z4.000 E0.39203 F2100
G1 X65.411 Y104.130 Z4.000 E0.09799 F2100
G1 X65.623 Y102.574 Z4.000 E0.39173 F2100
G1 X65.660 Y102.182 Z4.000 E0.09825 F2100
G1 X65.989 Y100.645 Z4.000 E0.39198 F2100
G1 X66.089 Y100.265 Z4.000 E0.09800 F2100
G1 X66.444 Y98.735 Z4.000 E0.39171 F2100
G1 X66.513 Y98.348 Z4.000 E0.09826 F2100
G1 X66.967 Y96.843 Z4.000 E0.39195 F2100
G1 X67.100 Y96.474 Z4.000 E0.09802 F2100
G1 X67.595 Y94.984 Z4.000 E0.39168 F2100
G1 X67.698 Y94.604 Z4.000 E0.09826 F2100
G1 X68.273 Y93.141 Z4.000 E0.39194 F2100
G1 X68.438 Y92.785 Z4.000 E0.09804 F2100
G1 X69.070 Y91.347 Z4.000 E0.39168 F2100
G1 X69.205 Y90.977 Z4.000 E0.09825 F2100
G1 X69.897 Y89.567 Z4.000 E0.39192 F2100
G1 X70.093 Y89.226 Z4.000 E0.09804 F2100
G1 X70.855 Y87.853 Z4.000 E0.39170 F2100
G1 X71.023 Y87.496 Z4.000 E0.09824 F2100
G1 X71.827 Y86.147 Z4.000 E0.39192 F2100
G1 X72.052 Y85.824 Z4.000 E0.09805 F2100
G1 X72.938 Y84.528 Z4.000 E0.39172 F2100
G1 X73.136 Y84.188 Z4.000 E0.09822 F2100
G1 X74.048 Y82.908 Z4.000 E0.39194 F2100
G1 X74.299 Y82.606 Z4.000 E0.09805 F2100
G1 X75.302 Y81.397 Z4.000 E0.39176 F2100
G1 X75.530 Y81.076 Z4.000 E0.09819 F2100
G1 X76.544 Y79.876 Z4.000 E0.39196 F2100
G1 X76.819 Y79.595 Z4.000 E0.09805 F2100
G1 X77.929 Y78.484 Z4.000 E0.39182 F2100
G1 X78.185 Y78.185 Z4.000 E0.09816 F2100
G1 X79.294 Y77.072 Z4.000 E0.39197 F2100
G1 X79.592 Y76.816 Z4.000 E0.09805 F2100
G1 X80.800 Y75.811 Z4.000 E0.39189 F2100
G1 X81.082 Y75.537 Z4.000 E0.09813 F2100
G1 X82.279 Y74.519 Z4.000 E0.39200 F2100
G1 X82.597 Y74.288 Z4.000 E0.09804 F2100
G1 X83.893 Y73.399 Z4.000 E0.39196 F2100
G1 X84.198 Y73.151 Z4.000 E0.09809 F2100
G1 X85.476 Y72.236 Z4.000 E0.39204 F2100
G1 X85.812 Y72.032 Z4.000 E0.09803 F2100
G1 X87.183 Y71.264 Z4.000 E0.39202 F2100
G1 X87.510 Y71.046 Z4.000 E0.09805 F2100
G1 X88.859 Y70.240 Z4.000 E0.39209 F2100
G1 X89.211 Y70.065 Z4.000 E0.09803 F2100
G1 X90.647 Y69.425 Z4.000 E0.39209 F2100
G1 X90.992 Y69.238 Z4.000 E0.09802 F2100
G1 X92.404 Y68.547 Z4.000 E0.39212 F2100
G1 X92.769 Y68.402 Z4.000 E0.09802 F2100
G1 X94.257 Y67.893 Z4.000 E0.39217 F2100
G1 X94.619 Y67.740 Z4.000 E0.09798 F2100
G1 X96.084 Y67.171 Z4.000 E0.39214 F2100
G1 X96.459 Y67.055 Z4.000 E0.09802 F2100
G1 X97.987 Y66.682 Z4.000 E0.39222 F2100
G1 X98.361 Y66.563 Z4.000 E0.09795 F2100
G1 X99.870 Y66.120 Z4.000 E0.39218 F2100
G1 X100.253 Y66.035 Z4.000 E0.09802 F2100
G1 X101.808 Y65.800 Z4.000 E0.39227 F2100
G1 X102.192 Y65.717 Z4.000 E0.09792 F2100
G1 X103.733 Y65.404 Z4.000 E0.39220 F2100
G1 X104.122 Y65.350 Z4.000 E0.09802 F2100
G1 X105.692 Y65.254 Z4.000 E0.39232 F2100
G1 X106.081 Y65.207 Z4.000 E0.09789 F2100
G1 X107.643 Y65.028 Z4.000 E0.39220 F2100
G1 X108.036 Y65.006 Z4.000 E0.09803 F2100
G1 X109.608 Y65.048 Z4.000 E0.39235 F2100
G1 X110.000 Y65.038 Z4.000 E0.09787 F2100
G1 X111.572 Y64.995 Z4.000 E0.39220 F2100
G1 X111.965 Y65.004 Z4.000 E0.09804 F2100
G1 X113.527 Y65.184 Z4.000 E0.39236 F2100
G1 X113.919 Y65.211 Z4.000 E0.09786 F2100
G1 X115.488 Y65.305 Z4.000 E0.39218 F2100
G1 X115.879 Y65.345 Z4.000 E0.09805 F2100
G1 X117.420 Y65.660 Z4.000 E0.39237 F2100
G1 X117.807 Y65.724 Z4.000 E0.09786 F2100
G1 X119.362 Y65.956 Z4.000 E0.39215 F2100
G1 X119.749 Y66.027 Z4.000 E0.09807 F2100
G1 X121.257 Y66.473 Z4.000 E0.39236 F2100
G1 X121.636 Y66.573 Z4.000 E0.09786 F2100
G1 X123.164 Y66.942 Z4.000 E0.39212 F2100
G1 X123.544 Y67.044 Z4.000 E0.09809 F2100
G1 X125.009 Y67.617 Z4.000 E0.39233 F2100
G1 X125.377 Y67.752 Z4.000 E0.09786 F2100
G1 X126.866 Y68.256 Z4.000 E0.39208 F2100
G1 X127.236 Y68.388 Z4.000 E0.09812 F2100
G1 X128.647 Y69.083 Z4.000 E0.39230 F2100
G1 X129.001 Y69.252 Z4.000 E0.09787 F2100
G1 X130.438 Y69.888 Z4.000 E0.39202 F2100
G1 X130.797 Y70.050 Z4.000 E0.09814 F2100
G1 X132.144 Y70.861 Z4.000 E0.39227 F2100
G1 X132.481 Y71.062 Z4.000 E0.09789 F2100
G1 X133.855 Y71.825 Z4.000 E0.39196 F2100
G1 X134.199 Y72.015 Z4.000 E0.09816 F2100
G1 X135.473 Y72.937 Z4.000 E0.39221 F2100
G1 X135.790 Y73.169 Z4.000 E0.09790 F2100
G1 X137.089 Y74.052 Z4.000 E0.39191 F2100
G1 X137.416 Y74.271 Z4.000 E0.09819 F2100
G1 X138.609 Y75.295 Z4.000 E0.39215 F2100
G1 X138.903 Y75.555 Z4.000 E0.09792 F2100
G1 X140.116 Y76.553 Z4.000 E0.39186 F2100
G1 X140.424 Y76.798 Z4.000 E0.09821 F2100
G1 X141.528 Y77.917 Z4.000 E0.39211 F2100
G1 X141.797 Y78.203 Z4.000 E0.09795 F2100
G1 X142.913 Y79.308 Z4.000 E0.39179 F2100
G1 X143.200 Y79.578 Z4.000 E0.09823 F2100
G1 X144.208 Y80.784 Z4.000 E0.39207 F2100
G1 X144.450 Y81.093 Z4.000 E0.09797 F2100
G1 X145.459 Y82.297 Z4.000 E0.39174 F2100
G1 X145.723 Y82.589 Z4.000 E0.09824 F2100
G1 X146.628 Y83.874 Z4.000 E0.39202 F2100
G1 X146.841 Y84.204 Z4.000 E0.09799 F2100
G1 X147.734 Y85.495 Z4.000 E0.39171 F2100
G1 X147.973 Y85.809 Z4.000 E0.09825 F2100
G1 X148.769 Y87.163 Z4.000 E0.39198 F2100
G1 X148.952 Y87.511 Z4.000 E0.09801 F2100
G1 X149.722 Y88.879 Z4.000 E0.39170 F2100
G1 X149.933 Y89.212 Z4.000 E0.09826 F2100
G1 X150.616 Y90.627 Z4.000 E0.39195 F2100
G1 X150.768 Y90.990 Z4.000 E0.09802 F2100
G1 X151.408 Y92.423 Z4.000 E0.39168 F2100
G1 X151.589 Y92.773 Z4.000 E0.09826 F2100
G1 X152.155 Y94.239 Z4.000 E0.39194 F2100
G1 X152.274 Y94.614 Z4.000 E0.09804 F2100
G1 X152.778 Y96.101 Z4.000 E0.39168 F2100
G1 X152.928 Y96.465 Z4.000 E0.09825 F2100
G1 X153.372 Y97.972 Z4.000 E0.39192 F2100
G1 X153.458 Y98.355 Z4.000 E0.09805 F2100
G1 X153.822 Y99.883 Z4.000 E0.39171 F2100
G1 X153.939 Y100.259 Z4.000 E0.09824 F2100
G1 X154.260 Y101.797 Z4.000 E0.39192 F2100
G1 X154.312 Y102.187 Z4.000 E0.09805 F2100
G1 X154.533 Y103.741 Z4.000 E0.39174 F2100
G1 X154.617 Y104.126 Z4.000 E0.09821 F2100
G1 X154.810 Y105.685 Z4.000 E0.39194 F2100
G1 X154.829 Y106.078 Z4.000 E0.09805 F2100
G1 X154.906 Y107.647 Z4.000 E0.39178 F2100
G1 X154.954 Y108.037 Z4.000 E0.09819 F2100
G1 X155.019 Y109.607 Z4.000 E0.39195 F2100
G1 X155.005 Y110.000 Z4.000 E0.09805 F2100
G1 X154.936 Y111.569 Z4.000 E0.39183 F2100
G1 X154.950 Y111.963 Z4.000 E0.09816 F2100
G1 X154.885 Y113.533 Z4.000 E0.39198 F2100
G1 X154.839 Y113.923 Z4.000 E0.09805 F2100
G1 X154.625 Y115.479 Z4.000 E0.39190 F2100
G1 X154.603 Y115.872 Z4.000 E0.09812 F2100
G1 X154.409 Y117.432 Z4.000 E0.39202 F2100
G1 X154.331 Y117.817 Z4.000 E0.09804 F2100
G1 X153.976 Y119.347 Z4.000 E0.39196 F2100
G1 X153.917 Y119.736 Z4.000 E0.09808 F2100
G1 X153.595 Y121.275 Z4.000 E0.39206 F2100
G1 X153.485 Y121.652 Z4.000 E0.09803 F2100
G1 X152.992 Y123.144 Z4.000 E0.39203 F2100
G1 X152.897 Y123.526 Z4.000 E0.09805 F2100
G1 X152.448 Y125.032 Z4.000 E0.39208 F2100
G1 X152.308 Y125.399 Z4.000 E0.09802 F2100
G1 X151.681 Y126.840 Z4.000 E0.39212 F2100
G1 X151.552 Y127.211 Z4.000 E0.09801 F2100
G1 X150.978 Y128.675 Z4.000 E0.39212 F2100
G1 X150.808 Y129.029 Z4.000 E0.09802 F2100
G1 X150.053 Y130.408 Z4.000 E0.39217 F2100
G1 X149.890 Y130.766 Z4.000 E0.09797 F2100
G1 X149.195 Y132.176 Z4.000 E0.39216 F2100
G1 X148.997 Y132.515 Z4.000 E0.09802 F2100
G1 X148.122 Y133.821 Z4.000 E0.39223 F2100
G1 X147.926 Y134.162 Z4.000 E0.09794 F2100
G1 X147.114 Y135.508 Z4.000 E0.39218 F2100
G1 X146.889 Y135.830 Z4.000 E0.09802 F2100
G1 X145.901 Y137.053 Z4.000 E0.39229 F2100
G1 X145.674 Y137.373 Z4.000 E0.09791 F2100
G1 X144.749 Y138.645 Z4.000 E0.39218 F2100
G1 X144.499 Y138.948 Z4.000 E0.09802 F2100
G1 X143.406 Y140.079 Z4.000 E0.39233 F2100
G1 X143.151 Y140.377 Z4.000 E0.09789 F2100
G1 X142.120 Y141.564 Z4.000 E0.39220 F2100
G1 X141.846 Y141.846 Z4.000 E0.09803 F2100
G1 X140.658 Y142.877 Z4.000 E0.39235 F2100
G1 X140.376 Y143.149 Z4.000 E0.09787 F2100
G1 X139.246 Y144.242 Z4.000 E0.39220 F2100
G1 X138.951 Y144.502 Z4.000 E0.09804 F2100
G1 X137.677 Y145.425 Z4.000 E0.39235 F2100
G1 X137.370 Y145.669 Z4.000 E0.09786 F2100
G1 X136.149 Y146.660 Z4.000 E0.39218 F2100
G1 X135.834 Y146.895 Z4.000 E0.09806 F2100
G1 X134.485 Y147.704 Z4.000 E0.39236 F2100
G1 X134.157 Y147.918 Z4.000 E0.09785 F2100
G1 X132.853 Y148.797 Z4.000 E0.39215 F2100
G1 X132.520 Y149.006 Z4.000 E0.09807 F2100
G1 X131.107 Y149.697 Z4.000 E0.39236 F2100
G1 X130.760 Y149.879 Z4.000 E0.09786 F2100
G1 X129.384 Y150.639 Z4.000 E0.39211 F2100
G1 X129.035 Y150.821 Z4.000 E0.09809 F2100
G1 X127.568 Y151.389 Z4.000 E0.39232 F2100
G1 X127.205 Y151.537 Z4.000 E0.09786 F2100
G1 X125.767 Y152.171 Z4.000 E0.39207 F2100
G1 X125.405 Y152.324 Z4.000 E0.09812 F2100
G1 X123.895 Y152.765 Z4.000 E0.39229 F2100
G1 X123.520 Y152.879 Z4.000 E0.09787 F2100
G1 X122.031 Y153.381 Z4.000 E0.39201 F2100
G1 X121.657 Y153.504 Z4.000 E0.09814 F2100
G1 X120.116 Y153.817 Z4.000 E0.39226 F2100
G1 X119.731 Y153.896 Z4.000 E0.09789 F2100
G1 X118.203 Y154.261 Z4.000 E0.39195 F2100
G1 X117.821 Y154.353 Z4.000 E0.09817 F2100
G1 X116.259 Y154.536 Z4.000 E0.39220 F2100
G1 X115.869 Y154.579 Z4.000 E0.09791 F2100
G1 X114.314 Y154.803 Z4.000 E0.39189 F2100
G1 X113.925 Y154.864 Z4.000 E0.09819 F2100
G1 X112.354 Y154.917 Z4.000 E0.39215 F2100
G1 X111.961 Y154.923 Z4.000 E0.09793 F2100
G1 X110.393 Y155.004 Z4.000 E0.39184 F2100
G1 X110.000 Y155.033 Z4.000 E0.09822 F2100
G1 X108.430 Y154.955 Z4.000 E0.39210 F2100
G1 X108.039 Y154.926 Z4.000 E0.09795 F2100
G1 X106.469 Y154.863 Z4.000 E0.39179 F2100
G1 X106.075 Y154.859 Z4.000 E0.09823 F2100
G1 X104.517 Y154.652 Z4.000 E0.39205 F2100
G1 X104.130 Y154.587 Z4.000 E0.09798 F2100
G1 X102.573 Y154.380 Z4.000 E0.39175 F2100
G1 X102.181 Y154.342 Z4.000 E0.09825 F2100
G1 X100.646 Y154.009 Z4.000 E0.39200 F2100
G1 X100.266 Y153.909 Z4.000 E0.09799 F2100
G1 X98.735 Y153.559 Z4.000 E0.39172 F2100
G1 X98.347 Y153.489 Z4.000 E0.09826 F2100
G1 X96.844 Y153.030 Z4.000 E0.39197 F2100
G1 X96.474 Y152.898 Z4.000 E0.09801 F2100
G1 X94.983 Y152.407 Z4.000 E0.39168 F2100
G1 X94.603 Y152.304 Z4.000 E0.09826 F2100
G1 X93.142 Y151.724 Z4.000 E0.39195 F2100
G1 X92.786 Y151.559 Z4.000 E0.09803 F2100
G1 X91.346 Y150.933 Z4.000 E0.39168 F2100
G1 X90.976 Y150.797 Z4.000 E0.09826 F2100
G1 X89.568 Y150.100 Z4.000 E0.39193 F2100
G1 X89.227 Y149.905 Z4.000 E0.09804 F2100
G1 X87.852 Y149.147 Z4.000 E0.39169 F2100
G1 X87.495 Y148.980 Z4.000 E0.09825 F2100
G1 X86.148 Y148.171 Z4.000 E0.39192 F2100
G1 X85.826 Y147.946 Z4.000 E0.09805 F2100
G1 X84.526 Y147.064 Z4.000 E0.39171 F2100
G1 X84.186 Y146.866 Z4.000 E0.09823 F2100
G1 X82.910 Y145.950 Z4.000 E0.39193 F2100
G1 X82.608 Y145.699 Z4.000 E0.09805 F2100
G1 X81.396 Y144.700 Z4.000 E0.39173 F2100
G1 X81.074 Y144.472 Z4.000 E0.09821 F2100
G1 X79.877 Y143.455 Z4.000 E0.39195 F2100
G1 X79.597 Y143.179 Z4.000 E0.09805 F2100
G1 X78.483 Y142.072 Z4.000 E0.39179 F2100
G1 X78.183 Y141.817 Z4.000 E0.09818 F2100
G1 X77.073 Y140.705 Z4.000 E0.39196 F2100
G1 X76.818 Y140.406 Z4.000 E0.09805 F2100
G1 X75.810 Y139.201 Z4.000 E0.39186 F2100
G1 X75.535 Y138.920 Z4.000 E0.09815 F2100
G1 X74.520 Y137.720 Z4.000 E0.39198 F2100
G1 X74.290 Y137.401 Z4.000 E0.09804 F2100
G1 X73.397 Y136.108 Z4.000 E0.39192 F2100
G1 X73.149 Y135.803 Z4.000 E0.09811 F2100
G1 X72.237 Y134.524 Z4.000 E0.39202 F2100
G1 X72.034 Y134.187 Z4.000 E0.09804 F2100
G1 X71.263 Y132.818 Z4.000 E0.39198 F2100
G1 X71.044 Y132.491 Z4.000 E0.09808 F2100
G1 X70.241 Y131.140 Z4.000 E0.39207 F2100
G1 X70.067 Y130.788 Z4.000 E0.09803 F2100
G1 X69.424 Y129.354 Z4.000 E0.39205 F2100
G1 X69.236 Y129.009 Z4.000 E0.09804 F2100
G1 X68.548 Y127.595 Z4.000 E0.39210 F2100
G1 X68.404 Y127.230 Z4.000 E0.09802 F2100
G1 X67.893 Y125.743 Z4.000 E0.39213 F2100
G1 X67.738 Y125.382 Z4.000 E0.09800 F2100
G1 X67.171 Y123.916 Z4.000 E0.39213 F2100
G1 X67.057 Y123.540 Z4.000 E0.09802 F2100
G1 X66.682 Y122.013 Z4.000 E0.39218 F2100
G1 X66.561 Y121.639 Z4.000 E0.09797 F2100
G1 X66.120 Y120.130 Z4.000 E0.39217 F2100
G1 X66.037 Y119.746 Z4.000 E0.09802 F2100
G1 X65.800 Y118.192 Z4.000 E0.39224 F2100
G1 X65.715 Y117.809 Z4.000 E0.09793 F2100
G1 X65.404 Y116.267 Z4.000 E0.39219 F2100
G1 X65.352 Y115.878 Z4.000 E0.09802 F2100
G1 X65.254 Y114.308 Z4.000 E0.39229 F2100
G1 X65.206 Y113.919 Z4.000 E0.09791 F2100
G1 X65.028 Y112.357 Z4.000 E0.39220 F2100
G1 X65.007 Y111.964 Z4.000 E0.09802 F2100
G1 X65.049 Y110.392 Z4.000 E0.39233 F2100

; Layer 8, Z=4.500mm, Diameter=127.3mm, Points=576, Amplitude factor=0.03
G1 X65.000 Y110.000 Z4.500 E0.15899 F2100
G1 X64.998 Y108.478 Z4.500 E0.37977 F2100
G1 X65.040 Y108.037 Z4.500 E0.11040 F2100
G1 X65.180 Y106.522 Z4.500 E0.37960 F2100
G1 X65.177 Y106.079 Z4.500 E0.11055 F2100
G1 X65.298 Y104.561 Z4.500 E0.37982 F2100
G1 X65.376 Y104.125 Z4.500 E0.11039 F2100
G1 X65.657 Y102.629 Z4.500 E0.37969 F2100
G1 X65.695 Y102.188 Z4.500 E0.11050 F2100
G1 X65.938 Y100.685 Z4.500 E0.37987 F2100
G1 X66.052 Y100.257 Z4.500 E0.11037 F2100
G1 X66.471 Y98.793 Z4.500 E0.37980 F2100
G1 X66.550 Y98.358 Z4.500 E0.11044 F2100
G1 X66.915 Y96.879 Z4.500 E0.37993 F2100
G1 X67.063 Y96.462 Z4.500 E0.11035 F2100
G1 X67.616 Y95.043 Z4.500 E0.37990 F2100
G1 X67.735 Y94.617 Z4.500 E0.11038 F2100
G1 X68.220 Y93.173 Z4.500 E0.38001 F2100
G1 X68.402 Y92.769 Z4.500 E0.11034 F2100
G1 X69.083 Y91.407 Z4.500 E0.38001 F2100
G1 X69.242 Y90.994 Z4.500 E0.11031 F2100
G1 X69.844 Y89.595 Z4.500 E0.38006 F2100
G1 X70.057 Y89.207 Z4.500 E0.11032 F2100
G1 X70.861 Y87.912 Z4.500 E0.38012 F2100
G1 X71.057 Y87.516 Z4.500 E0.11026 F2100
G1 X71.775 Y86.172 Z4.500 E0.38012 F2100
G1 X72.018 Y85.803 Z4.500 E0.11031 F2100
G1 X72.935 Y84.586 Z4.500 E0.38021 F2100
G1 X73.169 Y84.210 Z4.500 E0.11020 F2100
G1 X73.997 Y82.931 Z4.500 E0.38017 F2100
G1 X74.268 Y82.582 Z4.500 E0.11030 F2100
G1 X75.291 Y81.452 Z4.500 E0.38029 F2100
G1 X75.560 Y81.101 Z4.500 E0.11015 F2100
G1 X76.493 Y79.896 Z4.500 E0.38020 F2100
G1 X76.791 Y79.569 Z4.500 E0.11030 F2100
G1 X77.911 Y78.535 Z4.500 E0.38036 F2100
G1 X78.212 Y78.212 Z4.500 E0.11012 F2100
G1 X79.245 Y77.091 Z4.500 E0.38021 F2100
G1 X79.567 Y76.789 Z4.500 E0.11030 F2100
