; MeshVase Slicer - Klipper GCode Output
; Model: mesh
; Generated: 2025-12-02 22:46:41
; Nozzle: 1.0mm, Layer: 0.5mm
; Nozzle temp: 260°C, Bed: 65°C

; --- START GCODE ---
SET_GCODE_VARIABLE MACRO=START_PRINT VARIABLE=bed_temp VALUE=65
SET_GCODE_VARIABLE MACRO=START_PRINT VARIABLE=extruder_temp VALUE=260
START_PRINT

; Absolute positioning for X/Y/Z, relative for E
G90
M83

; --- PURGE LINE ---
; 10mm purge line to ensure good extrusion start
G1 X100.000 Y10.000 Z0.500 F2400
G1 X120.000 Y10.000 Z0.500 E4.98902 F2100

; Layer 0, Z=0.500mm, Diameter=127.3mm, Points=576, Amplitude factor=0.00
G1 X-45.000 Y0.000 Z0.500 E41.23494 F2100
G1 X-44.958 Y-1.914 Z0.500 E0.47751 F2100
G1 X-44.957 Y-1.963 Z0.500 E0.01224 F2100
G1 X-44.832 Y-3.873 Z0.500 E0.47751 F2100
G1 X-44.829 Y-3.922 Z0.500 E0.01224 F2100
G1 X-44.620 Y-5.825 Z0.500 E0.47751 F2100
G1 X-44.615 Y-5.874 Z0.500 E0.01224 F2100
G1 X-44.324 Y-7.766 Z0.500 E0.47751 F2100
G1 X-44.316 Y-7.814 Z0.500 E0.01224 F2100
G1 X-43.943 Y-9.692 Z0.500 E0.47751 F2100
G1 X-43.933 Y-9.740 Z0.500 E0.01224 F2100
G1 X-43.478 Y-11.599 Z0.500 E0.47752 F2100
G1 X-43.467 Y-11.647 Z0.500 E0.01224 F2100
G1 X-42.931 Y-13.485 Z0.500 E0.47751 F2100
G1 X-42.917 Y-13.532 Z0.500 E0.01224 F2100
G1 X-42.302 Y-15.344 Z0.500 E0.47750 F2100
G1 X-42.286 Y-15.391 Z0.500 E0.01224 F2100
G1 X-41.593 Y-17.175 Z0.500 E0.47753 F2100
G1 X-41.575 Y-17.221 Z0.500 E0.01224 F2100
G1 X-40.803 Y-18.973 Z0.500 E0.47750 F2100
G1 X-40.784 Y-19.018 Z0.500 E0.01224 F2100
G1 X-39.937 Y-20.735 Z0.500 E0.47751 F2100
G1 X-39.916 Y-20.779 Z0.500 E0.01224 F2100
G1 X-38.994 Y-22.457 Z0.500 E0.47752 F2100
G1 X-38.971 Y-22.500 Z0.500 E0.01224 F2100
G1 X-37.978 Y-24.137 Z0.500 E0.47751 F2100
G1 X-37.953 Y-24.179 Z0.500 E0.01224 F2100
G1 X-36.889 Y-25.770 Z0.500 E0.47751 F2100
G1 X-36.862 Y-25.811 Z0.500 E0.01224 F2100
G1 X-35.730 Y-27.355 Z0.500 E0.47752 F2100
G1 X-35.701 Y-27.395 Z0.500 E0.01224 F2100
G1 X-34.502 Y-28.887 Z0.500 E0.47750 F2100
G1 X-34.472 Y-28.925 Z0.500 E0.01224 F2100
G1 X-33.210 Y-30.365 Z0.500 E0.47753 F2100
G1 X-33.178 Y-30.402 Z0.500 E0.01224 F2100
G1 X-31.853 Y-31.784 Z0.500 E0.47751 F2100
G1 X-31.820 Y-31.820 Z0.500 E0.01224 F2100
G1 X-30.437 Y-33.144 Z0.500 E0.47751 F2100
G1 X-30.402 Y-33.178 Z0.500 E0.01224 F2100
G1 X-28.962 Y-34.439 Z0.500 E0.47753 F2100
G1 X-28.925 Y-34.472 Z0.500 E0.01224 F2100
G1 X-27.433 Y-35.671 Z0.500 E0.47750 F2100
G1 X-27.395 Y-35.701 Z0.500 E0.01224 F2100
G1 X-25.850 Y-36.832 Z0.500 E0.47752 F2100
G1 X-25.811 Y-36.861 Z0.500 E0.01224 F2100
G1 X-24.220 Y-37.926 Z0.500 E0.47751 F2100
G1 X-24.179 Y-37.953 Z0.500 E0.01224 F2100
G1 X-22.542 Y-38.945 Z0.500 E0.47751 F2100
G1 X-22.500 Y-38.971 Z0.500 E0.01224 F2100
G1 X-20.822 Y-39.892 Z0.500 E0.47752 F2100
G1 X-20.779 Y-39.916 Z0.500 E0.01224 F2100
G1 X-19.062 Y-40.762 Z0.500 E0.47751 F2100
G1 X-19.018 Y-40.783 Z0.500 E0.01224 F2100
G1 X-17.266 Y-41.555 Z0.500 E0.47751 F2100
G1 X-17.221 Y-41.575 Z0.500 E0.01224 F2100
G1 X-15.436 Y-42.268 Z0.500 E0.47753 F2100
G1 X-15.391 Y-42.286 Z0.500 E0.01224 F2100
G1 X-13.578 Y-42.902 Z0.500 E0.47750 F2100
G1 X-13.532 Y-42.918 Z0.500 E0.01224 F2100
G1 X-11.694 Y-43.453 Z0.500 E0.47751 F2100
G1 X-11.647 Y-43.466 Z0.500 E0.01224 F2100
G1 X-9.788 Y-43.922 Z0.500 E0.47752 F2100
G1 X-9.740 Y-43.934 Z0.500 E0.01224 F2100
G1 X-7.862 Y-44.306 Z0.500 E0.47751 F2100
G1 X-7.814 Y-44.316 Z0.500 E0.01224 F2100
G1 X-5.922 Y-44.608 Z0.500 E0.47751 F2100
G1 X-5.874 Y-44.615 Z0.500 E0.01224 F2100
G1 X-3.971 Y-44.823 Z0.500 E0.47751 F2100
G1 X-3.922 Y-44.828 Z0.500 E0.01224 F2100
G1 X-2.012 Y-44.954 Z0.500 E0.47751 F2100
G1 X-1.963 Y-44.958 Z0.500 E0.01224 F2100
G1 X-0.049 Y-44.999 Z0.500 E0.47751 F2100
G1 X0.000 Y-45.000 Z0.500 E0.01224 F2100
G1 X1.914 Y-44.959 Z0.500 E0.47751 F2100
G1 X1.963 Y-44.958 Z0.500 E0.01224 F2100
G1 X3.873 Y-44.832 Z0.500 E0.47751 F2100
G1 X3.922 Y-44.828 Z0.500 E0.01224 F2100
G1 X5.825 Y-44.621 Z0.500 E0.47751 F2100
G1 X5.874 Y-44.615 Z0.500 E0.01224 F2100
G1 X7.766 Y-44.323 Z0.500 E0.47751 F2100
G1 X7.814 Y-44.316 Z0.500 E0.01224 F2100
G1 X9.692 Y-43.943 Z0.500 E0.47751 F2100
G1 X9.740 Y-43.934 Z0.500 E0.01224 F2100
G1 X11.599 Y-43.478 Z0.500 E0.47752 F2100
G1 X11.647 Y-43.466 Z0.500 E0.01224 F2100
G1 X13.485 Y-42.931 Z0.500 E0.47751 F2100
G1 X13.532 Y-42.918 Z0.500 E0.01224 F2100
G1 X15.344 Y-42.302 Z0.500 E0.47750 F2100
G1 X15.391 Y-42.286 Z0.500 E0.01224 F2100
G1 X17.175 Y-41.593 Z0.500 E0.47753 F2100
G1 X17.221 Y-41.575 Z0.500 E0.01224 F2100
G1 X18.973 Y-40.803 Z0.500 E0.47751 F2100
G1 X19.018 Y-40.784 Z0.500 E0.01224 F2100
G1 X20.735 Y-39.937 Z0.500 E0.47751 F2100
G1 X20.779 Y-39.916 Z0.500 E0.01224 F2100
G1 X22.457 Y-38.995 Z0.500 E0.47752 F2100
G1 X22.500 Y-38.971 Z0.500 E0.01224 F2100
G1 X24.137 Y-37.978 Z0.500 E0.47751 F2100
G1 X24.179 Y-37.953 Z0.500 E0.01224 F2100
G1 X25.770 Y-36.889 Z0.500 E0.47751 F2100
G1 X25.811 Y-36.862 Z0.500 E0.01224 F2100
G1 X27.355 Y-35.730 Z0.500 E0.47752 F2100
G1 X27.394 Y-35.701 Z0.500 E0.01224 F2100
G1 X28.887 Y-34.503 Z0.500 E0.47750 F2100
G1 X28.925 Y-34.472 Z0.500 E0.01224 F2100
G1 X30.365 Y-33.210 Z0.500 E0.47752 F2100
G1 X30.402 Y-33.178 Z0.500 E0.01224 F2100
G1 X31.784 Y-31.854 Z0.500 E0.47751 F2100
G1 X31.820 Y-31.820 Z0.500 E0.01224 F2100
G1 X33.144 Y-30.437 Z0.500 E0.47751 F2100
G1 X33.177 Y-30.402 Z0.500 E0.01224 F2100
G1 X34.440 Y-28.962 Z0.500 E0.47753 F2100
G1 X34.472 Y-28.925 Z0.500 E0.01224 F2100
G1 X35.670 Y-27.433 Z0.500 E0.47750 F2100
G1 X35.701 Y-27.394 Z0.500 E0.01224 F2100
G1 X36.833 Y-25.851 Z0.500 E0.47752 F2100
G1 X36.862 Y-25.811 Z0.500 E0.01224 F2100
G1 X37.925 Y-24.219 Z0.500 E0.47750 F2100
G1 X37.952 Y-24.178 Z0.500 E0.01224 F2100
G1 X38.946 Y-22.542 Z0.500 E0.47751 F2100
G1 X38.971 Y-22.500 Z0.500 E0.01224 F2100
G1 X39.892 Y-20.822 Z0.500 E0.47752 F2100
G1 X39.915 Y-20.779 Z0.500 E0.01224 F2100
G1 X40.762 Y-19.062 Z0.500 E0.47751 F2100
G1 X40.784 Y-19.018 Z0.500 E0.01224 F2100
G1 X41.555 Y-17.266 Z0.500 E0.47750 F2100
G1 X41.574 Y-17.221 Z0.500 E0.01224 F2100
G1 X42.269 Y-15.437 Z0.500 E0.47753 F2100
G1 X42.286 Y-15.391 Z0.500 E0.01224 F2100
G1 X42.901 Y-13.578 Z0.500 E0.47750 F2100
G1 X42.917 Y-13.532 Z0.500 E0.01224 F2100
G1 X43.453 Y-11.694 Z0.500 E0.47751 F2100
G1 X43.467 Y-11.647 Z0.500 E0.01224 F2100
G1 X43.921 Y-9.787 Z0.500 E0.47752 F2100
G1 X43.933 Y-9.740 Z0.500 E0.01224 F2100
G1 X44.307 Y-7.862 Z0.500 E0.47751 F2100
G1 X44.317 Y-7.814 Z0.500 E0.01224 F2100
G1 X44.607 Y-5.922 Z0.500 E0.47751 F2100
G1 X44.615 Y-5.874 Z0.500 E0.01224 F2100
G1 X44.824 Y-3.971 Z0.500 E0.47751 F2100
G1 X44.829 Y-3.922 Z0.500 E0.01224 F2100
G1 X44.954 Y-2.012 Z0.500 E0.47751 F2100
G1 X44.957 Y-1.963 Z0.500 E0.01224 F2100
G1 X44.999 Y-0.049 Z0.500 E0.47751 F2100
G1 X45.000 Y0.000 Z0.500 E0.01224 F2100
G1 X44.958 Y1.914 Z0.500 E0.47751 F2100
G1 X44.957 Y1.963 Z0.500 E0.01224 F2100
G1 X44.832 Y3.873 Z0.500 E0.47751 F2100
G1 X44.829 Y3.922 Z0.500 E0.01224 F2100
G1 X44.620 Y5.825 Z0.500 E0.47751 F2100
G1 X44.615 Y5.874 Z0.500 E0.01224 F2100
G1 X44.324 Y7.766 Z0.500 E0.47751 F2100
G1 X44.317 Y7.814 Z0.500 E0.01224 F2100
G1 X43.942 Y9.692 Z0.500 E0.47751 F2100
G1 X43.933 Y9.740 Z0.500 E0.01224 F2100
G1 X43.479 Y11.599 Z0.500 E0.47752 F2100
G1 X43.467 Y11.647 Z0.500 E0.01224 F2100
G1 X42.931 Y13.485 Z0.500 E0.47751 F2100
G1 X42.917 Y13.532 Z0.500 E0.01224 F2100
G1 X42.302 Y15.345 Z0.500 E0.47750 F2100
G1 X42.287 Y15.391 Z0.500 E0.01224 F2100
G1 X41.592 Y17.175 Z0.500 E0.47753 F2100
G1 X41.574 Y17.221 Z0.500 E0.01224 F2100
G1 X40.804 Y18.973 Z0.500 E0.47751 F2100
G1 X40.784 Y19.018 Z0.500 E0.01224 F2100
G1 X39.937 Y20.734 Z0.500 E0.47751 F2100
G1 X39.915 Y20.778 Z0.500 E0.01224 F2100
G1 X38.995 Y22.457 Z0.500 E0.47752 F2100
G1 X38.972 Y22.500 Z0.500 E0.01224 F2100
G1 X37.978 Y24.136 Z0.500 E0.47751 F2100
G1 X37.952 Y24.178 Z0.500 E0.01224 F2100
G1 X36.889 Y25.770 Z0.500 E0.47751 F2100
G1 X36.862 Y25.811 Z0.500 E0.01224 F2100
G1 X35.730 Y27.354 Z0.500 E0.47752 F2100
G1 X35.701 Y27.394 Z0.500 E0.01224 F2100
G1 X34.503 Y28.887 Z0.500 E0.47750 F2100
G1 X34.472 Y28.926 Z0.500 E0.01224 F2100
G1 X33.210 Y30.364 Z0.500 E0.47753 F2100
G1 X33.177 Y30.401 Z0.500 E0.01224 F2100
G1 X31.854 Y31.785 Z0.500 E0.47751 F2100
G1 X31.820 Y31.820 Z0.500 E0.01224 F2100
G1 X30.437 Y33.143 Z0.500 E0.47751 F2100
G1 X30.401 Y33.177 Z0.500 E0.01224 F2100
G1 X28.963 Y34.440 Z0.500 E0.47752 F2100
G1 X28.926 Y34.472 Z0.500 E0.01224 F2100
G1 X27.432 Y35.670 Z0.500 E0.47750 F2100
G1 X27.394 Y35.701 Z0.500 E0.01224 F2100
G1 X25.851 Y36.833 Z0.500 E0.47752 F2100
G1 X25.811 Y36.862 Z0.500 E0.01224 F2100
G1 X24.219 Y37.925 Z0.500 E0.47751 F2100
G1 X24.178 Y37.952 Z0.500 E0.01224 F2100
G1 X22.542 Y38.946 Z0.500 E0.47751 F2100
G1 X22.500 Y38.971 Z0.500 E0.01224 F2100
G1 X20.822 Y39.892 Z0.500 E0.47752 F2100
G1 X20.779 Y39.915 Z0.500 E0.01224 F2100
G1 X19.062 Y40.762 Z0.500 E0.47751 F2100
G1 X19.018 Y40.784 Z0.500 E0.01224 F2100
G1 X17.266 Y41.555 Z0.500 E0.47751 F2100
G1 X17.221 Y41.574 Z0.500 E0.01224 F2100
G1 X15.437 Y42.269 Z0.500 E0.47753 F2100
G1 X15.391 Y42.286 Z0.500 E0.01224 F2100
G1 X13.578 Y42.901 Z0.500 E0.47750 F2100
G1 X13.532 Y42.917 Z0.500 E0.01224 F2100
G1 X11.694 Y43.453 Z0.500 E0.47751 F2100
G1 X11.647 Y43.467 Z0.500 E0.01224 F2100
G1 X9.787 Y43.922 Z0.500 E0.47752 F2100
G1 X9.740 Y43.933 Z0.500 E0.01224 F2100
G1 X7.862 Y44.307 Z0.500 E0.47751 F2100
G1 X7.814 Y44.316 Z0.500 E0.01224 F2100
G1 X5.922 Y44.607 Z0.500 E0.47751 F2100
G1 X5.874 Y44.615 Z0.500 E0.01224 F2100
G1 X3.971 Y44.824 Z0.500 E0.47751 F2100
G1 X3.922 Y44.829 Z0.500 E0.01224 F2100
G1 X2.012 Y44.954 Z0.500 E0.47751 F2100
G1 X1.963 Y44.957 Z0.500 E0.01224 F2100
G1 X0.049 Y44.999 Z0.500 E0.47751 F2100
G1 X-0.000 Y45.000 Z0.500 E0.01224 F2100
G1 X-1.914 Y44.958 Z0.500 E0.47751 F2100
G1 X-1.963 Y44.957 Z0.500 E0.01224 F2100
G1 X-3.873 Y44.832 Z0.500 E0.47751 F2100
G1 X-3.922 Y44.829 Z0.500 E0.01224 F2100
G1 X-5.825 Y44.620 Z0.500 E0.47751 F2100
G1 X-5.874 Y44.615 Z0.500 E0.01224 F2100
G1 X-7.766 Y44.324 Z0.500 E0.47751 F2100
G1 X-7.814 Y44.316 Z0.500 E0.01224 F2100
G1 X-9.692 Y43.943 Z0.500 E0.47751 F2100
G1 X-9.740 Y43.933 Z0.500 E0.01224 F2100
G1 X-11.599 Y43.478 Z0.500 E0.47752 F2100
G1 X-11.647 Y43.467 Z0.500 E0.01224 F2100
G1 X-13.485 Y42.931 Z0.500 E0.47751 F2100
G1 X-13.532 Y42.917 Z0.500 E0.01224 F2100
G1 X-15.344 Y42.302 Z0.500 E0.47750 F2100
G1 X-15.391 Y42.286 Z0.500 E0.01224 F2100
G1 X-17.175 Y41.593 Z0.500 E0.47753 F2100
G1 X-17.221 Y41.575 Z0.500 E0.01224 F2100
G1 X-18.973 Y40.803 Z0.500 E0.47750 F2100
G1 X-19.018 Y40.784 Z0.500 E0.01224 F2100
G1 X-20.735 Y39.937 Z0.500 E0.47751 F2100
G1 X-20.779 Y39.916 Z0.500 E0.01224 F2100
G1 X-22.457 Y38.994 Z0.500 E0.47752 F2100
G1 X-22.500 Y38.971 Z0.500 E0.01224 F2100
G1 X-24.137 Y37.978 Z0.500 E0.47751 F2100
G1 X-24.179 Y37.953 Z0.500 E0.01224 F2100
G1 X-25.770 Y36.889 Z0.500 E0.47751 F2100
G1 X-25.811 Y36.862 Z0.500 E0.01224 F2100
G1 X-27.355 Y35.730 Z0.500 E0.47752 F2100
G1 X-27.395 Y35.701 Z0.500 E0.01224 F2100
G1 X-28.887 Y34.502 Z0.500 E0.47750 F2100
G1 X-28.925 Y34.472 Z0.500 E0.01224 F2100
G1 X-30.365 Y33.210 Z0.500 E0.47753 F2100
G1 X-30.402 Y33.178 Z0.500 E0.01224 F2100
G1 X-31.784 Y31.853 Z0.500 E0.47751 F2100
G1 X-31.820 Y31.820 Z0.500 E0.01224 F2100
G1 X-33.144 Y30.437 Z0.500 E0.47751 F2100
G1 X-33.178 Y30.402 Z0.500 E0.01224 F2100
G1 X-34.439 Y28.962 Z0.500 E0.47753 F2100
G1 X-34.472 Y28.925 Z0.500 E0.01224 F2100
G1 X-35.671 Y27.433 Z0.500 E0.47750 F2100
G1 X-35.701 Y27.395 Z0.500 E0.01224 F2100
G1 X-36.832 Y25.850 Z0.500 E0.47752 F2100
G1 X-36.861 Y25.811 Z0.500 E0.01224 F2100
G1 X-37.926 Y24.220 Z0.500 E0.47751 F2100
G1 X-37.953 Y24.179 Z0.500 E0.01224 F2100
G1 X-38.945 Y22.542 Z0.500 E0.47751 F2100
G1 X-38.971 Y22.500 Z0.500 E0.01224 F2100
G1 X-39.892 Y20.822 Z0.500 E0.47752 F2100
G1 X-39.916 Y20.779 Z0.500 E0.01224 F2100
G1 X-40.762 Y19.062 Z0.500 E0.47751 F2100
G1 X-40.783 Y19.018 Z0.500 E0.01224 F2100
G1 X-41.555 Y17.266 Z0.500 E0.47751 F2100
G1 X-41.575 Y17.221 Z0.500 E0.01224 F2100
G1 X-42.268 Y15.436 Z0.500 E0.47753 F2100
G1 X-42.286 Y15.391 Z0.500 E0.01224 F2100
G1 X-42.902 Y13.578 Z0.500 E0.47750 F2100
G1 X-42.918 Y13.532 Z0.500 E0.01224 F2100
G1 X-43.453 Y11.694 Z0.500 E0.47751 F2100
G1 X-43.466 Y11.647 Z0.500 E0.01224 F2100
G1 X-43.922 Y9.788 Z0.500 E0.47752 F2100
G1 X-43.934 Y9.740 Z0.500 E0.01224 F2100
G1 X-44.306 Y7.862 Z0.500 E0.47751 F2100
G1 X-44.316 Y7.814 Z0.500 E0.01224 F2100
G1 X-44.608 Y5.922 Z0.500 E0.47751 F2100
G1 X-44.615 Y5.874 Z0.500 E0.01224 F2100
G1 X-44.823 Y3.971 Z0.500 E0.47751 F2100
G1 X-44.828 Y3.922 Z0.500 E0.01224 F2100
G1 X-44.954 Y2.012 Z0.500 E0.47751 F2100
G1 X-44.958 Y1.963 Z0.500 E0.01224 F2100
G1 X-44.999 Y0.049 Z0.500 E0.47751 F2100

; Layer 1, Z=1.000mm, Diameter=127.3mm, Points=576, Amplitude factor=0.00
G1 X-45.000 Y0.000 Z1.000 E0.12533 F2100
G1 X-44.960 Y-1.865 Z1.000 E0.46527 F2100
G1 X-44.957 Y-1.963 Z1.000 E0.02449 F2100
G1 X-44.835 Y-3.824 Z1.000 E0.46527 F2100
G1 X-44.829 Y-3.922 Z1.000 E0.02449 F2100
G1 X-44.626 Y-5.776 Z1.000 E0.46527 F2100
G1 X-44.615 Y-5.874 Z1.000 E0.02449 F2100
G1 X-44.331 Y-7.717 Z1.000 E0.46527 F2100
G1 X-44.316 Y-7.814 Z1.000 E0.02449 F2100
G1 X-43.953 Y-9.644 Z1.000 E0.46527 F2100
G1 X-43.934 Y-9.740 Z1.000 E0.02449 F2100
G1 X-43.489 Y-11.551 Z1.000 E0.46528 F2100
G1 X-43.466 Y-11.647 Z1.000 E0.02449 F2100
G1 X-42.946 Y-13.438 Z1.000 E0.46527 F2100
G1 X-42.918 Y-13.532 Z1.000 E0.02449 F2100
G1 X-42.317 Y-15.298 Z1.000 E0.46526 F2100
G1 X-42.285 Y-15.391 Z1.000 E0.02449 F2100
G1 X-41.611 Y-17.130 Z1.000 E0.46528 F2100
G1 X-41.575 Y-17.221 Z1.000 E0.02449 F2100
G1 X-40.822 Y-18.927 Z1.000 E0.46526 F2100
G1 X-40.783 Y-19.017 Z1.000 E0.02449 F2100
G1 X-39.960 Y-20.691 Z1.000 E0.46527 F2100
G1 X-39.917 Y-20.779 Z1.000 E0.02449 F2100
G1 X-39.017 Y-22.413 Z1.000 E0.46527 F2100
G1 X-38.970 Y-22.499 Z1.000 E0.02449 F2100
G1 X-38.005 Y-24.095 Z1.000 E0.46527 F2100
G1 X-37.954 Y-24.179 Z1.000 E0.02449 F2100
G1 X-36.915 Y-25.728 Z1.000 E0.46526 F2100
G1 X-36.861 Y-25.810 Z1.000 E0.02449 F2100
G1 X-35.760 Y-27.316 Z1.000 E0.46528 F2100
G1 X-35.702 Y-27.395 Z1.000 E0.02449 F2100
G1 X-34.532 Y-28.848 Z1.000 E0.46526 F2100
G1 X-34.471 Y-28.924 Z1.000 E0.02449 F2100
G1 X-33.244 Y-30.329 Z1.000 E0.46528 F2100
G1 X-33.179 Y-30.403 Z1.000 E0.02449 F2100
G1 X-31.886 Y-31.748 Z1.000 E0.46527 F2100
G1 X-31.819 Y-31.819 Z1.000 E0.02449 F2100
G1 X-30.474 Y-33.111 Z1.000 E0.46527 F2100
G1 X-30.403 Y-33.179 Z1.000 E0.02449 F2100
G1 X-28.998 Y-34.406 Z1.000 E0.46528 F2100
G1 X-28.924 Y-34.471 Z1.000 E0.02449 F2100
G1 X-27.472 Y-35.641 Z1.000 E0.46526 F2100
G1 X-27.395 Y-35.702 Z1.000 E0.02449 F2100
G1 X-25.889 Y-36.802 Z1.000 E0.46528 F2100
G1 X-25.810 Y-36.860 Z1.000 E0.02449 F2100
G1 X-24.261 Y-37.900 Z1.000 E0.46526 F2100
G1 X-24.179 Y-37.954 Z1.000 E0.02449 F2100
G1 X-22.583 Y-38.919 Z1.000 E0.46527 F2100
G1 X-22.499 Y-38.969 Z1.000 E0.02449 F2100
G1 X-20.866 Y-39.870 Z1.000 E0.46527 F2100
G1 X-20.780 Y-39.917 Z1.000 E0.02449 F2100
G1 X-19.105 Y-40.739 Z1.000 E0.46527 F2100
G1 X-19.017 Y-40.782 Z1.000 E0.02449 F2100
G1 X-17.311 Y-41.537 Z1.000 E0.46526 F2100
G1 X-17.222 Y-41.576 Z1.000 E0.02449 F2100
G1 X-15.482 Y-42.249 Z1.000 E0.46528 F2100
G1 X-15.390 Y-42.284 Z1.000 E0.02449 F2100
G1 X-13.625 Y-42.888 Z1.000 E0.46526 F2100
G1 X-13.532 Y-42.919 Z1.000 E0.02449 F2100
G1 X-11.741 Y-43.437 Z1.000 E0.46527 F2100
G1 X-11.646 Y-43.465 Z1.000 E0.02449 F2100
G1 X-9.836 Y-43.912 Z1.000 E0.46528 F2100
G1 X-9.740 Y-43.935 Z1.000 E0.02449 F2100
G1 X-7.910 Y-44.295 Z1.000 E0.46527 F2100
G1 X-7.814 Y-44.314 Z1.000 E0.02449 F2100
G1 X-5.971 Y-44.602 Z1.000 E0.46527 F2100
G1 X-5.874 Y-44.617 Z1.000 E0.02449 F2100
G1 X-4.019 Y-44.816 Z1.000 E0.46527 F2100
G1 X-3.922 Y-44.827 Z1.000 E0.02449 F2100
G1 X-2.061 Y-44.952 Z1.000 E0.46527 F2100
G1 X-1.963 Y-44.959 Z1.000 E0.02449 F2100
G1 X-0.098 Y-44.996 Z1.000 E0.46527 F2100
G1 X0.000 Y-44.998 Z1.000 E0.02449 F2100
G1 X1.865 Y-44.961 Z1.000 E0.46527 F2100
G1 X1.963 Y-44.959 Z1.000 E0.02449 F2100
G1 X3.824 Y-44.834 Z1.000 E0.46527 F2100
G1 X3.922 Y-44.827 Z1.000 E0.02449 F2100
G1 X5.776 Y-44.627 Z1.000 E0.46527 F2100
G1 X5.874 Y-44.616 Z1.000 E0.02449 F2100
G1 X7.717 Y-44.330 Z1.000 E0.46527 F2100
G1 X7.814 Y-44.315 Z1.000 E0.02449 F2100
G1 X9.644 Y-43.954 Z1.000 E0.46527 F2100
G1 X9.740 Y-43.935 Z1.000 E0.02449 F2100
G1 X11.551 Y-43.489 Z1.000 E0.46528 F2100
G1 X11.647 Y-43.465 Z1.000 E0.02449 F2100
G1 X13.438 Y-42.946 Z1.000 E0.46527 F2100
G1 X13.532 Y-42.918 Z1.000 E0.02449 F2100
G1 X15.298 Y-42.317 Z1.000 E0.46526 F2100
G1 X15.391 Y-42.285 Z1.000 E0.02449 F2100
G1 X17.130 Y-41.611 Z1.000 E0.46528 F2100
G1 X17.221 Y-41.576 Z1.000 E0.02449 F2100
G1 X18.928 Y-40.823 Z1.000 E0.46526 F2100
G1 X19.017 Y-40.783 Z1.000 E0.02449 F2100
G1 X20.691 Y-39.959 Z1.000 E0.46527 F2100
G1 X20.779 Y-39.916 Z1.000 E0.02449 F2100
G1 X22.414 Y-39.018 Z1.000 E0.46528 F2100
G1 X22.500 Y-38.970 Z1.000 E0.02449 F2100
G1 X24.095 Y-38.004 Z1.000 E0.46527 F2100
G1 X24.179 Y-37.953 Z1.000 E0.02449 F2100
G1 X25.729 Y-36.916 Z1.000 E0.46526 F2100
G1 X25.811 Y-36.861 Z1.000 E0.02449 F2100
G1 X27.315 Y-35.759 Z1.000 E0.46528 F2100
G1 X27.395 Y-35.701 Z1.000 E0.02449 F2100
G1 X28.849 Y-34.533 Z1.000 E0.46526 F2100
G1 X28.925 Y-34.472 Z1.000 E0.02449 F2100
G1 X30.328 Y-33.242 Z1.000 E0.46528 F2100
G1 X30.402 Y-33.178 Z1.000 E0.02449 F2100
G1 X31.749 Y-31.888 Z1.000 E0.46527 F2100
G1 X31.820 Y-31.820 Z1.000 E0.02449 F2100
G1 X33.109 Y-30.472 Z1.000 E0.46526 F2100
G1 X33.177 Y-30.402 Z1.000 E0.02449 F2100
G1 X34.408 Y-28.999 Z1.000 E0.46528 F2100
G1 X34.472 Y-28.926 Z1.000 E0.02449 F2100
G1 X35.639 Y-27.471 Z1.000 E0.46525 F2100
G1 X35.701 Y-27.394 Z1.000 E0.02449 F2100
G1 X36.804 Y-25.890 Z1.000 E0.46528 F2100
G1 X36.862 Y-25.811 Z1.000 E0.02449 F2100
G1 X37.897 Y-24.260 Z1.000 E0.46526 F2100
G1 X37.952 Y-24.178 Z1.000 E0.02449 F2100
G1 X38.921 Y-22.584 Z1.000 E0.46527 F2100
G1 X38.972 Y-22.500 Z1.000 E0.02449 F2100
G1 X39.867 Y-20.864 Z1.000 E0.46527 F2100
G1 X39.915 Y-20.778 Z1.000 E0.02449 F2100
G1 X40.741 Y-19.106 Z1.000 E0.46527 F2100
G1 X40.785 Y-19.018 Z1.000 E0.02449 F2100
G1 X41.534 Y-17.310 Z1.000 E0.46526 F2100
G1 X41.574 Y-17.220 Z1.000 E0.02449 F2100
G1 X42.252 Y-15.483 Z1.000 E0.46528 F2100
G1 X42.287 Y-15.391 Z1.000 E0.02449 F2100
G1 X42.884 Y-13.624 Z1.000 E0.46526 F2100
G1 X42.916 Y-13.531 Z1.000 E0.02449 F2100
G1 X43.441 Y-11.742 Z1.000 E0.46527 F2100
G1 X43.468 Y-11.647 Z1.000 E0.02449 F2100
G1 X43.909 Y-9.835 Z1.000 E0.46528 F2100
G1 X43.932 Y-9.740 Z1.000 E0.02449 F2100
G1 X44.299 Y-7.911 Z1.000 E0.46527 F2100
G1 X44.318 Y-7.814 Z1.000 E0.02449 F2100
G1 X44.598 Y-5.970 Z1.000 E0.46527 F2100
G1 X44.614 Y-5.873 Z1.000 E0.02449 F2100
G1 X44.820 Y-4.020 Z1.000 E0.46527 F2100
G1 X44.830 Y-3.922 Z1.000 E0.02449 F2100
G1 X44.949 Y-2.061 Z1.000 E0.46527 F2100
G1 X44.956 Y-1.963 Z1.000 E0.02449 F2100
G1 X45.000 Y-0.098 Z1.000 E0.46527 F2100
G1 X45.002 Y0.000 Z1.000 E0.02449 F2100
G1 X44.958 Y1.865 Z1.000 E0.46527 F2100
G1 X44.956 Y1.963 Z1.000 E0.02449 F2100
G1 X44.837 Y3.824 Z1.000 E0.46527 F2100
G1 X44.831 Y3.922 Z1.000 E0.02449 F2100
G1 X44.624 Y5.776 Z1.000 E0.46527 F2100
G1 X44.613 Y5.873 Z1.000 E0.02449 F2100
G1 X44.333 Y7.717 Z1.000 E0.46527 F2100
G1 X44.318 Y7.814 Z1.000 E0.02449 F2100
G1 X43.951 Y9.643 Z1.000 E0.46527 F2100
G1 X43.932 Y9.739 Z1.000 E0.02449 F2100
G1 X43.492 Y11.552 Z1.000 E0.46528 F2100
G1 X43.469 Y11.647 Z1.000 E0.02449 F2100
G1 X42.943 Y13.437 Z1.000 E0.46527 F2100
G1 X42.915 Y13.531 Z1.000 E0.02449 F2100
G1 X42.320 Y15.299 Z1.000 E0.46526 F2100
G1 X42.288 Y15.392 Z1.000 E0.02449 F2100
G1 X41.608 Y17.129 Z1.000 E0.46528 F2100
G1 X41.573 Y17.220 Z1.000 E0.02449 F2100
G1 X40.825 Y18.929 Z1.000 E0.46526 F2100
G1 X40.786 Y19.019 Z1.000 E0.02449 F2100
G1 X39.957 Y20.690 Z1.000 E0.46527 F2100
G1 X39.914 Y20.778 Z1.000 E0.02449 F2100
G1 X39.020 Y22.415 Z1.000 E0.46527 F2100
G1 X38.973 Y22.501 Z1.000 E0.02449 F2100
G1 X38.002 Y24.094 Z1.000 E0.46527 F2100
G1 X37.951 Y24.177 Z1.000 E0.02449 F2100
G1 X36.918 Y25.730 Z1.000 E0.46526 F2100
G1 X36.863 Y25.812 Z1.000 E0.02449 F2100
G1 X35.758 Y27.314 Z1.000 E0.46528 F2100
G1 X35.699 Y27.393 Z1.000 E0.02449 F2100
G1 X34.535 Y28.850 Z1.000 E0.46525 F2100
G1 X34.473 Y28.927 Z1.000 E0.02449 F2100
G1 X33.241 Y30.327 Z1.000 E0.46528 F2100
G1 X33.176 Y30.400 Z1.000 E0.02449 F2100
G1 X31.889 Y31.750 Z1.000 E0.46526 F2100
G1 X31.821 Y31.821 Z1.000 E0.02449 F2100
G1 X30.472 Y33.109 Z1.000 E0.46527 F2100
G1 X30.400 Y33.176 Z1.000 E0.02449 F2100
G1 X29.000 Y34.408 Z1.000 E0.46528 F2100
G1 X28.926 Y34.473 Z1.000 E0.02449 F2100
G1 X27.470 Y35.638 Z1.000 E0.46526 F2100
G1 X27.393 Y35.700 Z1.000 E0.02449 F2100
G1 X25.891 Y36.805 Z1.000 E0.46528 F2100
G1 X25.812 Y36.863 Z1.000 E0.02449 F2100
G1 X24.259 Y37.897 Z1.000 E0.46526 F2100
G1 X24.178 Y37.951 Z1.000 E0.02449 F2100
G1 X22.584 Y38.921 Z1.000 E0.46527 F2100
G1 X22.501 Y38.972 Z1.000 E0.02449 F2100
G1 X20.864 Y39.867 Z1.000 E0.46528 F2100
G1 X20.778 Y39.914 Z1.000 E0.02449 F2100
G1 X19.106 Y40.741 Z1.000 E0.46527 F2100
G1 X19.018 Y40.785 Z1.000 E0.02449 F2100
G1 X17.310 Y41.534 Z1.000 E0.46526 F2100
G1 X17.220 Y41.574 Z1.000 E0.02449 F2100
G1 X15.483 Y42.251 Z1.000 E0.46528 F2100
G1 X15.391 Y42.287 Z1.000 E0.02449 F2100
G1 X13.625 Y42.885 Z1.000 E0.46526 F2100
G1 X13.532 Y42.916 Z1.000 E0.02449 F2100
G1 X11.741 Y43.440 Z1.000 E0.46527 F2100
G1 X11.647 Y43.467 Z1.000 E0.02449 F2100
G1 X9.835 Y43.910 Z1.000 E0.46528 F2100
G1 X9.740 Y43.933 Z1.000 E0.02449 F2100
G1 X7.910 Y44.297 Z1.000 E0.46526 F2100
G1 X7.814 Y44.317 Z1.000 E0.02449 F2100
G1 X5.971 Y44.600 Z1.000 E0.46527 F2100
G1 X5.874 Y44.615 Z1.000 E0.02449 F2100
G1 X4.020 Y44.818 Z1.000 E0.46527 F2100
G1 X3.922 Y44.829 Z1.000 E0.02449 F2100
G1 X2.061 Y44.951 Z1.000 E0.46527 F2100
G1 X1.963 Y44.957 Z1.000 E0.02449 F2100
G1 X0.098 Y44.998 Z1.000 E0.46527 F2100
G1 X-0.000 Y45.000 Z1.000 E0.02449 F2100
G1 X-1.865 Y44.960 Z1.000 E0.46527 F2100
G1 X-1.963 Y44.957 Z1.000 E0.02449 F2100
G1 X-3.824 Y44.835 Z1.000 E0.46527 F2100
G1 X-3.922 Y44.829 Z1.000 E0.02449 F2100
G1 X-5.776 Y44.626 Z1.000 E0.46527 F2100
G1 X-5.874 Y44.615 Z1.000 E0.02449 F2100
G1 X-7.717 Y44.331 Z1.000 E0.46527 F2100
G1 X-7.814 Y44.316 Z1.000 E0.02449 F2100
G1 X-9.644 Y43.953 Z1.000 E0.46527 F2100
G1 X-9.740 Y43.934 Z1.000 E0.02449 F2100
G1 X-11.551 Y43.489 Z1.000 E0.46527 F2100
G1 X-11.647 Y43.466 Z1.000 E0.02449 F2100
G1 X-13.438 Y42.946 Z1.000 E0.46527 F2100
G1 X-13.532 Y42.918 Z1.000 E0.02449 F2100
G1 X-15.298 Y42.317 Z1.000 E0.46526 F2100
G1 X-15.391 Y42.286 Z1.000 E0.02449 F2100
G1 X-17.130 Y41.611 Z1.000 E0.46528 F2100
G1 X-17.221 Y41.575 Z1.000 E0.02449 F2100
G1 X-18.927 Y40.822 Z1.000 E0.46526 F2100
G1 X-19.017 Y40.783 Z1.000 E0.02449 F2100
G1 X-20.691 Y39.960 Z1.000 E0.46527 F2100
G1 X-20.779 Y39.916 Z1.000 E0.02449 F2100
G1 X-22.413 Y39.017 Z1.000 E0.46527 F2100
G1 X-22.499 Y38.970 Z1.000 E0.02449 F2100
G1 X-24.095 Y38.005 Z1.000 E0.46527 F2100
G1 X-24.179 Y37.954 Z1.000 E0.02449 F2100
G1 X-25.728 Y36.915 Z1.000 E0.46526 F2100
G1 X-25.810 Y36.861 Z1.000 E0.02449 F2100
G1 X-27.316 Y35.760 Z1.000 E0.46528 F2100
G1 X-27.395 Y35.702 Z1.000 E0.02449 F2100
G1 X-28.848 Y34.532 Z1.000 E0.46525 F2100
G1 X-28.924 Y34.471 Z1.000 E0.02449 F2100
G1 X-30.329 Y33.243 Z1.000 E0.46528 F2100
G1 X-30.403 Y33.179 Z1.000 E0.02449 F2100
G1 X-31.748 Y31.886 Z1.000 E0.46527 F2100
G1 X-31.819 Y31.819 Z1.000 E0.02449 F2100
G1 X-33.111 Y30.474 Z1.000 E0.46527 F2100
G1 X-33.179 Y30.403 Z1.000 E0.02449 F2100
G1 X-34.406 Y28.998 Z1.000 E0.46528 F2100
G1 X-34.471 Y28.924 Z1.000 E0.02449 F2100
G1 X-35.641 Y27.472 Z1.000 E0.46526 F2100
G1 X-35.702 Y27.395 Z1.000 E0.02449 F2100
G1 X-36.802 Y25.889 Z1.000 E0.46528 F2100
G1 X-36.860 Y25.810 Z1.000 E0.02449 F2100
G1 X-37.900 Y24.261 Z1.000 E0.46526 F2100
G1 X-37.954 Y24.179 Z1.000 E0.02449 F2100
G1 X-38.919 Y22.583 Z1.000 E0.46527 F2100
G1 X-38.969 Y22.499 Z1.000 E0.02449 F2100
G1 X-39.870 Y20.866 Z1.000 E0.46527 F2100
G1 X-39.917 Y20.780 Z1.000 E0.02449 F2100
G1 X-40.739 Y19.105 Z1.000 E0.46527 F2100
G1 X-40.782 Y19.017 Z1.000 E0.02449 F2100
G1 X-41.537 Y17.311 Z1.000 E0.46526 F2100
G1 X-41.576 Y17.222 Z1.000 E0.02449 F2100
G1 X-42.249 Y15.482 Z1.000 E0.46528 F2100
G1 X-42.284 Y15.390 Z1.000 E0.02449 F2100
G1 X-42.888 Y13.625 Z1.000 E0.46526 F2100
G1 X-42.919 Y13.532 Z1.000 E0.02449 F2100
G1 X-43.437 Y11.741 Z1.000 E0.46527 F2100
G1 X-43.465 Y11.646 Z1.000 E0.02449 F2100
G1 X-43.912 Y9.836 Z1.000 E0.46528 F2100
G1 X-43.935 Y9.740 Z1.000 E0.02449 F2100
G1 X-44.295 Y7.910 Z1.000 E0.46527 F2100
G1 X-44.314 Y7.814 Z1.000 E0.02449 F2100
G1 X-44.602 Y5.971 Z1.000 E0.46527 F2100
G1 X-44.617 Y5.874 Z1.000 E0.02449 F2100
G1 X-44.816 Y4.019 Z1.000 E0.46527 F2100
G1 X-44.827 Y3.922 Z1.000 E0.02449 F2100
G1 X-44.952 Y2.061 Z1.000 E0.46527 F2100
G1 X-44.959 Y1.963 Z1.000 E0.02449 F2100
G1 X-44.996 Y0.098 Z1.000 E0.46527 F2100

; Layer 2, Z=1.500mm, Diameter=127.3mm, Points=576, Amplitude factor=0.00
G1 X-45.000 Y0.000 Z1.500 E0.12711 F2100
G1 X-44.962 Y-1.816 Z1.500 E0.45303 F2100
G1 X-44.957 Y-1.963 Z1.500 E0.03673 F2100
G1 X-44.837 Y-3.775 Z1.500 E0.45302 F2100
G1 X-44.828 Y-3.922 Z1.500 E0.03674 F2100
G1 X-44.633 Y-5.728 Z1.500 E0.45303 F2100
G1 X-44.616 Y-5.874 Z1.500 E0.03673 F2100
G1 X-44.337 Y-7.668 Z1.500 E0.45302 F2100
G1 X-44.315 Y-7.814 Z1.500 E0.03674 F2100
G1 X-43.964 Y-9.596 Z1.500 E0.45303 F2100
G1 X-43.934 Y-9.740 Z1.500 E0.03673 F2100
G1 X-43.499 Y-11.503 Z1.500 E0.45303 F2100
G1 X-43.465 Y-11.647 Z1.500 E0.03674 F2100
G1 X-42.961 Y-13.391 Z1.500 E0.45303 F2100
G1 X-42.919 Y-13.532 Z1.500 E0.03673 F2100
G1 X-42.331 Y-15.251 Z1.500 E0.45301 F2100
G1 X-42.284 Y-15.390 Z1.500 E0.03673 F2100
G1 X-41.631 Y-17.085 Z1.500 E0.45304 F2100
G1 X-41.577 Y-17.222 Z1.500 E0.03673 F2100
G1 X-40.840 Y-18.882 Z1.500 E0.45302 F2100
G1 X-40.782 Y-19.017 Z1.500 E0.03673 F2100
G1 X-39.984 Y-20.648 Z1.500 E0.45303 F2100
G1 X-39.918 Y-20.780 Z1.500 E0.03673 F2100
G1 X-39.039 Y-22.369 Z1.500 E0.45303 F2100
G1 X-38.969 Y-22.499 Z1.500 E0.03673 F2100
G1 X-38.032 Y-24.055 Z1.500 E0.45303 F2100
G1 X-37.955 Y-24.180 Z1.500 E0.03673 F2100
G1 X-36.941 Y-25.686 Z1.500 E0.45302 F2100
G1 X-36.859 Y-25.809 Z1.500 E0.03673 F2100
G1 X-35.791 Y-27.278 Z1.500 E0.45304 F2100
G1 X-35.703 Y-27.396 Z1.500 E0.03673 F2100
G1 X-34.561 Y-28.808 Z1.500 E0.45301 F2100
G1 X-34.469 Y-28.923 Z1.500 E0.03673 F2100
G1 X-33.278 Y-30.294 Z1.500 E0.45304 F2100
G1 X-33.180 Y-30.404 Z1.500 E0.03673 F2100
G1 X-31.919 Y-31.711 Z1.500 E0.45303 F2100
G1 X-31.817 Y-31.817 Z1.500 E0.03673 F2100
G1 X-30.511 Y-33.079 Z1.500 E0.45303 F2100
G1 X-30.404 Y-33.180 Z1.500 E0.03673 F2100
G1 X-29.033 Y-34.372 Z1.500 E0.45304 F2100
G1 X-28.923 Y-34.469 Z1.500 E0.03673 F2100
G1 X-27.512 Y-35.612 Z1.500 E0.45301 F2100
G1 X-27.397 Y-35.704 Z1.500 E0.03673 F2100
G1 X-25.927 Y-36.771 Z1.500 E0.45304 F2100
G1 X-25.809 Y-36.858 Z1.500 E0.03673 F2100
G1 X-24.303 Y-37.874 Z1.500 E0.45302 F2100
G1 X-24.181 Y-37.956 Z1.500 E0.03673 F2100
G1 X-22.624 Y-38.891 Z1.500 E0.45303 F2100
G1 X-22.498 Y-38.967 Z1.500 E0.03673 F2100
G1 X-20.910 Y-39.848 Z1.500 E0.45303 F2100
G1 X-20.781 Y-39.919 Z1.500 E0.03674 F2100
G1 X-19.148 Y-40.715 Z1.500 E0.45303 F2100
G1 X-19.016 Y-40.780 Z1.500 E0.03673 F2100
G1 X-17.357 Y-41.519 Z1.500 E0.45302 F2100
G1 X-17.222 Y-41.579 Z1.500 E0.03674 F2100
G1 X-15.527 Y-42.229 Z1.500 E0.45305 F2100
G1 X-15.389 Y-42.282 Z1.500 E0.03673 F2100
G1 X-13.672 Y-42.874 Z1.500 E0.45302 F2100
G1 X-13.533 Y-42.921 Z1.500 E0.03674 F2100
G1 X-11.787 Y-43.422 Z1.500 E0.45303 F2100
G1 X-11.646 Y-43.463 Z1.500 E0.03673 F2100
G1 X-9.884 Y-43.902 Z1.500 E0.45303 F2100
G1 X-9.741 Y-43.937 Z1.500 E0.03674 F2100
G1 X-7.958 Y-44.284 Z1.500 E0.45303 F2100
G1 X-7.813 Y-44.312 Z1.500 E0.03673 F2100
G1 X-6.020 Y-44.596 Z1.500 E0.45302 F2100
G1 X-5.874 Y-44.619 Z1.500 E0.03674 F2100
G1 X-4.068 Y-44.809 Z1.500 E0.45304 F2100
G1 X-3.922 Y-44.825 Z1.500 E0.03673 F2100
G1 X-2.110 Y-44.951 Z1.500 E0.45302 F2100
G1 X-1.963 Y-44.961 Z1.500 E0.03674 F2100
G1 X-0.147 Y-44.994 Z1.500 E0.45303 F2100
G1 X0.000 Y-44.996 Z1.500 E0.03673 F2100
G1 X1.816 Y-44.963 Z1.500 E0.45302 F2100
G1 X1.963 Y-44.961 Z1.500 E0.03674 F2100
G1 X3.775 Y-44.836 Z1.500 E0.45304 F2100
G1 X3.922 Y-44.825 Z1.500 E0.03673 F2100
G1 X5.728 Y-44.634 Z1.500 E0.45302 F2100
G1 X5.874 Y-44.618 Z1.500 E0.03674 F2100
G1 X7.668 Y-44.336 Z1.500 E0.45304 F2100
G1 X7.814 Y-44.313 Z1.500 E0.03673 F2100
G1 X9.596 Y-43.964 Z1.500 E0.45302 F2100
G1 X9.740 Y-43.936 Z1.500 E0.03674 F2100
G1 X11.503 Y-43.500 Z1.500 E0.45304 F2100
G1 X11.646 Y-43.464 Z1.500 E0.03673 F2100
G1 X13.391 Y-42.960 Z1.500 E0.45302 F2100
G1 X13.533 Y-42.920 Z1.500 E0.03674 F2100
G1 X15.251 Y-42.332 Z1.500 E0.45302 F2100
G1 X15.390 Y-42.284 Z1.500 E0.03673 F2100
G1 X17.084 Y-41.629 Z1.500 E0.45303 F2100
G1 X17.222 Y-41.577 Z1.500 E0.03674 F2100
G1 X18.883 Y-40.842 Z1.500 E0.45303 F2100
G1 X19.017 Y-40.782 Z1.500 E0.03673 F2100
G1 X20.647 Y-39.981 Z1.500 E0.45302 F2100
G1 X20.780 Y-39.917 Z1.500 E0.03674 F2100
G1 X22.371 Y-39.041 Z1.500 E0.45304 F2100
G1 X22.499 Y-38.970 Z1.500 E0.03673 F2100
G1 X24.053 Y-38.029 Z1.500 E0.45302 F2100
G1 X24.179 Y-37.954 Z1.500 E0.03674 F2100
G1 X25.688 Y-36.944 Z1.500 E0.45302 F2100
G1 X25.810 Y-36.861 Z1.500 E0.03673 F2100
G1 X27.275 Y-35.788 Z1.500 E0.45303 F2100
G1 X27.395 Y-35.702 Z1.500 E0.03674 F2100
G1 X28.811 Y-34.564 Z1.500 E0.45302 F2100
G1 X28.925 Y-34.472 Z1.500 E0.03673 F2100
G1 X30.290 Y-33.274 Z1.500 E0.45303 F2100
G1 X30.402 Y-33.178 Z1.500 E0.03674 F2100
G1 X31.714 Y-31.922 Z1.500 E0.45303 F2100
G1 X31.820 Y-31.820 Z1.500 E0.03673 F2100
G1 X33.075 Y-30.507 Z1.500 E0.45302 F2100
G1 X33.177 Y-30.402 Z1.500 E0.03674 F2100
G1 X34.376 Y-29.037 Z1.500 E0.45304 F2100
G1 X34.472 Y-28.926 Z1.500 E0.03673 F2100
G1 X35.607 Y-27.508 Z1.500 E0.45301 F2100
G1 X35.700 Y-27.394 Z1.500 E0.03674 F2100
G1 X36.776 Y-25.931 Z1.500 E0.45304 F2100
G1 X36.862 Y-25.811 Z1.500 E0.03673 F2100
G1 X37.869 Y-24.300 Z1.500 E0.45301 F2100
G1 X37.952 Y-24.178 Z1.500 E0.03674 F2100
G1 X38.897 Y-22.627 Z1.500 E0.45303 F2100
G1 X38.972 Y-22.501 Z1.500 E0.03673 F2100
G1 X39.843 Y-20.907 Z1.500 E0.45303 F2100
G1 X39.914 Y-20.778 Z1.500 E0.03674 F2100
G1 X40.721 Y-19.151 Z1.500 E0.45303 F2100
G1 X40.785 Y-19.019 Z1.500 E0.03673 F2100
G1 X41.513 Y-17.354 Z1.500 E0.45302 F2100
G1 X41.573 Y-17.220 Z1.500 E0.03673 F2100
G1 X42.236 Y-15.529 Z1.500 E0.45304 F2100
G1 X42.288 Y-15.392 Z1.500 E0.03673 F2100
G1 X42.867 Y-13.670 Z1.500 E0.45302 F2100
G1 X42.915 Y-13.531 Z1.500 E0.03673 F2100
G1 X43.429 Y-11.789 Z1.500 E0.45303 F2100
G1 X43.469 Y-11.648 Z1.500 E0.03673 F2100
G1 X43.895 Y-9.882 Z1.500 E0.45303 F2100
G1 X43.931 Y-9.739 Z1.500 E0.03673 F2100
G1 X44.291 Y-7.959 Z1.500 E0.45303 F2100
G1 X44.319 Y-7.815 Z1.500 E0.03673 F2100
G1 X44.589 Y-6.019 Z1.500 E0.45303 F2100
G1 X44.612 Y-5.873 Z1.500 E0.03673 F2100
G1 X44.817 Y-4.069 Z1.500 E0.45303 F2100
G1 X44.832 Y-3.922 Z1.500 E0.03673 F2100
G1 X44.944 Y-2.110 Z1.500 E0.45303 F2100
G1 X44.954 Y-1.963 Z1.500 E0.03673 F2100
G1 X45.001 Y-0.147 Z1.500 E0.45303 F2100
G1 X45.004 Y0.000 Z1.500 E0.03673 F2100
G1 X44.956 Y1.815 Z1.500 E0.45303 F2100
G1 X44.953 Y1.963 Z1.500 E0.03673 F2100
G1 X44.843 Y3.775 Z1.500 E0.45303 F2100
G1 X44.833 Y3.922 Z1.500 E0.03673 F2100
G1 X44.627 Y5.727 Z1.500 E0.45303 F2100
G1 X44.611 Y5.873 Z1.500 E0.03673 F2100
G1 X44.343 Y7.669 Z1.500 E0.45303 F2100
G1 X44.320 Y7.815 Z1.500 E0.03673 F2100
G1 X43.958 Y9.594 Z1.500 E0.45303 F2100
G1 X43.929 Y9.739 Z1.500 E0.03673 F2100
G1 X43.506 Y11.505 Z1.500 E0.45303 F2100
G1 X43.471 Y11.648 Z1.500 E0.03674 F2100
G1 X42.954 Y13.389 Z1.500 E0.45303 F2100
G1 X42.913 Y13.531 Z1.500 E0.03673 F2100
G1 X42.338 Y15.253 Z1.500 E0.45302 F2100
G1 X42.290 Y15.392 Z1.500 E0.03673 F2100
G1 X41.624 Y17.082 Z1.500 E0.45305 F2100
G1 X41.571 Y17.219 Z1.500 E0.03673 F2100
G1 X40.847 Y18.885 Z1.500 E0.45302 F2100
G1 X40.788 Y19.020 Z1.500 E0.03674 F2100
G1 X39.977 Y20.645 Z1.500 E0.45304 F2100
G1 X39.912 Y20.777 Z1.500 E0.03673 F2100
G1 X39.045 Y22.373 Z1.500 E0.45303 F2100
G1 X38.975 Y22.502 Z1.500 E0.03674 F2100
G1 X38.026 Y24.051 Z1.500 E0.45304 F2100
G1 X37.949 Y24.176 Z1.500 E0.03673 F2100
G1 X36.947 Y25.691 Z1.500 E0.45302 F2100
G1 X36.865 Y25.813 Z1.500 E0.03674 F2100
G1 X35.785 Y27.273 Z1.500 E0.45304 F2100
G1 X35.698 Y27.392 Z1.500 E0.03673 F2100
G1 X34.567 Y28.813 Z1.500 E0.45301 F2100
G1 X34.475 Y28.928 Z1.500 E0.03674 F2100
G1 X33.272 Y30.289 Z1.500 E0.45305 F2100
G1 X33.175 Y30.399 Z1.500 E0.03673 F2100
G1 X31.924 Y31.716 Z1.500 E0.45302 F2100
G1 X31.823 Y31.823 Z1.500 E0.03674 F2100
G1 X30.506 Y33.073 Z1.500 E0.45303 F2100
G1 X30.399 Y33.175 Z1.500 E0.03673 F2100
G1 X29.038 Y34.377 Z1.500 E0.45303 F2100
G1 X28.928 Y34.475 Z1.500 E0.03674 F2100
G1 X27.507 Y35.607 Z1.500 E0.45302 F2100
G1 X27.392 Y35.698 Z1.500 E0.03673 F2100
G1 X25.931 Y36.777 Z1.500 E0.45303 F2100
G1 X25.813 Y36.864 Z1.500 E0.03674 F2100
G1 X24.300 Y37.869 Z1.500 E0.45303 F2100
G1 X24.177 Y37.950 Z1.500 E0.03673 F2100
G1 X22.627 Y38.897 Z1.500 E0.45302 F2100
G1 X22.501 Y38.974 Z1.500 E0.03674 F2100
G1 X20.907 Y39.843 Z1.500 E0.45304 F2100
G1 X20.777 Y39.913 Z1.500 E0.03673 F2100
G1 X19.151 Y40.720 Z1.500 E0.45302 F2100
G1 X19.019 Y40.786 Z1.500 E0.03674 F2100
G1 X17.355 Y41.514 Z1.500 E0.45303 F2100
G1 X17.220 Y41.572 Z1.500 E0.03673 F2100
G1 X15.529 Y42.234 Z1.500 E0.45303 F2100
G1 X15.392 Y42.288 Z1.500 E0.03674 F2100
G1 X13.671 Y42.869 Z1.500 E0.45302 F2100
G1 X13.531 Y42.915 Z1.500 E0.03673 F2100
G1 X11.788 Y43.426 Z1.500 E0.45302 F2100
G1 X11.647 Y43.468 Z1.500 E0.03674 F2100
G1 X9.883 Y43.898 Z1.500 E0.45304 F2100
G1 X9.739 Y43.932 Z1.500 E0.03673 F2100
G1 X7.959 Y44.288 Z1.500 E0.45302 F2100
G1 X7.814 Y44.318 Z1.500 E0.03674 F2100
G1 X6.019 Y44.593 Z1.500 E0.45303 F2100
G1 X5.874 Y44.614 Z1.500 E0.03673 F2100
G1 X4.068 Y44.813 Z1.500 E0.45302 F2100
G1 X3.922 Y44.830 Z1.500 E0.03674 F2100
G1 X2.110 Y44.948 Z1.500 E0.45303 F2100
G1 X1.963 Y44.957 Z1.500 E0.03673 F2100
G1 X0.147 Y44.996 Z1.500 E0.45302 F2100
G1 X-0.000 Y45.000 Z1.500 E0.03674 F2100
G1 X-1.816 Y44.961 Z1.500 E0.45303 F2100
G1 X-1.963 Y44.957 Z1.500 E0.03673 F2100
G1 X-3.775 Y44.837 Z1.500 E0.45302 F2100
G1 X-3.922 Y44.829 Z1.500 E0.03674 F2100
G1 X-5.727 Y44.632 Z1.500 E0.45303 F2100
G1 X-5.874 Y44.615 Z1.500 E0.03673 F2100
G1 X-7.668 Y44.337 Z1.500 E0.45302 F2100
G1 X-7.814 Y44.316 Z1.500 E0.03674 F2100
G1 X-9.596 Y43.964 Z1.500 E0.45303 F2100
G1 X-9.740 Y43.934 Z1.500 E0.03673 F2100
G1 X-11.503 Y43.500 Z1.500 E0.45303 F2100
G1 X-11.647 Y43.466 Z1.500 E0.03674 F2100
G1 X-13.391 Y42.961 Z1.500 E0.45303 F2100
G1 X-13.532 Y42.919 Z1.500 E0.03673 F2100
G1 X-15.251 Y42.331 Z1.500 E0.45301 F2100
G1 X-15.390 Y42.285 Z1.500 E0.03673 F2100
G1 X-17.085 Y41.630 Z1.500 E0.45304 F2100
G1 X-17.222 Y41.576 Z1.500 E0.03673 F2100
G1 X-18.882 Y40.840 Z1.500 E0.45302 F2100
G1 X-19.017 Y40.782 Z1.500 E0.03673 F2100
G1 X-20.648 Y39.983 Z1.500 E0.45303 F2100
G1 X-20.780 Y39.918 Z1.500 E0.03673 F2100
G1 X-22.369 Y39.039 Z1.500 E0.45303 F2100
G1 X-22.499 Y38.969 Z1.500 E0.03673 F2100
G1 X-24.054 Y38.032 Z1.500 E0.45303 F2100
G1 X-24.180 Y37.955 Z1.500 E0.03673 F2100
G1 X-25.686 Y36.941 Z1.500 E0.45302 F2100
G1 X-25.809 Y36.859 Z1.500 E0.03673 F2100
G1 X-27.278 Y35.791 Z1.500 E0.45304 F2100
G1 X-27.396 Y35.703 Z1.500 E0.03673 F2100
G1 X-28.808 Y34.561 Z1.500 E0.45301 F2100
G1 X-28.923 Y34.470 Z1.500 E0.03673 F2100
G1 X-30.294 Y33.277 Z1.500 E0.45304 F2100
G1 X-30.404 Y33.180 Z1.500 E0.03673 F2100
G1 X-31.711 Y31.919 Z1.500 E0.45303 F2100
G1 X-31.817 Y31.817 Z1.500 E0.03673 F2100
G1 X-33.079 Y30.511 Z1.500 E0.45303 F2100
G1 X-33.180 Y30.404 Z1.500 E0.03673 F2100
G1 X-34.372 Y29.033 Z1.500 E0.45304 F2100
G1 X-34.469 Y28.923 Z1.500 E0.03673 F2100
G1 X-35.612 Y27.512 Z1.500 E0.45301 F2100
G1 X-35.704 Y27.397 Z1.500 E0.03673 F2100
G1 X-36.771 Y25.927 Z1.500 E0.45304 F2100
G1 X-36.859 Y25.809 Z1.500 E0.03673 F2100
G1 X-37.874 Y24.303 Z1.500 E0.45302 F2100
G1 X-37.956 Y24.181 Z1.500 E0.03673 F2100
G1 X-38.891 Y22.624 Z1.500 E0.45303 F2100
G1 X-38.967 Y22.498 Z1.500 E0.03673 F2100
G1 X-39.848 Y20.910 Z1.500 E0.45303 F2100
G1 X-39.919 Y20.781 Z1.500 E0.03674 F2100
G1 X-40.715 Y19.148 Z1.500 E0.45303 F2100
G1 X-40.780 Y19.016 Z1.500 E0.03673 F2100
G1 X-41.519 Y17.357 Z1.500 E0.45302 F2100
G1 X-41.579 Y17.222 Z1.500 E0.03673 F2100
G1 X-42.229 Y15.527 Z1.500 E0.45305 F2100
G1 X-42.282 Y15.389 Z1.500 E0.03673 F2100
G1 X-42.874 Y13.672 Z1.500 E0.45302 F2100
G1 X-42.921 Y13.533 Z1.500 E0.03674 F2100
G1 X-43.422 Y11.787 Z1.500 E0.45303 F2100
G1 X-43.463 Y11.646 Z1.500 E0.03673 F2100
G1 X-43.902 Y9.884 Z1.500 E0.45303 F2100
G1 X-43.937 Y9.741 Z1.500 E0.03674 F2100
G1 X-44.284 Y7.958 Z1.500 E0.45303 F2100
G1 X-44.312 Y7.813 Z1.500 E0.03673 F2100
G1 X-44.596 Y6.020 Z1.500 E0.45303 F2100
G1 X-44.619 Y5.874 Z1.500 E0.03674 F2100
G1 X-44.809 Y4.068 Z1.500 E0.45304 F2100
G1 X-44.825 Y3.922 Z1.500 E0.03673 F2100
G1 X-44.951 Y2.110 Z1.500 E0.45302 F2100
G1 X-44.961 Y1.963 Z1.500 E0.03674 F2100
G1 X-44.993 Y0.147 Z1.500 E0.45303 F2100

; Layer 3, Z=2.000mm, Diameter=127.3mm, Points=576, Amplitude factor=0.01
G1 X-45.006 Y-0.000 Z2.000 E0.13006 F2100
G1 X-44.958 Y-1.766 Z2.000 E0.44080 F2100
G1 X-44.952 Y-1.963 Z2.000 E0.04896 F2100
G1 X-44.845 Y-3.726 Z2.000 E0.44077 F2100
G1 X-44.834 Y-3.922 Z2.000 E0.04899 F2100
G1 X-44.633 Y-5.678 Z2.000 E0.44080 F2100
G1 X-44.610 Y-5.873 Z2.000 E0.04896 F2100
G1 X-44.349 Y-7.621 Z2.000 E0.44077 F2100
G1 X-44.321 Y-7.815 Z2.000 E0.04899 F2100
G1 X-43.970 Y-9.547 Z2.000 E0.44080 F2100
G1 X-43.929 Y-9.739 Z2.000 E0.04896 F2100
G1 X-43.515 Y-11.457 Z2.000 E0.44077 F2100
G1 X-43.470 Y-11.648 Z2.000 E0.04899 F2100
G1 X-42.971 Y-13.343 Z2.000 E0.44080 F2100
G1 X-42.914 Y-13.531 Z2.000 E0.04897 F2100
G1 X-42.350 Y-15.205 Z2.000 E0.44076 F2100
G1 X-42.289 Y-15.392 Z2.000 E0.04899 F2100
G1 X-41.645 Y-17.038 Z2.000 E0.44081 F2100
G1 X-41.572 Y-17.220 Z2.000 E0.04897 F2100
G1 X-40.863 Y-18.838 Z2.000 E0.44076 F2100
G1 X-40.786 Y-19.019 Z2.000 E0.04899 F2100
G1 X-40.003 Y-20.603 Z2.000 E0.44080 F2100
G1 X-39.914 Y-20.778 Z2.000 E0.04897 F2100
G1 X-39.065 Y-22.327 Z2.000 E0.44077 F2100
G1 X-38.972 Y-22.501 Z2.000 E0.04899 F2100
G1 X-38.056 Y-24.011 Z2.000 E0.44080 F2100
G1 X-37.952 Y-24.178 Z2.000 E0.04897 F2100
G1 X-36.969 Y-25.647 Z2.000 E0.44076 F2100
G1 X-36.862 Y-25.811 Z2.000 E0.04899 F2100
G1 X-35.819 Y-27.237 Z2.000 E0.44080 F2100
G1 X-35.701 Y-27.394 Z2.000 E0.04897 F2100
G1 X-34.593 Y-28.771 Z2.000 E0.44076 F2100
G1 X-34.472 Y-28.925 Z2.000 E0.04899 F2100
G1 X-33.309 Y-30.256 Z2.000 E0.44080 F2100
G1 X-33.178 Y-30.402 Z2.000 E0.04897 F2100
G1 X-31.953 Y-31.676 Z2.000 E0.44077 F2100
G1 X-31.819 Y-31.819 Z2.000 E0.04899 F2100
G1 X-30.546 Y-33.045 Z2.000 E0.44079 F2100
G1 X-30.403 Y-33.179 Z2.000 E0.04897 F2100
G1 X-29.070 Y-34.339 Z2.000 E0.44079 F2100
G1 X-28.924 Y-34.470 Z2.000 E0.04899 F2100
G1 X-27.550 Y-35.582 Z2.000 E0.44078 F2100
G1 X-27.396 Y-35.703 Z2.000 E0.04897 F2100
G1 X-25.966 Y-36.742 Z2.000 E0.44079 F2100
G1 X-25.809 Y-36.859 Z2.000 E0.04898 F2100
G1 X-24.345 Y-37.848 Z2.000 E0.44079 F2100
G1 X-24.180 Y-37.955 Z2.000 E0.04897 F2100
G1 X-22.665 Y-38.864 Z2.000 E0.44078 F2100
G1 X-22.498 Y-38.968 Z2.000 E0.04898 F2100
G1 X-20.954 Y-39.826 Z2.000 E0.44080 F2100
G1 X-20.781 Y-39.919 Z2.000 E0.04897 F2100
G1 X-19.191 Y-40.691 Z2.000 E0.44079 F2100
G1 X-19.016 Y-40.780 Z2.000 E0.04898 F2100
G1 X-17.403 Y-41.501 Z2.000 E0.44079 F2100
G1 X-17.223 Y-41.579 Z2.000 E0.04897 F2100
G1 X-15.572 Y-42.209 Z2.000 E0.44080 F2100
G1 X-15.389 Y-42.281 Z2.000 E0.04898 F2100
G1 X-13.720 Y-42.861 Z2.000 E0.44078 F2100
G1 X-13.533 Y-42.923 Z2.000 E0.04898 F2100
G1 X-11.834 Y-43.405 Z2.000 E0.44079 F2100
G1 X-11.645 Y-43.461 Z2.000 E0.04898 F2100
G1 X-9.932 Y-43.894 Z2.000 E0.44080 F2100
G1 X-9.741 Y-43.939 Z2.000 E0.04898 F2100
G1 X-8.005 Y-44.271 Z2.000 E0.44079 F2100
G1 X-7.813 Y-44.310 Z2.000 E0.04897 F2100
G1 X-6.069 Y-44.593 Z2.000 E0.44079 F2100
G1 X-5.875 Y-44.621 Z2.000 E0.04898 F2100
G1 X-4.116 Y-44.800 Z2.000 E0.44080 F2100
G1 X-3.921 Y-44.822 Z2.000 E0.04897 F2100
G1 X-2.159 Y-44.952 Z2.000 E0.44079 F2100
G1 X-1.963 Y-44.964 Z2.000 E0.04898 F2100
G1 X-0.196 Y-44.988 Z2.000 E0.44080 F2100
G1 X0.000 Y-44.993 Z2.000 E0.04897 F2100
G1 X1.767 Y-44.969 Z2.000 E0.44079 F2100
G1 X1.963 Y-44.964 Z2.000 E0.04898 F2100
G1 X3.725 Y-44.834 Z2.000 E0.44080 F2100
G1 X3.921 Y-44.821 Z2.000 E0.04897 F2100
G1 X5.679 Y-44.644 Z2.000 E0.44079 F2100
G1 X5.875 Y-44.622 Z2.000 E0.04898 F2100
G1 X7.619 Y-44.339 Z2.000 E0.44081 F2100
G1 X7.813 Y-44.309 Z2.000 E0.04897 F2100
G1 X9.549 Y-43.979 Z2.000 E0.44079 F2100
G1 X9.741 Y-43.941 Z2.000 E0.04898 F2100
G1 X11.454 Y-43.506 Z2.000 E0.44081 F2100
G1 X11.645 Y-43.459 Z2.000 E0.04897 F2100
G1 X13.345 Y-42.979 Z2.000 E0.44079 F2100
G1 X13.534 Y-42.925 Z2.000 E0.04899 F2100
G1 X15.203 Y-42.343 Z2.000 E0.44080 F2100
G1 X15.388 Y-42.279 Z2.000 E0.04896 F2100
G1 X17.040 Y-41.652 Z2.000 E0.44080 F2100
G1 X17.224 Y-41.582 Z2.000 E0.04899 F2100
G1 X18.835 Y-40.857 Z2.000 E0.44080 F2100
G1 X19.015 Y-40.777 Z2.000 E0.04896 F2100
G1 X20.606 Y-40.008 Z2.000 E0.44078 F2100
G1 X20.782 Y-39.922 Z2.000 E0.04899 F2100
G1 X22.325 Y-39.060 Z2.000 E0.44081 F2100
G1 X22.496 Y-38.965 Z2.000 E0.04896 F2100
G1 X24.014 Y-38.059 Z2.000 E0.44078 F2100
G1 X24.182 Y-37.959 Z2.000 E0.04899 F2100
G1 X25.644 Y-36.966 Z2.000 E0.44080 F2100
G1 X25.807 Y-36.856 Z2.000 E0.04896 F2100
G1 X27.239 Y-35.821 Z2.000 E0.44079 F2100
G1 X27.398 Y-35.706 Z2.000 E0.04899 F2100
G1 X28.769 Y-34.591 Z2.000 E0.44079 F2100
G1 X28.921 Y-34.467 Z2.000 E0.04896 F2100
G1 X30.257 Y-33.310 Z2.000 E0.44079 F2100
G1 X30.406 Y-33.182 Z2.000 E0.04899 F2100
G1 X31.675 Y-31.953 Z2.000 E0.44080 F2100
G1 X31.816 Y-31.816 Z2.000 E0.04896 F2100
G1 X33.045 Y-30.546 Z2.000 E0.44077 F2100
G1 X33.182 Y-30.405 Z2.000 E0.04899 F2100
G1 X34.340 Y-29.071 Z2.000 E0.44081 F2100
G1 X34.468 Y-28.922 Z2.000 E0.04897 F2100
G1 X35.580 Y-27.549 Z2.000 E0.44076 F2100
G1 X35.705 Y-27.397 Z2.000 E0.04899 F2100
G1 X36.743 Y-25.968 Z2.000 E0.44081 F2100
G1 X36.858 Y-25.808 Z2.000 E0.04897 F2100
G1 X37.845 Y-24.343 Z2.000 E0.44076 F2100
G1 X37.956 Y-24.181 Z2.000 E0.04899 F2100
G1 X38.868 Y-22.667 Z2.000 E0.44080 F2100
G1 X38.968 Y-22.498 Z2.000 E0.04896 F2100
G1 X39.822 Y-20.952 Z2.000 E0.44077 F2100
G1 X39.919 Y-20.780 Z2.000 E0.04899 F2100
G1 X40.696 Y-19.193 Z2.000 E0.44080 F2100
G1 X40.781 Y-19.016 Z2.000 E0.04897 F2100
G1 X41.496 Y-17.401 Z2.000 E0.44076 F2100
G1 X41.577 Y-17.222 Z2.000 E0.04899 F2100
G1 X42.215 Y-15.574 Z2.000 E0.44081 F2100
G1 X42.284 Y-15.390 Z2.000 E0.04897 F2100
G1 X42.854 Y-13.718 Z2.000 E0.44076 F2100
G1 X42.919 Y-13.532 Z2.000 E0.04899 F2100
G1 X43.412 Y-11.836 Z2.000 E0.44079 F2100
G1 X43.465 Y-11.646 Z2.000 E0.04897 F2100
G1 X43.886 Y-9.930 Z2.000 E0.44077 F2100
G1 X43.934 Y-9.740 Z2.000 E0.04899 F2100
G1 X44.280 Y-8.007 Z2.000 E0.44079 F2100
G1 X44.316 Y-7.814 Z2.000 E0.04897 F2100
G1 X44.583 Y-6.067 Z2.000 E0.44077 F2100
G1 X44.615 Y-5.874 Z2.000 E0.04899 F2100
G1 X44.810 Y-4.117 Z2.000 E0.44080 F2100
G1 X44.829 Y-3.922 Z2.000 E0.04897 F2100
G1 X44.942 Y-2.159 Z2.000 E0.44077 F2100
G1 X44.957 Y-1.963 Z2.000 E0.04899 F2100
G1 X44.999 Y-0.196 Z2.000 E0.44079 F2100
G1 X45.001 Y0.000 Z2.000 E0.04897 F2100
G1 X44.958 Y1.766 Z2.000 E0.44077 F2100
G1 X44.956 Y1.963 Z2.000 E0.04899 F2100
G1 X44.846 Y3.726 Z2.000 E0.44079 F2100
G1 X44.831 Y3.922 Z2.000 E0.04897 F2100
G1 X44.632 Y5.678 Z2.000 E0.44078 F2100
G1 X44.613 Y5.873 Z2.000 E0.04899 F2100
G1 X44.351 Y7.621 Z2.000 E0.44079 F2100
G1 X44.319 Y7.815 Z2.000 E0.04897 F2100
G1 X43.967 Y9.546 Z2.000 E0.44078 F2100
G1 X43.930 Y9.739 Z2.000 E0.04898 F2100
G1 X43.519 Y11.458 Z2.000 E0.44080 F2100
G1 X43.470 Y11.648 Z2.000 E0.04897 F2100
G1 X42.967 Y13.342 Z2.000 E0.44078 F2100
G1 X42.914 Y13.531 Z2.000 E0.04898 F2100
G1 X42.355 Y15.207 Z2.000 E0.44078 F2100
G1 X42.290 Y15.392 Z2.000 E0.04897 F2100
G1 X41.640 Y17.035 Z2.000 E0.44080 F2100
G1 X41.570 Y17.219 Z2.000 E0.04898 F2100
G1 X40.869 Y18.841 Z2.000 E0.44079 F2100
G1 X40.788 Y19.020 Z2.000 E0.04898 F2100
G1 X39.996 Y20.600 Z2.000 E0.44079 F2100
G1 X39.911 Y20.776 Z2.000 E0.04898 F2100
G1 X39.072 Y22.331 Z2.000 E0.44080 F2100
G1 X38.976 Y22.503 Z2.000 E0.04898 F2100
G1 X38.048 Y24.007 Z2.000 E0.44079 F2100
G1 X37.948 Y24.175 Z2.000 E0.04898 F2100
G1 X36.977 Y25.652 Z2.000 E0.44079 F2100
G1 X36.867 Y25.814 Z2.000 E0.04898 F2100
G1 X35.811 Y27.231 Z2.000 E0.44080 F2100
G1 X35.696 Y27.390 Z2.000 E0.04897 F2100
G1 X34.601 Y28.777 Z2.000 E0.44078 F2100
G1 X34.477 Y28.930 Z2.000 E0.04898 F2100
G1 X33.301 Y30.249 Z2.000 E0.44081 F2100
G1 X33.172 Y30.397 Z2.000 E0.04897 F2100
G1 X31.961 Y31.683 Z2.000 E0.44079 F2100
G1 X31.825 Y31.825 Z2.000 E0.04898 F2100
G1 X30.538 Y33.036 Z2.000 E0.44080 F2100
G1 X30.397 Y33.172 Z2.000 E0.04897 F2100
G1 X29.078 Y34.348 Z2.000 E0.44080 F2100
G1 X28.930 Y34.478 Z2.000 E0.04898 F2100
G1 X27.543 Y35.572 Z2.000 E0.44079 F2100
G1 X27.390 Y35.695 Z2.000 E0.04897 F2100
G1 X25.974 Y36.752 Z2.000 E0.44080 F2100
G1 X25.815 Y36.868 Z2.000 E0.04898 F2100
G1 X24.338 Y37.837 Z2.000 E0.44080 F2100
G1 X24.174 Y37.946 Z2.000 E0.04897 F2100
G1 X22.672 Y38.876 Z2.000 E0.44079 F2100
G1 X22.504 Y38.978 Z2.000 E0.04899 F2100
G1 X20.947 Y39.815 Z2.000 E0.44081 F2100
G1 X20.775 Y39.909 Z2.000 E0.04897 F2100
G1 X19.197 Y40.703 Z2.000 E0.44079 F2100
G1 X19.021 Y40.791 Z2.000 E0.04899 F2100
G1 X17.398 Y41.489 Z2.000 E0.44080 F2100
G1 X17.218 Y41.568 Z2.000 E0.04896 F2100
G1 X15.576 Y42.221 Z2.000 E0.44080 F2100
G1 X15.393 Y42.293 Z2.000 E0.04899 F2100
G1 X13.716 Y42.848 Z2.000 E0.44080 F2100
G1 X13.530 Y42.910 Z2.000 E0.04896 F2100
G1 X11.837 Y43.418 Z2.000 E0.44078 F2100
G1 X11.649 Y43.474 Z2.000 E0.04899 F2100
G1 X9.929 Y43.881 Z2.000 E0.44081 F2100
G1 X9.738 Y43.926 Z2.000 E0.04896 F2100
G1 X8.008 Y44.284 Z2.000 E0.44078 F2100
G1 X7.815 Y44.323 Z2.000 E0.04899 F2100
G1 X6.067 Y44.580 Z2.000 E0.44081 F2100
G1 X5.873 Y44.608 Z2.000 E0.04896 F2100
G1 X4.118 Y44.813 Z2.000 E0.44078 F2100
G1 X3.923 Y44.835 Z2.000 E0.04899 F2100
G1 X2.159 Y44.940 Z2.000 E0.44081 F2100
G1 X1.963 Y44.951 Z2.000 E0.04896 F2100
G1 X0.196 Y45.000 Z2.000 E0.44077 F2100
G1 X-0.000 Y45.006 Z2.000 E0.04899 F2100
G1 X-1.766 Y44.957 Z2.000 E0.44080 F2100
G1 X-1.963 Y44.951 Z2.000 E0.04896 F2100
G1 X-3.726 Y44.845 Z2.000 E0.44077 F2100
G1 X-3.922 Y44.834 Z2.000 E0.04899 F2100
G1 X-5.678 Y44.633 Z2.000 E0.44080 F2100
G1 X-5.873 Y44.610 Z2.000 E0.04896 F2100
G1 X-7.621 Y44.349 Z2.000 E0.44077 F2100
G1 X-7.815 Y44.321 Z2.000 E0.04899 F2100
G1 X-9.547 Y43.969 Z2.000 E0.44080 F2100
G1 X-9.739 Y43.929 Z2.000 E0.04896 F2100
G1 X-11.457 Y43.515 Z2.000 E0.44078 F2100
G1 X-11.648 Y43.471 Z2.000 E0.04899 F2100
G1 X-13.343 Y42.971 Z2.000 E0.44080 F2100
G1 X-13.531 Y42.914 Z2.000 E0.04896 F2100
G1 X-15.205 Y42.351 Z2.000 E0.44076 F2100
G1 X-15.392 Y42.289 Z2.000 E0.04899 F2100
G1 X-17.037 Y41.645 Z2.000 E0.44081 F2100
G1 X-17.220 Y41.572 Z2.000 E0.04897 F2100
G1 X-18.838 Y40.863 Z2.000 E0.44076 F2100
G1 X-19.019 Y40.786 Z2.000 E0.04899 F2100
G1 X-20.603 Y40.002 Z2.000 E0.44080 F2100
G1 X-20.778 Y39.913 Z2.000 E0.04897 F2100
G1 X-22.328 Y39.065 Z2.000 E0.44077 F2100
G1 X-22.501 Y38.973 Z2.000 E0.04899 F2100
G1 X-24.011 Y38.055 Z2.000 E0.44080 F2100
G1 X-24.178 Y37.951 Z2.000 E0.04897 F2100
G1 X-25.647 Y36.970 Z2.000 E0.44076 F2100
G1 X-25.811 Y36.863 Z2.000 E0.04899 F2100
G1 X-27.237 Y35.818 Z2.000 E0.44080 F2100
G1 X-27.394 Y35.700 Z2.000 E0.04897 F2100
G1 X-28.771 Y34.593 Z2.000 E0.44076 F2100
G1 X-28.925 Y34.472 Z2.000 E0.04899 F2100
G1 X-30.256 Y33.309 Z2.000 E0.44081 F2100
G1 X-30.402 Y33.178 Z2.000 E0.04897 F2100
G1 X-31.676 Y31.953 Z2.000 E0.44077 F2100
G1 X-31.819 Y31.819 Z2.000 E0.04899 F2100
G1 X-33.044 Y30.546 Z2.000 E0.44079 F2100
G1 X-33.178 Y30.402 Z2.000 E0.04897 F2100
G1 X-34.340 Y29.071 Z2.000 E0.44078 F2100
G1 X-34.471 Y28.924 Z2.000 E0.04899 F2100
G1 X-35.581 Y27.550 Z2.000 E0.44078 F2100
G1 X-35.703 Y27.396 Z2.000 E0.04897 F2100
G1 X-36.742 Y25.967 Z2.000 E0.44078 F2100
G1 X-36.860 Y25.809 Z2.000 E0.04899 F2100
G1 X-37.848 Y24.344 Z2.000 E0.44079 F2100
G1 X-37.955 Y24.180 Z2.000 E0.04897 F2100
G1 X-38.865 Y22.665 Z2.000 E0.44078 F2100
G1 X-38.968 Y22.498 Z2.000 E0.04898 F2100
G1 X-39.826 Y20.953 Z2.000 E0.44080 F2100
G1 X-39.919 Y20.780 Z2.000 E0.04897 F2100
G1 X-40.692 Y19.191 Z2.000 E0.44078 F2100
G1 X-40.780 Y19.016 Z2.000 E0.04898 F2100
G1 X-41.501 Y17.403 Z2.000 E0.44079 F2100
G1 X-41.579 Y17.222 Z2.000 E0.04897 F2100
G1 X-42.209 Y15.572 Z2.000 E0.44080 F2100
G1 X-42.282 Y15.389 Z2.000 E0.04898 F2100
G1 X-42.860 Y13.720 Z2.000 E0.44078 F2100
G1 X-42.922 Y13.533 Z2.000 E0.04898 F2100
G1 X-43.405 Y11.834 Z2.000 E0.44079 F2100
G1 X-43.461 Y11.645 Z2.000 E0.04898 F2100
G1 X-43.893 Y9.932 Z2.000 E0.44080 F2100
G1 X-43.939 Y9.741 Z2.000 E0.04898 F2100
G1 X-44.271 Y8.005 Z2.000 E0.44079 F2100
G1 X-44.310 Y7.813 Z2.000 E0.04897 F2100
G1 X-44.592 Y6.069 Z2.000 E0.44079 F2100
G1 X-44.621 Y5.875 Z2.000 E0.04898 F2100
G1 X-44.800 Y4.116 Z2.000 E0.44080 F2100
G1 X-44.822 Y3.921 Z2.000 E0.04897 F2100
G1 X-44.952 Y2.159 Z2.000 E0.44079 F2100
G1 X-44.964 Y1.963 Z2.000 E0.04898 F2100
G1 X-44.988 Y0.196 Z2.000 E0.44080 F2100

; Layer 4, Z=2.500mm, Diameter=127.3mm, Points=576, Amplitude factor=0.01
G1 X-45.009 Y-0.000 Z2.500 E0.13409 F2100
G1 X-44.958 Y-1.717 Z2.500 E0.42858 F2100
G1 X-44.949 Y-1.962 Z2.500 E0.06120 F2100
G1 X-44.849 Y-3.677 Z2.500 E0.42852 F2100
G1 X-44.837 Y-3.923 Z2.500 E0.06125 F2100
G1 X-44.638 Y-5.629 Z2.500 E0.42858 F2100
G1 X-44.607 Y-5.873 Z2.500 E0.06120 F2100
G1 X-44.357 Y-7.572 Z2.500 E0.42852 F2100
G1 X-44.323 Y-7.815 Z2.500 E0.06126 F2100
G1 X-43.979 Y-9.499 Z2.500 E0.42857 F2100
G1 X-43.927 Y-9.738 Z2.500 E0.06120 F2100
G1 X-43.527 Y-11.409 Z2.500 E0.42852 F2100
G1 X-43.473 Y-11.648 Z2.500 E0.06126 F2100
G1 X-42.985 Y-13.296 Z2.500 E0.42857 F2100
G1 X-42.912 Y-13.530 Z2.500 E0.06120 F2100
G1 X-42.365 Y-15.159 Z2.500 E0.42850 F2100
G1 X-42.291 Y-15.393 Z2.500 E0.06125 F2100
G1 X-41.664 Y-16.992 Z2.500 E0.42858 F2100
G1 X-41.571 Y-17.219 Z2.500 E0.06121 F2100
G1 X-40.882 Y-18.793 Z2.500 E0.42850 F2100
G1 X-40.787 Y-19.019 Z2.500 E0.06125 F2100
G1 X-40.026 Y-20.559 Z2.500 E0.42856 F2100
G1 X-39.913 Y-20.777 Z2.500 E0.06121 F2100
G1 X-39.087 Y-22.284 Z2.500 E0.42852 F2100
G1 X-38.973 Y-22.501 Z2.500 E0.06125 F2100
G1 X-38.083 Y-23.970 Z2.500 E0.42856 F2100
G1 X-37.951 Y-24.178 Z2.500 E0.06121 F2100
G1 X-36.995 Y-25.605 Z2.500 E0.42851 F2100
G1 X-36.862 Y-25.811 Z2.500 E0.06125 F2100
G1 X-35.850 Y-27.199 Z2.500 E0.42857 F2100
G1 X-35.701 Y-27.394 Z2.500 E0.06121 F2100
G1 X-34.622 Y-28.731 Z2.500 E0.42850 F2100
G1 X-34.472 Y-28.925 Z2.500 E0.06125 F2100
G1 X-33.343 Y-30.221 Z2.500 E0.42857 F2100
G1 X-33.178 Y-30.402 Z2.500 E0.06121 F2100
G1 X-31.985 Y-31.638 Z2.500 E0.42852 F2100
G1 X-31.818 Y-31.818 Z2.500 E0.06124 F2100
G1 X-30.584 Y-33.013 Z2.500 E0.42856 F2100
G1 X-30.403 Y-33.179 Z2.500 E0.06121 F2100
G1 X-29.105 Y-34.305 Z2.500 E0.42854 F2100
G1 X-28.923 Y-34.469 Z2.500 E0.06124 F2100
G1 X-27.591 Y-35.554 Z2.500 E0.42855 F2100
G1 X-27.397 Y-35.704 Z2.500 E0.06121 F2100
G1 X-26.004 Y-36.710 Z2.500 E0.42854 F2100
G1 X-25.808 Y-36.858 Z2.500 E0.06124 F2100
G1 X-24.387 Y-37.824 Z2.500 E0.42855 F2100
G1 X-24.181 Y-37.957 Z2.500 E0.06122 F2100
G1 X-22.705 Y-38.836 Z2.500 E0.42854 F2100
G1 X-22.497 Y-38.966 Z2.500 E0.06123 F2100
G1 X-20.998 Y-39.806 Z2.500 E0.42857 F2100
G1 X-20.782 Y-39.921 Z2.500 E0.06122 F2100
G1 X-19.234 Y-40.666 Z2.500 E0.42855 F2100
G1 X-19.015 Y-40.777 Z2.500 E0.06123 F2100
G1 X-17.449 Y-41.485 Z2.500 E0.42856 F2100
G1 X-17.224 Y-41.582 Z2.500 E0.06122 F2100
G1 X-15.616 Y-42.187 Z2.500 E0.42857 F2100
G1 X-15.388 Y-42.279 Z2.500 E0.06123 F2100
G1 X-13.768 Y-42.849 Z2.500 E0.42856 F2100
G1 X-13.534 Y-42.925 Z2.500 E0.06122 F2100
G1 X-11.880 Y-43.387 Z2.500 E0.42857 F2100
G1 X-11.645 Y-43.458 Z2.500 E0.06122 F2100
G1 X-9.981 Y-43.886 Z2.500 E0.42857 F2100
G1 X-9.742 Y-43.943 Z2.500 E0.06123 F2100
G1 X-8.053 Y-44.257 Z2.500 E0.42857 F2100
G1 X-7.812 Y-44.307 Z2.500 E0.06121 F2100
G1 X-6.118 Y-44.589 Z2.500 E0.42857 F2100
G1 X-5.875 Y-44.625 Z2.500 E0.06123 F2100
G1 X-4.165 Y-44.790 Z2.500 E0.42858 F2100
G1 X-3.921 Y-44.818 Z2.500 E0.06121 F2100
G1 X-2.208 Y-44.953 Z2.500 E0.42857 F2100
G1 X-1.963 Y-44.968 Z2.500 E0.06123 F2100
G1 X-0.245 Y-44.983 Z2.500 E0.42859 F2100
G1 X0.000 Y-44.989 Z2.500 E0.06121 F2100
G1 X1.718 Y-44.974 Z2.500 E0.42856 F2100
G1 X1.963 Y-44.969 Z2.500 E0.06123 F2100
G1 X3.676 Y-44.833 Z2.500 E0.42859 F2100
G1 X3.921 Y-44.817 Z2.500 E0.06121 F2100
G1 X5.631 Y-44.653 Z2.500 E0.42856 F2100
G1 X5.875 Y-44.627 Z2.500 E0.06124 F2100
G1 X7.570 Y-44.342 Z2.500 E0.42859 F2100
G1 X7.812 Y-44.305 Z2.500 E0.06120 F2100
G1 X9.501 Y-43.992 Z2.500 E0.42856 F2100
G1 X9.742 Y-43.945 Z2.500 E0.06124 F2100
G1 X11.406 Y-43.514 Z2.500 E0.42860 F2100
G1 X11.644 Y-43.455 Z2.500 E0.06120 F2100
G1 X13.299 Y-42.996 Z2.500 E0.42855 F2100
G1 X13.535 Y-42.929 Z2.500 E0.06124 F2100
G1 X15.155 Y-42.355 Z2.500 E0.42859 F2100
G1 X15.387 Y-42.275 Z2.500 E0.06120 F2100
G1 X16.996 Y-41.673 Z2.500 E0.42856 F2100
G1 X17.225 Y-41.586 Z2.500 E0.06124 F2100
G1 X18.789 Y-40.874 Z2.500 E0.42859 F2100
G1 X19.013 Y-40.773 Z2.500 E0.06120 F2100
G1 X20.563 Y-40.033 Z2.500 E0.42855 F2100
G1 X20.784 Y-39.926 Z2.500 E0.06125 F2100
G1 X22.280 Y-39.081 Z2.500 E0.42860 F2100
G1 X22.494 Y-38.961 Z2.500 E0.06120 F2100
G1 X23.973 Y-38.087 Z2.500 E0.42854 F2100
G1 X24.184 Y-37.962 Z2.500 E0.06125 F2100
G1 X25.602 Y-36.991 Z2.500 E0.42858 F2100
G1 X25.805 Y-36.853 Z2.500 E0.06120 F2100
G1 X27.201 Y-35.852 Z2.500 E0.42854 F2100
G1 X27.401 Y-35.709 Z2.500 E0.06125 F2100
G1 X28.729 Y-34.620 Z2.500 E0.42858 F2100
G1 X28.919 Y-34.464 Z2.500 E0.06120 F2100
G1 X30.221 Y-33.344 Z2.500 E0.42854 F2100
G1 X30.408 Y-33.185 Z2.500 E0.06125 F2100
G1 X31.638 Y-31.985 Z2.500 E0.42858 F2100
G1 X31.813 Y-31.813 Z2.500 E0.06120 F2100
G1 X33.012 Y-30.582 Z2.500 E0.42852 F2100
G1 X33.184 Y-30.408 Z2.500 E0.06125 F2100
G1 X34.307 Y-29.107 Z2.500 E0.42859 F2100
G1 X34.465 Y-28.920 Z2.500 E0.06120 F2100
G1 X35.550 Y-27.588 Z2.500 E0.42851 F2100
G1 X35.707 Y-27.399 Z2.500 E0.06125 F2100
G1 X36.714 Y-26.007 Z2.500 E0.42858 F2100
G1 X36.856 Y-25.807 Z2.500 E0.06120 F2100
G1 X37.819 Y-24.384 Z2.500 E0.42851 F2100
G1 X37.958 Y-24.182 Z2.500 E0.06125 F2100
G1 X38.842 Y-22.709 Z2.500 E0.42857 F2100
G1 X38.966 Y-22.497 Z2.500 E0.06120 F2100
G1 X39.799 Y-20.995 Z2.500 E0.42852 F2100
G1 X39.921 Y-20.781 Z2.500 E0.06126 F2100
G1 X40.675 Y-19.238 Z2.500 E0.42857 F2100
G1 X40.779 Y-19.016 Z2.500 E0.06120 F2100
G1 X41.476 Y-17.445 Z2.500 E0.42850 F2100
G1 X41.579 Y-17.223 Z2.500 E0.06125 F2100
G1 X42.198 Y-15.620 Z2.500 E0.42858 F2100
G1 X42.283 Y-15.390 Z2.500 E0.06121 F2100
G1 X42.837 Y-13.764 Z2.500 E0.42850 F2100
G1 X42.920 Y-13.533 Z2.500 E0.06125 F2100
G1 X43.400 Y-11.883 Z2.500 E0.42856 F2100
G1 X43.464 Y-11.646 Z2.500 E0.06121 F2100
G1 X43.872 Y-9.978 Z2.500 E0.42852 F2100
G1 X43.935 Y-9.740 Z2.500 E0.06125 F2100
G1 X44.272 Y-8.055 Z2.500 E0.42856 F2100
G1 X44.315 Y-7.814 Z2.500 E0.06121 F2100
G1 X44.574 Y-6.116 Z2.500 E0.42852 F2100
G1 X44.615 Y-5.874 Z2.500 E0.06125 F2100
G1 X44.807 Y-4.166 Z2.500 E0.42856 F2100
G1 X44.829 Y-3.922 Z2.500 E0.06121 F2100
G1 X44.936 Y-2.208 Z2.500 E0.42852 F2100
G1 X44.956 Y-1.963 Z2.500 E0.06125 F2100
G1 X45.001 Y-0.245 Z2.500 E0.42856 F2100
G1 X45.002 Y0.000 Z2.500 E0.06121 F2100
G1 X44.956 Y1.717 Z2.500 E0.42852 F2100
G1 X44.955 Y1.963 Z2.500 E0.06124 F2100
G1 X44.852 Y3.678 Z2.500 E0.42856 F2100
G1 X44.832 Y3.922 Z2.500 E0.06122 F2100
G1 X44.634 Y5.629 Z2.500 E0.42853 F2100
G1 X44.611 Y5.873 Z2.500 E0.06124 F2100
G1 X44.362 Y7.573 Z2.500 E0.42856 F2100
G1 X44.320 Y7.815 Z2.500 E0.06122 F2100
G1 X43.973 Y9.497 Z2.500 E0.42854 F2100
G1 X43.929 Y9.739 Z2.500 E0.06124 F2100
G1 X43.534 Y11.411 Z2.500 E0.42857 F2100
G1 X43.472 Y11.648 Z2.500 E0.06122 F2100
G1 X42.977 Y13.293 Z2.500 E0.42854 F2100
G1 X42.911 Y13.530 Z2.500 E0.06123 F2100
G1 X42.374 Y15.162 Z2.500 E0.42855 F2100
G1 X42.292 Y15.393 Z2.500 E0.06122 F2100
G1 X41.654 Y16.988 Z2.500 E0.42856 F2100
G1 X41.568 Y17.218 Z2.500 E0.06123 F2100
G1 X40.892 Y18.798 Z2.500 E0.42856 F2100
G1 X40.791 Y19.021 Z2.500 E0.06122 F2100
G1 X40.014 Y20.554 Z2.500 E0.42856 F2100
G1 X39.908 Y20.775 Z2.500 E0.06122 F2100
G1 X39.099 Y22.290 Z2.500 E0.42857 F2100
G1 X38.979 Y22.504 Z2.500 E0.06123 F2100
G1 X38.070 Y23.963 Z2.500 E0.42857 F2100
G1 X37.945 Y24.174 Z2.500 E0.06122 F2100
G1 X37.008 Y25.613 Z2.500 E0.42856 F2100
G1 X36.870 Y25.816 Z2.500 E0.06123 F2100
G1 X35.837 Y27.189 Z2.500 E0.42858 F2100
G1 X35.693 Y27.388 Z2.500 E0.06122 F2100
G1 X34.635 Y28.742 Z2.500 E0.42855 F2100
G1 X34.480 Y28.932 Z2.500 E0.06123 F2100
G1 X33.330 Y30.209 Z2.500 E0.42859 F2100
G1 X33.170 Y30.394 Z2.500 E0.06121 F2100
G1 X31.998 Y31.651 Z2.500 E0.42856 F2100
G1 X31.828 Y31.828 Z2.500 E0.06123 F2100
G1 X30.571 Y32.999 Z2.500 E0.42858 F2100
G1 X30.394 Y33.169 Z2.500 E0.06121 F2100
G1 X29.118 Y34.319 Z2.500 E0.42857 F2100
G1 X28.933 Y34.481 Z2.500 E0.06124 F2100
G1 X27.578 Y35.538 Z2.500 E0.42858 F2100
G1 X27.387 Y35.692 Z2.500 E0.06120 F2100
G1 X26.016 Y36.726 Z2.500 E0.42857 F2100
G1 X25.818 Y36.871 Z2.500 E0.06124 F2100
G1 X24.376 Y37.807 Z2.500 E0.42859 F2100
G1 X24.172 Y37.943 Z2.500 E0.06120 F2100
G1 X22.716 Y38.854 Z2.500 E0.42856 F2100
G1 X22.506 Y38.981 Z2.500 E0.06124 F2100
G1 X20.989 Y39.788 Z2.500 E0.42860 F2100
G1 X20.773 Y39.905 Z2.500 E0.06120 F2100
G1 X19.243 Y40.685 Z2.500 E0.42855 F2100
G1 X19.023 Y40.795 Z2.500 E0.06124 F2100
G1 X17.441 Y41.466 Z2.500 E0.42859 F2100
G1 X17.216 Y41.564 Z2.500 E0.06120 F2100
G1 X15.623 Y42.207 Z2.500 E0.42856 F2100
G1 X15.395 Y42.297 Z2.500 E0.06125 F2100
G1 X13.761 Y42.829 Z2.500 E0.42859 F2100
G1 X13.528 Y42.906 Z2.500 E0.06120 F2100
G1 X11.885 Y43.407 Z2.500 E0.42854 F2100
G1 X11.650 Y43.478 Z2.500 E0.06125 F2100
G1 X9.976 Y43.866 Z2.500 E0.42860 F2100
G1 X9.737 Y43.922 Z2.500 E0.06120 F2100
G1 X8.056 Y44.277 Z2.500 E0.42854 F2100
G1 X7.816 Y44.327 Z2.500 E0.06125 F2100
G1 X6.115 Y44.570 Z2.500 E0.42859 F2100
G1 X5.872 Y44.604 Z2.500 E0.06120 F2100
G1 X4.167 Y44.809 Z2.500 E0.42853 F2100
G1 X3.923 Y44.839 Z2.500 E0.06125 F2100
G1 X2.207 Y44.934 Z2.500 E0.42859 F2100
G1 X1.962 Y44.947 Z2.500 E0.06120 F2100
G1 X0.245 Y45.001 Z2.500 E0.42853 F2100
G1 X-0.000 Y45.010 Z2.500 E0.06125 F2100
G1 X-1.717 Y44.957 Z2.500 E0.42858 F2100
G1 X-1.962 Y44.948 Z2.500 E0.06120 F2100
G1 X-3.678 Y44.850 Z2.500 E0.42852 F2100
G1 X-3.923 Y44.838 Z2.500 E0.06125 F2100
G1 X-5.629 Y44.637 Z2.500 E0.42858 F2100
G1 X-5.873 Y44.607 Z2.500 E0.06120 F2100
G1 X-7.572 Y44.357 Z2.500 E0.42852 F2100
G1 X-7.816 Y44.324 Z2.500 E0.06125 F2100
G1 X-9.498 Y43.978 Z2.500 E0.42857 F2100
G1 X-9.738 Y43.926 Z2.500 E0.06120 F2100
G1 X-11.409 Y43.527 Z2.500 E0.42852 F2100
G1 X-11.649 Y43.473 Z2.500 E0.06126 F2100
G1 X-13.296 Y42.984 Z2.500 E0.42857 F2100
G1 X-13.530 Y42.911 Z2.500 E0.06120 F2100
G1 X-15.159 Y42.366 Z2.500 E0.42850 F2100
G1 X-15.393 Y42.291 Z2.500 E0.06125 F2100
G1 X-16.992 Y41.663 Z2.500 E0.42858 F2100
G1 X-17.219 Y41.570 Z2.500 E0.06121 F2100
G1 X-18.793 Y40.882 Z2.500 E0.42850 F2100
G1 X-19.020 Y40.788 Z2.500 E0.06125 F2100
G1 X-20.559 Y40.025 Z2.500 E0.42857 F2100
G1 X-20.777 Y39.912 Z2.500 E0.06121 F2100
G1 X-22.284 Y39.088 Z2.500 E0.42851 F2100
G1 X-22.501 Y38.974 Z2.500 E0.06125 F2100
G1 X-23.970 Y38.082 Z2.500 E0.42856 F2100
G1 X-24.177 Y37.951 Z2.500 E0.06121 F2100
G1 X-25.605 Y36.996 Z2.500 E0.42851 F2100
G1 X-25.812 Y36.863 Z2.500 E0.06125 F2100
G1 X-27.199 Y35.849 Z2.500 E0.42857 F2100
G1 X-27.394 Y35.700 Z2.500 E0.06121 F2100
G1 X-28.731 Y34.622 Z2.500 E0.42850 F2100
G1 X-28.926 Y34.472 Z2.500 E0.06125 F2100
G1 X-30.220 Y33.343 Z2.500 E0.42857 F2100
G1 X-30.402 Y33.178 Z2.500 E0.06121 F2100
G1 X-31.639 Y31.986 Z2.500 E0.42852 F2100
G1 X-31.819 Y31.819 Z2.500 E0.06125 F2100
G1 X-33.012 Y30.583 Z2.500 E0.42856 F2100
G1 X-33.179 Y30.403 Z2.500 E0.06121 F2100
G1 X-34.305 Y29.106 Z2.500 E0.42854 F2100
G1 X-34.470 Y28.924 Z2.500 E0.06124 F2100
G1 X-35.553 Y27.590 Z2.500 E0.42855 F2100
G1 X-35.703 Y27.396 Z2.500 E0.06121 F2100
G1 X-36.710 Y26.004 Z2.500 E0.42854 F2100
G1 X-36.859 Y25.809 Z2.500 E0.06124 F2100
G1 X-37.823 Y24.387 Z2.500 E0.42855 F2100
G1 X-37.956 Y24.181 Z2.500 E0.06122 F2100
G1 X-38.836 Y22.705 Z2.500 E0.42854 F2100
G1 X-38.967 Y22.497 Z2.500 E0.06123 F2100
G1 X-39.806 Y20.998 Z2.500 E0.42857 F2100
G1 X-39.921 Y20.781 Z2.500 E0.06122 F2100
G1 X-40.666 Y19.234 Z2.500 E0.42855 F2100
G1 X-40.778 Y19.015 Z2.500 E0.06123 F2100
G1 X-41.485 Y17.449 Z2.500 E0.42856 F2100
G1 X-41.581 Y17.223 Z2.500 E0.06122 F2100
G1 X-42.187 Y15.616 Z2.500 E0.42857 F2100
G1 X-42.279 Y15.388 Z2.500 E0.06123 F2100
G1 X-42.849 Y13.767 Z2.500 E0.42856 F2100
G1 X-42.925 Y13.534 Z2.500 E0.06122 F2100
G1 X-43.387 Y11.880 Z2.500 E0.42856 F2100
G1 X-43.458 Y11.645 Z2.500 E0.06122 F2100
G1 X-43.886 Y9.981 Z2.500 E0.42857 F2100
G1 X-43.942 Y9.742 Z2.500 E0.06123 F2100
G1 X-44.257 Y8.053 Z2.500 E0.42857 F2100
G1 X-44.307 Y7.813 Z2.500 E0.06122 F2100
G1 X-44.589 Y6.118 Z2.500 E0.42857 F2100
G1 X-44.625 Y5.875 Z2.500 E0.06123 F2100
G1 X-44.790 Y4.165 Z2.500 E0.42858 F2100
G1 X-44.819 Y3.921 Z2.500 E0.06121 F2100
G1 X-44.953 Y2.208 Z2.500 E0.42857 F2100
G1 X-44.968 Y1.963 Z2.500 E0.06123 F2100
G1 X-44.983 Y0.245 Z2.500 E0.42858 F2100

; Layer 5, Z=3.000mm, Diameter=127.3mm, Points=576, Amplitude factor=0.01
G1 X-45.013 Y-0.000 Z3.000 E0.13913 F2100
G1 X-44.958 Y-1.668 Z3.000 E0.41637 F2100
G1 X-44.945 Y-1.962 Z3.000 E0.07344 F2100
G1 X-44.853 Y-3.629 Z3.000 E0.41627 F2100
G1 X-44.841 Y-3.923 Z3.000 E0.07353 F2100
G1 X-44.643 Y-5.580 Z3.000 E0.41636 F2100
G1 X-44.604 Y-5.872 Z3.000 E0.07344 F2100
G1 X-44.364 Y-7.524 Z3.000 E0.41626 F2100
G1 X-44.326 Y-7.816 Z3.000 E0.07353 F2100
G1 X-43.989 Y-9.450 Z3.000 E0.41635 F2100
G1 X-43.924 Y-9.738 Z3.000 E0.07344 F2100
G1 X-43.538 Y-11.361 Z3.000 E0.41626 F2100
G1 X-43.475 Y-11.649 Z3.000 E0.07353 F2100
G1 X-43.000 Y-13.249 Z3.000 E0.41635 F2100
G1 X-42.910 Y-13.529 Z3.000 E0.07345 F2100
G1 X-42.380 Y-15.112 Z3.000 E0.41624 F2100
G1 X-42.293 Y-15.393 Z3.000 E0.07353 F2100
G1 X-41.683 Y-16.947 Z3.000 E0.41635 F2100
G1 X-41.569 Y-17.219 Z3.000 E0.07345 F2100
G1 X-40.900 Y-18.747 Z3.000 E0.41624 F2100
G1 X-40.788 Y-19.020 Z3.000 E0.07353 F2100
G1 X-40.049 Y-20.516 Z3.000 E0.41634 F2100
G1 X-39.912 Y-20.777 Z3.000 E0.07345 F2100
G1 X-39.109 Y-22.239 Z3.000 E0.41626 F2100
G1 X-38.974 Y-22.502 Z3.000 E0.07353 F2100
G1 X-38.110 Y-23.930 Z3.000 E0.41633 F2100
G1 X-37.951 Y-24.177 Z3.000 E0.07346 F2100
G1 X-37.020 Y-25.562 Z3.000 E0.41625 F2100
G1 X-36.863 Y-25.812 Z3.000 E0.07352 F2100
G1 X-35.881 Y-27.161 Z3.000 E0.41634 F2100
G1 X-35.701 Y-27.394 Z3.000 E0.07346 F2100
G1 X-34.650 Y-28.690 Z3.000 E0.41625 F2100
G1 X-34.471 Y-28.925 Z3.000 E0.07351 F2100
G1 X-33.379 Y-30.186 Z3.000 E0.41634 F2100
G1 X-33.179 Y-30.403 Z3.000 E0.07346 F2100
G1 X-32.016 Y-31.600 Z3.000 E0.41627 F2100
G1 X-31.818 Y-31.818 Z3.000 E0.07351 F2100
G1 X-30.622 Y-32.982 Z3.000 E0.41633 F2100
G1 X-30.404 Y-33.180 Z3.000 E0.07346 F2100
G1 X-29.139 Y-34.269 Z3.000 E0.41630 F2100
G1 X-28.922 Y-34.468 Z3.000 E0.07350 F2100
G1 X-27.632 Y-35.526 Z3.000 E0.41632 F2100
G1 X-27.398 Y-35.705 Z3.000 E0.07346 F2100
G1 X-26.041 Y-36.677 Z3.000 E0.41631 F2100
G1 X-25.807 Y-36.856 Z3.000 E0.07350 F2100
G1 X-24.431 Y-37.800 Z3.000 E0.41633 F2100
G1 X-24.183 Y-37.959 Z3.000 E0.07347 F2100
G1 X-22.745 Y-38.806 Z3.000 E0.41632 F2100
G1 X-22.496 Y-38.964 Z3.000 E0.07349 F2100
G1 X-21.044 Y-39.787 Z3.000 E0.41635 F2100
G1 X-20.783 Y-39.924 Z3.000 E0.07347 F2100
G1 X-19.275 Y-40.640 Z3.000 E0.41633 F2100
G1 X-19.014 Y-40.775 Z3.000 E0.07348 F2100
G1 X-17.496 Y-41.470 Z3.000 E0.41634 F2100
G1 X-17.225 Y-41.585 Z3.000 E0.07347 F2100
G1 X-15.660 Y-42.164 Z3.000 E0.41636 F2100
G1 X-15.387 Y-42.275 Z3.000 E0.07347 F2100
G1 X-13.816 Y-42.838 Z3.000 E0.41634 F2100
G1 X-13.536 Y-42.929 Z3.000 E0.07347 F2100
G1 X-11.925 Y-43.368 Z3.000 E0.41636 F2100
G1 X-11.644 Y-43.454 Z3.000 E0.07346 F2100
G1 X-10.030 Y-43.880 Z3.000 E0.41636 F2100
G1 X-9.743 Y-43.947 Z3.000 E0.07348 F2100
G1 X-8.100 Y-44.242 Z3.000 E0.41637 F2100
G1 X-7.812 Y-44.302 Z3.000 E0.07345 F2100
G1 X-6.167 Y-44.587 Z3.000 E0.41636 F2100
G1 X-5.876 Y-44.630 Z3.000 E0.07348 F2100
G1 X-4.213 Y-44.780 Z3.000 E0.41639 F2100
G1 X-3.921 Y-44.814 Z3.000 E0.07345 F2100
G1 X-2.258 Y-44.955 Z3.000 E0.41636 F2100
G1 X-1.964 Y-44.973 Z3.000 E0.07348 F2100
G1 X-0.294 Y-44.976 Z3.000 E0.41639 F2100
G1 X0.000 Y-44.984 Z3.000 E0.07344 F2100
G1 X1.669 Y-44.981 Z3.000 E0.41635 F2100
G1 X1.964 Y-44.974 Z3.000 E0.07349 F2100
G1 X3.627 Y-44.831 Z3.000 E0.41640 F2100
G1 X3.921 Y-44.812 Z3.000 E0.07344 F2100
G1 X5.583 Y-44.664 Z3.000 E0.41635 F2100
G1 X5.876 Y-44.632 Z3.000 E0.07349 F2100
G1 X7.520 Y-44.345 Z3.000 E0.41641 F2100
G1 X7.811 Y-44.300 Z3.000 E0.07343 F2100
G1 X9.454 Y-44.006 Z3.000 E0.41634 F2100
G1 X9.743 Y-43.950 Z3.000 E0.07350 F2100
G1 X11.357 Y-43.522 Z3.000 E0.41641 F2100
G1 X11.642 Y-43.450 Z3.000 E0.07343 F2100
G1 X13.254 Y-43.014 Z3.000 E0.41634 F2100
G1 X13.537 Y-42.934 Z3.000 E0.07350 F2100
G1 X15.107 Y-42.367 Z3.000 E0.41640 F2100
G1 X15.385 Y-42.270 Z3.000 E0.07343 F2100
G1 X16.952 Y-41.694 Z3.000 E0.41634 F2100
G1 X17.227 Y-41.590 Z3.000 E0.07351 F2100
G1 X18.743 Y-40.890 Z3.000 E0.41640 F2100
G1 X19.011 Y-40.769 Z3.000 E0.07343 F2100
G1 X20.520 Y-40.057 Z3.000 E0.41632 F2100
G1 X20.786 Y-39.930 Z3.000 E0.07351 F2100
G1 X22.236 Y-39.102 Z3.000 E0.41640 F2100
G1 X22.492 Y-38.957 Z3.000 E0.07343 F2100
G1 X23.933 Y-38.115 Z3.000 E0.41631 F2100
G1 X24.187 Y-37.966 Z3.000 E0.07352 F2100
G1 X25.560 Y-37.017 Z3.000 E0.41639 F2100
G1 X25.802 Y-36.849 Z3.000 E0.07343 F2100
G1 X27.163 Y-35.883 Z3.000 E0.41630 F2100
G1 X27.404 Y-35.713 Z3.000 E0.07352 F2100
G1 X28.690 Y-34.649 Z3.000 E0.41637 F2100
G1 X28.916 Y-34.461 Z3.000 E0.07343 F2100
G1 X30.186 Y-33.378 Z3.000 E0.41630 F2100
G1 X30.411 Y-33.188 Z3.000 E0.07353 F2100
G1 X31.602 Y-32.018 Z3.000 E0.41637 F2100
G1 X31.810 Y-31.810 Z3.000 E0.07343 F2100
G1 X32.979 Y-30.619 Z3.000 E0.41627 F2100
G1 X33.187 Y-30.410 Z3.000 E0.07353 F2100
G1 X34.274 Y-29.143 Z3.000 E0.41638 F2100
G1 X34.463 Y-28.918 Z3.000 E0.07344 F2100
G1 X35.520 Y-27.627 Z3.000 E0.41625 F2100
G1 X35.710 Y-27.401 Z3.000 E0.07353 F2100
G1 X36.685 Y-26.046 Z3.000 E0.41637 F2100
G1 X36.853 Y-25.805 Z3.000 E0.07344 F2100
G1 X37.791 Y-24.425 Z3.000 E0.41625 F2100
G1 X37.961 Y-24.184 Z3.000 E0.07353 F2100
G1 X38.817 Y-22.751 Z3.000 E0.41635 F2100
G1 X38.963 Y-22.495 Z3.000 E0.07344 F2100
G1 X39.774 Y-21.037 Z3.000 E0.41626 F2100
G1 X39.923 Y-20.783 Z3.000 E0.07353 F2100
G1 X40.654 Y-19.282 Z3.000 E0.41635 F2100
G1 X40.777 Y-19.015 Z3.000 E0.07345 F2100
G1 X41.455 Y-17.490 Z3.000 E0.41624 F2100
G1 X41.581 Y-17.223 Z3.000 E0.07353 F2100
G1 X42.182 Y-15.666 Z3.000 E0.41635 F2100
G1 X42.281 Y-15.389 Z3.000 E0.07345 F2100
G1 X42.820 Y-13.810 Z3.000 E0.41624 F2100
G1 X42.922 Y-13.533 Z3.000 E0.07353 F2100
G1 X43.388 Y-11.931 Z3.000 E0.41633 F2100
G1 X43.463 Y-11.646 Z3.000 E0.07345 F2100
G1 X43.858 Y-10.025 Z3.000 E0.41626 F2100
G1 X43.936 Y-9.740 Z3.000 E0.07353 F2100
G1 X44.265 Y-8.104 Z3.000 E0.41633 F2100
G1 X44.315 Y-7.814 Z3.000 E0.07346 F2100
G1 X44.563 Y-6.164 Z3.000 E0.41626 F2100
G1 X44.616 Y-5.874 Z3.000 E0.07352 F2100
G1 X44.805 Y-4.216 Z3.000 E0.41633 F2100
G1 X44.829 Y-3.922 Z3.000 E0.07346 F2100
G1 X44.929 Y-2.256 Z3.000 E0.41627 F2100
G1 X44.956 Y-1.963 Z3.000 E0.07351 F2100
G1 X45.003 Y-0.294 Z3.000 E0.41633 F2100
G1 X45.002 Y0.000 Z3.000 E0.07346 F2100
G1 X44.953 Y1.668 Z3.000 E0.41628 F2100
G1 X44.954 Y1.963 Z3.000 E0.07351 F2100
G1 X44.859 Y3.629 Z3.000 E0.41633 F2100
G1 X44.833 Y3.922 Z3.000 E0.07346 F2100
G1 X44.635 Y5.579 Z3.000 E0.41629 F2100
G1 X44.610 Y5.873 Z3.000 E0.07350 F2100
G1 X44.374 Y7.525 Z3.000 E0.41634 F2100
G1 X44.322 Y7.815 Z3.000 E0.07347 F2100
G1 X43.978 Y9.448 Z3.000 E0.41630 F2100
G1 X43.926 Y9.738 Z3.000 E0.07349 F2100
G1 X43.550 Y11.364 Z3.000 E0.41635 F2100
G1 X43.474 Y11.649 Z3.000 E0.07347 F2100
G1 X42.986 Y13.245 Z3.000 E0.41632 F2100
G1 X42.909 Y13.529 Z3.000 E0.07348 F2100
G1 X42.395 Y15.117 Z3.000 E0.41634 F2100
G1 X42.295 Y15.394 Z3.000 E0.07347 F2100
G1 X41.667 Y16.940 Z3.000 E0.41635 F2100
G1 X41.565 Y17.217 Z3.000 E0.07348 F2100
G1 X40.917 Y18.755 Z3.000 E0.41634 F2100
G1 X40.794 Y19.023 Z3.000 E0.07347 F2100
G1 X40.031 Y20.507 Z3.000 E0.41635 F2100
G1 X39.905 Y20.773 Z3.000 E0.07347 F2100
G1 X39.127 Y22.250 Z3.000 E0.41636 F2100
G1 X38.982 Y22.506 Z3.000 E0.07348 F2100
G1 X38.091 Y23.918 Z3.000 E0.41636 F2100
G1 X37.941 Y24.171 Z3.000 E0.07346 F2100
G1 X37.039 Y25.576 Z3.000 E0.41635 F2100
G1 X36.873 Y25.819 Z3.000 E0.07348 F2100
G1 X35.861 Y27.146 Z3.000 E0.41638 F2100
G1 X35.689 Y27.386 Z3.000 E0.07345 F2100
G1 X34.670 Y28.707 Z3.000 E0.41634 F2100
G1 X34.483 Y28.935 Z3.000 E0.07348 F2100
G1 X33.359 Y30.169 Z3.000 E0.41640 F2100
G1 X33.166 Y30.391 Z3.000 E0.07345 F2100
G1 X32.036 Y31.619 Z3.000 E0.41635 F2100
G1 X31.831 Y31.831 Z3.000 E0.07348 F2100
G1 X30.603 Y32.961 Z3.000 E0.41639 F2100
G1 X30.391 Y33.166 Z3.000 E0.07344 F2100
G1 X29.158 Y34.291 Z3.000 E0.41636 F2100
G1 X28.936 Y34.485 Z3.000 E0.07349 F2100
G1 X27.614 Y35.503 Z3.000 E0.41639 F2100
G1 X27.384 Y35.688 Z3.000 E0.07343 F2100
G1 X26.058 Y36.701 Z3.000 E0.41636 F2100
G1 X25.821 Y36.876 Z3.000 E0.07349 F2100
G1 X24.415 Y37.775 Z3.000 E0.41640 F2100
G1 X24.169 Y37.938 Z3.000 E0.07343 F2100
G1 X22.760 Y38.832 Z3.000 E0.41634 F2100
G1 X22.509 Y38.986 Z3.000 E0.07350 F2100
G1 X21.030 Y39.760 Z3.000 E0.41641 F2100
G1 X20.771 Y39.900 Z3.000 E0.07343 F2100
G1 X19.288 Y40.667 Z3.000 E0.41633 F2100
G1 X19.025 Y40.799 Z3.000 E0.07350 F2100
G1 X17.485 Y41.443 Z3.000 E0.41640 F2100
G1 X17.214 Y41.559 Z3.000 E0.07343 F2100
G1 X15.670 Y42.192 Z3.000 E0.41634 F2100
G1 X15.397 Y42.302 Z3.000 E0.07351 F2100
G1 X13.807 Y42.810 Z3.000 E0.41639 F2100
G1 X13.527 Y42.901 Z3.000 E0.07343 F2100
G1 X11.933 Y43.396 Z3.000 E0.41631 F2100
G1 X11.651 Y43.483 Z3.000 E0.07351 F2100
G1 X10.023 Y43.852 Z3.000 E0.41640 F2100
G1 X9.736 Y43.917 Z3.000 E0.07343 F2100
G1 X8.105 Y44.270 Z3.000 E0.41630 F2100
G1 X7.817 Y44.332 Z3.000 E0.07352 F2100
G1 X6.163 Y44.560 Z3.000 E0.41639 F2100
G1 X5.872 Y44.600 Z3.000 E0.07343 F2100
G1 X4.216 Y44.806 Z3.000 E0.41629 F2100
G1 X3.923 Y44.844 Z3.000 E0.07352 F2100
G1 X2.256 Y44.929 Z3.000 E0.41638 F2100
G1 X1.962 Y44.943 Z3.000 E0.07343 F2100
G1 X0.294 Y45.001 Z3.000 E0.41628 F2100
G1 X-0.000 Y45.014 Z3.000 E0.07352 F2100
G1 X-1.668 Y44.957 Z3.000 E0.41637 F2100
G1 X-1.962 Y44.944 Z3.000 E0.07343 F2100
G1 X-3.629 Y44.854 Z3.000 E0.41627 F2100
G1 X-3.923 Y44.841 Z3.000 E0.07353 F2100
G1 X-5.580 Y44.642 Z3.000 E0.41637 F2100
G1 X-5.872 Y44.603 Z3.000 E0.07344 F2100
G1 X-7.524 Y44.365 Z3.000 E0.41626 F2100
G1 X-7.816 Y44.327 Z3.000 E0.07353 F2100
G1 X-9.450 Y43.988 Z3.000 E0.41636 F2100
G1 X-9.738 Y43.923 Z3.000 E0.07344 F2100
G1 X-11.361 Y43.539 Z3.000 E0.41626 F2100
G1 X-11.649 Y43.476 Z3.000 E0.07353 F2100
G1 X-13.249 Y42.999 Z3.000 E0.41635 F2100
G1 X-13.529 Y42.909 Z3.000 E0.07344 F2100
G1 X-15.112 Y42.381 Z3.000 E0.41624 F2100
G1 X-15.394 Y42.294 Z3.000 E0.07353 F2100
G1 X-16.947 Y41.682 Z3.000 E0.41635 F2100
G1 X-17.218 Y41.568 Z3.000 E0.07345 F2100
G1 X-18.748 Y40.901 Z3.000 E0.41624 F2100
G1 X-19.020 Y40.789 Z3.000 E0.07353 F2100
G1 X-20.516 Y40.048 Z3.000 E0.41634 F2100
G1 X-20.776 Y39.911 Z3.000 E0.07345 F2100
G1 X-22.240 Y39.110 Z3.000 E0.41625 F2100
G1 X-22.502 Y38.975 Z3.000 E0.07353 F2100
G1 X-23.929 Y38.109 Z3.000 E0.41633 F2100
G1 X-24.177 Y37.950 Z3.000 E0.07345 F2100
G1 X-25.563 Y37.021 Z3.000 E0.41625 F2100
G1 X-25.812 Y36.864 Z3.000 E0.07352 F2100
G1 X-27.161 Y35.880 Z3.000 E0.41634 F2100
G1 X-27.394 Y35.700 Z3.000 E0.07346 F2100
G1 X-28.691 Y34.651 Z3.000 E0.41625 F2100
G1 X-28.926 Y34.472 Z3.000 E0.07352 F2100
G1 X-30.186 Y33.378 Z3.000 E0.41634 F2100
G1 X-30.402 Y33.178 Z3.000 E0.07346 F2100
G1 X-31.601 Y32.017 Z3.000 E0.41627 F2100
G1 X-31.819 Y31.819 Z3.000 E0.07351 F2100
G1 X-32.981 Y30.621 Z3.000 E0.41633 F2100
G1 X-33.179 Y30.403 Z3.000 E0.07346 F2100
G1 X-34.270 Y29.140 Z3.000 E0.41629 F2100
G1 X-34.469 Y28.923 Z3.000 E0.07351 F2100
G1 X-35.526 Y27.631 Z3.000 E0.41632 F2100
G1 X-35.705 Y27.397 Z3.000 E0.07346 F2100
G1 X-36.678 Y26.041 Z3.000 E0.41630 F2100
G1 X-36.857 Y25.808 Z3.000 E0.07350 F2100
G1 X-37.800 Y24.430 Z3.000 E0.41633 F2100
G1 X-37.958 Y24.182 Z3.000 E0.07347 F2100
G1 X-38.807 Y22.745 Z3.000 E0.41631 F2100
G1 X-38.965 Y22.496 Z3.000 E0.07349 F2100
G1 X-39.786 Y21.044 Z3.000 E0.41635 F2100
G1 X-39.923 Y20.783 Z3.000 E0.07347 F2100
G1 X-40.640 Y19.276 Z3.000 E0.41632 F2100
G1 X-40.776 Y19.014 Z3.000 E0.07348 F2100
G1 X-41.470 Y17.496 Z3.000 E0.41634 F2100
G1 X-41.584 Y17.225 Z3.000 E0.07347 F2100
G1 X-42.165 Y15.660 Z3.000 E0.41635 F2100
G1 X-42.276 Y15.387 Z3.000 E0.07348 F2100
G1 X-42.838 Y13.816 Z3.000 E0.41634 F2100
G1 X-42.928 Y13.535 Z3.000 E0.07347 F2100
G1 X-43.369 Y11.925 Z3.000 E0.41635 F2100
G1 X-43.455 Y11.644 Z3.000 E0.07347 F2100
G1 X-43.880 Y10.030 Z3.000 E0.41636 F2100
G1 X-43.946 Y9.743 Z3.000 E0.07348 F2100
G1 X-44.242 Y8.100 Z3.000 E0.41636 F2100
G1 X-44.303 Y7.812 Z3.000 E0.07346 F2100
G1 X-44.587 Y6.167 Z3.000 E0.41636 F2100
G1 X-44.629 Y5.876 Z3.000 E0.07348 F2100
G1 X-44.780 Y4.213 Z3.000 E0.41638 F2100
G1 X-44.814 Y3.921 Z3.000 E0.07345 F2100
G1 X-44.955 Y2.258 Z3.000 E0.41636 F2100
G1 X-44.972 Y1.964 Z3.000 E0.07348 F2100
G1 X-44.976 Y0.294 Z3.000 E0.41639 F2100

; Layer 6, Z=3.500mm, Diameter=127.3mm, Points=576, Amplitude factor=0.02
G1 X-45.000 Y0.000 Z3.500 E0.14485 F2100
G1 X-44.978 Y-1.620 Z3.500 E0.40411 F2100
G1 X-44.959 Y-1.963 Z3.500 E0.08572 F2100
G1 X-44.837 Y-3.578 Z3.500 E0.40403 F2100
G1 X-44.826 Y-3.922 Z3.500 E0.08579 F2100
G1 X-44.668 Y-5.534 Z3.500 E0.40412 F2100
G1 X-44.619 Y-5.874 Z3.500 E0.08572 F2100
G1 X-44.352 Y-7.472 Z3.500 E0.40405 F2100
G1 X-44.311 Y-7.813 Z3.500 E0.08578 F2100
G1 X-44.017 Y-9.406 Z3.500 E0.40412 F2100
G1 X-43.940 Y-9.741 Z3.500 E0.08572 F2100
G1 X-43.531 Y-11.309 Z3.500 E0.40408 F2100
G1 X-43.459 Y-11.645 Z3.500 E0.08577 F2100
G1 X-43.032 Y-13.208 Z3.500 E0.40413 F2100
G1 X-42.926 Y-13.535 Z3.500 E0.08572 F2100
G1 X-42.378 Y-15.059 Z3.500 E0.40409 F2100
G1 X-42.276 Y-15.387 Z3.500 E0.08575 F2100
G1 X-41.718 Y-16.908 Z3.500 E0.40415 F2100
G1 X-41.585 Y-17.225 Z3.500 E0.08573 F2100
G1 X-40.903 Y-18.695 Z3.500 E0.40411 F2100
G1 X-40.772 Y-19.012 Z3.500 E0.08574 F2100
G1 X-40.087 Y-20.480 Z3.500 E0.40415 F2100
G1 X-39.928 Y-20.785 Z3.500 E0.08573 F2100
G1 X-39.117 Y-22.188 Z3.500 E0.40415 F2100
G1 X-38.958 Y-22.493 Z3.500 E0.08572 F2100
G1 X-38.150 Y-23.897 Z3.500 E0.40416 F2100
G1 X-37.966 Y-24.187 Z3.500 E0.08573 F2100
G1 X-37.034 Y-25.512 Z3.500 E0.40416 F2100
G1 X-36.848 Y-25.801 Z3.500 E0.08571 F2100
G1 X-35.922 Y-27.131 Z3.500 E0.40417 F2100
G1 X-35.715 Y-27.405 Z3.500 E0.08573 F2100
G1 X-34.669 Y-28.643 Z3.500 E0.40418 F2100
G1 X-34.458 Y-28.913 Z3.500 E0.08569 F2100
G1 X-33.421 Y-30.159 Z3.500 E0.40418 F2100
G1 X-33.192 Y-30.415 Z3.500 E0.08574 F2100
G1 X-32.041 Y-31.555 Z3.500 E0.40421 F2100
G1 X-31.806 Y-31.806 Z3.500 E0.08568 F2100
G1 X-30.666 Y-32.957 Z3.500 E0.40417 F2100
G1 X-30.416 Y-33.193 Z3.500 E0.08574 F2100
G1 X-29.169 Y-34.228 Z3.500 E0.40424 F2100
G1 X-28.912 Y-34.456 Z3.500 E0.08568 F2100
G1 X-27.676 Y-35.504 Z3.500 E0.40415 F2100
G1 X-27.408 Y-35.718 Z3.500 E0.08574 F2100
G1 X-26.075 Y-36.640 Z3.500 E0.40425 F2100
G1 X-25.798 Y-36.843 Z3.500 E0.08567 F2100
G1 X-24.476 Y-37.781 Z3.500 E0.40416 F2100
G1 X-24.191 Y-37.972 Z3.500 E0.08575 F2100
G1 X-22.783 Y-38.774 Z3.500 E0.40425 F2100
G1 X-22.488 Y-38.951 Z3.500 E0.08566 F2100
G1 X-21.090 Y-39.769 Z3.500 E0.40416 F2100
G1 X-20.789 Y-39.936 Z3.500 E0.08576 F2100
G1 X-19.317 Y-40.613 Z3.500 E0.40425 F2100
G1 X-19.008 Y-40.763 Z3.500 E0.08566 F2100
G1 X-17.543 Y-41.455 Z3.500 E0.40413 F2100
G1 X-17.230 Y-41.596 Z3.500 E0.08577 F2100
G1 X-15.704 Y-42.143 Z3.500 E0.40426 F2100
G1 X-15.383 Y-42.264 Z3.500 E0.08566 F2100
G1 X-13.863 Y-42.825 Z3.500 E0.40412 F2100
G1 X-13.539 Y-42.940 Z3.500 E0.08577 F2100
G1 X-11.972 Y-43.353 Z3.500 E0.40424 F2100
G1 X-11.641 Y-43.444 Z3.500 E0.08565 F2100
G1 X-10.077 Y-43.868 Z3.500 E0.40411 F2100
G1 X-9.745 Y-43.956 Z3.500 E0.08579 F2100
G1 X-8.148 Y-44.233 Z3.500 E0.40423 F2100
G1 X-7.810 Y-44.294 Z3.500 E0.08566 F2100
G1 X-6.215 Y-44.578 Z3.500 E0.40409 F2100
G1 X-5.877 Y-44.637 Z3.500 E0.08579 F2100
G1 X-4.262 Y-44.777 Z3.500 E0.40422 F2100
G1 X-3.920 Y-44.807 Z3.500 E0.08566 F2100
G1 X-2.306 Y-44.948 Z3.500 E0.40407 F2100
G1 X-1.964 Y-44.978 Z3.500 E0.08580 F2100
G1 X-0.343 Y-44.981 Z3.500 E0.40421 F2100
G1 X0.000 Y-44.979 Z3.500 E0.08567 F2100
G1 X1.620 Y-44.975 Z3.500 E0.40405 F2100
G1 X1.964 Y-44.977 Z3.500 E0.08581 F2100
G1 X3.578 Y-44.842 Z3.500 E0.40419 F2100
G1 X3.920 Y-44.810 Z3.500 E0.08567 F2100
G1 X5.533 Y-44.661 Z3.500 E0.40403 F2100
G1 X5.876 Y-44.633 Z3.500 E0.08582 F2100
G1 X7.473 Y-44.362 Z3.500 E0.40417 F2100
G1 X7.811 Y-44.299 Z3.500 E0.08568 F2100
G1 X9.404 Y-44.006 Z3.500 E0.40401 F2100
G1 X9.743 Y-43.949 Z3.500 E0.08582 F2100
G1 X11.312 Y-43.544 Z3.500 E0.40416 F2100
G1 X11.643 Y-43.452 Z3.500 E0.08569 F2100
G1 X13.203 Y-43.016 Z3.500 E0.40400 F2100
G1 X13.536 Y-42.931 Z3.500 E0.08582 F2100
G1 X15.065 Y-42.395 Z3.500 E0.40413 F2100
G1 X15.386 Y-42.274 Z3.500 E0.08569 F2100
G1 X16.901 Y-41.699 Z3.500 E0.40400 F2100
G1 X17.225 Y-41.586 Z3.500 E0.08583 F2100
G1 X18.704 Y-40.923 Z3.500 E0.40412 F2100
G1 X19.013 Y-40.774 Z3.500 E0.08570 F2100
G1 X20.469 Y-40.065 Z3.500 E0.40399 F2100
G1 X20.783 Y-39.924 Z3.500 E0.08583 F2100
G1 X22.201 Y-39.140 Z3.500 E0.40412 F2100
G1 X22.496 Y-38.964 Z3.500 E0.08570 F2100
G1 X23.882 Y-38.127 Z3.500 E0.40399 F2100
G1 X24.182 Y-37.959 Z3.500 E0.08582 F2100
G1 X25.529 Y-37.058 Z3.500 E0.40411 F2100
G1 X25.807 Y-36.857 Z3.500 E0.08571 F2100
G1 X27.113 Y-35.898 Z3.500 E0.40400 F2100
G1 X27.397 Y-35.705 Z3.500 E0.08582 F2100
G1 X28.663 Y-34.694 Z3.500 E0.40410 F2100
G1 X28.923 Y-34.469 Z3.500 E0.08571 F2100
G1 X30.136 Y-33.396 Z3.500 E0.40401 F2100
G1 X30.403 Y-33.179 Z3.500 E0.08581 F2100
G1 X31.580 Y-32.066 Z3.500 E0.40410 F2100
G1 X31.819 Y-31.819 Z3.500 E0.08572 F2100
G1 X32.931 Y-30.641 Z3.500 E0.40401 F2100
G1 X33.177 Y-30.401 Z3.500 E0.08580 F2100
G1 X34.256 Y-29.193 Z3.500 E0.40412 F2100
G1 X34.473 Y-28.927 Z3.500 E0.08572 F2100
G1 X35.474 Y-27.653 Z3.500 E0.40402 F2100
G1 X35.698 Y-27.392 Z3.500 E0.08579 F2100
G1 X36.671 Y-26.097 Z3.500 E0.40412 F2100
G1 X36.866 Y-25.814 Z3.500 E0.08572 F2100
G1 X37.748 Y-24.455 Z3.500 E0.40404 F2100
G1 X37.948 Y-24.175 Z3.500 E0.08578 F2100
G1 X38.808 Y-22.803 Z3.500 E0.40412 F2100
G1 X38.977 Y-22.504 Z3.500 E0.08572 F2100
G1 X39.734 Y-21.071 Z3.500 E0.40408 F2100
G1 X39.908 Y-20.775 Z3.500 E0.08576 F2100
G1 X40.649 Y-19.334 Z3.500 E0.40413 F2100
G1 X40.793 Y-19.022 Z3.500 E0.08573 F2100
G1 X41.418 Y-17.527 Z3.500 E0.40409 F2100
G1 X41.564 Y-17.217 Z3.500 E0.08575 F2100
G1 X42.181 Y-15.718 Z3.500 E0.40415 F2100
G1 X42.298 Y-15.395 Z3.500 E0.08573 F2100
G1 X42.787 Y-13.851 Z3.500 E0.40412 F2100
G1 X42.905 Y-13.528 Z3.500 E0.08573 F2100
G1 X43.392 Y-11.983 Z3.500 E0.40415 F2100
G1 X43.481 Y-11.651 Z3.500 E0.08573 F2100
G1 X43.830 Y-10.069 Z3.500 E0.40416 F2100
G1 X43.918 Y-9.736 Z3.500 E0.08572 F2100
G1 X44.272 Y-8.155 Z3.500 E0.40416 F2100
G1 X44.332 Y-7.817 Z3.500 E0.08573 F2100
G1 X44.540 Y-6.210 Z3.500 E0.40418 F2100
G1 X44.598 Y-5.871 Z3.500 E0.08571 F2100
G1 X44.814 Y-4.266 Z3.500 E0.40417 F2100
G1 X44.847 Y-3.924 Z3.500 E0.08573 F2100
G1 X44.911 Y-2.305 Z3.500 E0.40420 F2100
G1 X44.938 Y-1.962 Z3.500 E0.08569 F2100
G1 X45.016 Y-0.344 Z3.500 E0.40417 F2100
G1 X45.020 Y0.000 Z3.500 E0.08574 F2100
G1 X44.941 Y1.619 Z3.500 E0.40422 F2100
G1 X44.937 Y1.962 Z3.500 E0.08568 F2100
G1 X44.875 Y3.581 Z3.500 E0.40417 F2100
G1 X44.850 Y3.924 Z3.500 E0.08574 F2100
G1 X44.629 Y5.529 Z3.500 E0.40423 F2100
G1 X44.594 Y5.871 Z3.500 E0.08567 F2100
G1 X44.391 Y7.478 Z3.500 E0.40417 F2100
G1 X44.338 Y7.818 Z3.500 E0.08575 F2100
G1 X43.978 Y9.398 Z3.500 E0.40424 F2100
G1 X43.911 Y9.735 Z3.500 E0.08566 F2100
G1 X43.570 Y11.319 Z3.500 E0.40417 F2100
G1 X43.489 Y11.653 Z3.500 E0.08575 F2100
G1 X42.993 Y13.196 Z3.500 E0.40425 F2100
G1 X42.895 Y13.525 Z3.500 E0.08566 F2100
G1 X42.417 Y15.073 Z3.500 E0.40414 F2100
G1 X42.308 Y15.399 Z3.500 E0.08576 F2100
G1 X41.680 Y16.893 Z3.500 E0.40426 F2100
G1 X41.553 Y17.212 Z3.500 E0.08566 F2100
G1 X40.940 Y18.712 Z3.500 E0.40413 F2100
G1 X40.805 Y19.028 Z3.500 E0.08577 F2100
G1 X40.050 Y20.462 Z3.500 E0.40425 F2100
G1 X39.895 Y20.768 Z3.500 E0.08565 F2100
G1 X39.152 Y22.208 Z3.500 E0.40413 F2100
G1 X38.991 Y22.512 Z3.500 E0.08578 F2100
G1 X38.116 Y23.875 Z3.500 E0.40424 F2100
G1 X37.933 Y24.166 Z3.500 E0.08566 F2100
G1 X37.066 Y25.535 Z3.500 E0.40410 F2100
G1 X36.880 Y25.824 Z3.500 E0.08578 F2100
G1 X35.892 Y27.108 Z3.500 E0.40424 F2100
G1 X35.683 Y27.381 Z3.500 E0.08566 F2100
G1 X34.698 Y28.667 Z3.500 E0.40407 F2100
G1 X34.489 Y28.940 Z3.500 E0.08579 F2100
G1 X33.394 Y30.134 Z3.500 E0.40423 F2100
G1 X33.162 Y30.387 Z3.500 E0.08566 F2100
G1 X32.066 Y31.580 Z3.500 E0.40406 F2100
G1 X31.835 Y31.835 Z3.500 E0.08580 F2100
G1 X30.642 Y32.932 Z3.500 E0.40420 F2100
G1 X30.388 Y33.163 Z3.500 E0.08567 F2100
G1 X29.190 Y34.253 Z3.500 E0.40406 F2100
G1 X28.938 Y34.487 Z3.500 E0.08581 F2100
G1 X27.657 Y35.479 Z3.500 E0.40417 F2100
G1 X27.383 Y35.686 Z3.500 E0.08567 F2100
G1 X26.092 Y36.665 Z3.500 E0.40404 F2100
G1 X25.821 Y36.876 Z3.500 E0.08582 F2100
G1 X24.461 Y37.756 Z3.500 E0.40416 F2100
G1 X24.169 Y37.938 Z3.500 E0.08568 F2100
G1 X22.796 Y38.797 Z3.500 E0.40401 F2100
G1 X22.508 Y38.985 Z3.500 E0.08582 F2100
G1 X21.078 Y39.747 Z3.500 E0.40416 F2100
G1 X20.772 Y39.902 Z3.500 E0.08569 F2100
G1 X19.327 Y40.634 Z3.500 E0.40400 F2100
G1 X19.024 Y40.796 Z3.500 E0.08582 F2100
G1 X17.535 Y41.435 Z3.500 E0.40413 F2100
G1 X17.216 Y41.563 Z3.500 E0.08569 F2100
G1 X15.711 Y42.161 Z3.500 E0.40400 F2100
G1 X15.395 Y42.297 Z3.500 E0.08583 F2100
G1 X13.858 Y42.808 Z3.500 E0.40412 F2100
G1 X13.529 Y42.907 Z3.500 E0.08570 F2100
G1 X11.976 Y43.368 Z3.500 E0.40398 F2100
G1 X11.649 Y43.476 Z3.500 E0.08582 F2100
G1 X10.075 Y43.856 Z3.500 E0.40412 F2100
G1 X9.738 Y43.925 Z3.500 E0.08571 F2100
G1 X8.150 Y44.244 Z3.500 E0.40398 F2100
G1 X7.815 Y44.323 Z3.500 E0.08582 F2100
G1 X6.214 Y44.570 Z3.500 E0.40411 F2100
G1 X5.873 Y44.610 Z3.500 E0.08571 F2100
G1 X4.263 Y44.783 Z3.500 E0.40399 F2100
G1 X3.922 Y44.833 Z3.500 E0.08582 F2100
G1 X2.306 Y44.944 Z3.500 E0.40411 F2100
G1 X1.963 Y44.954 Z3.500 E0.08571 F2100
G1 X0.343 Y44.982 Z3.500 E0.40400 F2100
G1 X-0.000 Y45.001 Z3.500 E0.08581 F2100
G1 X-1.620 Y44.977 Z3.500 E0.40411 F2100
G1 X-1.963 Y44.957 Z3.500 E0.08572 F2100
G1 X-3.578 Y44.838 Z3.500 E0.40402 F2100
G1 X-3.922 Y44.828 Z3.500 E0.08580 F2100
G1 X-5.534 Y44.666 Z3.500 E0.40411 F2100
G1 X-5.874 Y44.618 Z3.500 E0.08572 F2100
G1 X-7.472 Y44.354 Z3.500 E0.40404 F2100
G1 X-7.813 Y44.312 Z3.500 E0.08579 F2100
G1 X-9.406 Y44.016 Z3.500 E0.40411 F2100
G1 X-9.741 Y43.938 Z3.500 E0.08572 F2100
G1 X-11.309 Y43.532 Z3.500 E0.40406 F2100
G1 X-11.645 Y43.460 Z3.500 E0.08578 F2100
G1 X-13.207 Y43.031 Z3.500 E0.40412 F2100
G1 X-13.534 Y42.925 Z3.500 E0.08572 F2100
G1 X-15.059 Y42.379 Z3.500 E0.40407 F2100
G1 X-15.388 Y42.278 Z3.500 E0.08576 F2100
G1 X-16.908 Y41.717 Z3.500 E0.40414 F2100
G1 X-17.225 Y41.584 Z3.500 E0.08573 F2100
G1 X-18.695 Y40.904 Z3.500 E0.40410 F2100
G1 X-19.013 Y40.773 Z3.500 E0.08574 F2100
G1 X-20.480 Y40.086 Z3.500 E0.40414 F2100
G1 X-20.785 Y39.927 Z3.500 E0.08573 F2100
G1 X-22.188 Y39.118 Z3.500 E0.40414 F2100
G1 X-22.493 Y38.959 Z3.500 E0.08573 F2100
G1 X-23.896 Y38.150 Z3.500 E0.40415 F2100
G1 X-24.186 Y37.965 Z3.500 E0.08573 F2100
G1 X-25.512 Y37.034 Z3.500 E0.40415 F2100
G1 X-25.802 Y36.849 Z3.500 E0.08572 F2100
G1 X-27.131 Y35.922 Z3.500 E0.40417 F2100
G1 X-27.405 Y35.714 Z3.500 E0.08573 F2100
G1 X-28.643 Y34.669 Z3.500 E0.40417 F2100
G1 X-28.914 Y34.458 Z3.500 E0.08570 F2100
G1 X-30.159 Y33.421 Z3.500 E0.40418 F2100
G1 X-30.414 Y33.191 Z3.500 E0.08574 F2100
G1 X-31.555 Y32.041 Z3.500 E0.40420 F2100
G1 X-31.806 Y31.806 Z3.500 E0.08569 F2100
G1 X-32.957 Y30.666 Z3.500 E0.40417 F2100
G1 X-33.192 Y30.415 Z3.500 E0.08574 F2100
G1 X-34.228 Y29.169 Z3.500 E0.40423 F2100
G1 X-34.456 Y28.912 Z3.500 E0.08568 F2100
G1 X-35.504 Y27.677 Z3.500 E0.40416 F2100
G1 X-35.718 Y27.407 Z3.500 E0.08574 F2100
G1 X-36.640 Y26.075 Z3.500 E0.40424 F2100
G1 X-36.844 Y25.798 Z3.500 E0.08567 F2100
G1 X-37.781 Y24.477 Z3.500 E0.40416 F2100
G1 X-37.971 Y24.190 Z3.500 E0.08575 F2100
G1 X-38.773 Y22.782 Z3.500 E0.40425 F2100
G1 X-38.951 Y22.489 Z3.500 E0.08566 F2100
G1 X-39.770 Y21.090 Z3.500 E0.40416 F2100
G1 X-39.936 Y20.789 Z3.500 E0.08576 F2100
G1 X-40.612 Y19.317 Z3.500 E0.40425 F2100
G1 X-40.763 Y19.008 Z3.500 E0.08566 F2100
G1 X-41.456 Y17.543 Z3.500 E0.40414 F2100
G1 X-41.596 Y17.230 Z3.500 E0.08576 F2100
G1 X-42.143 Y15.704 Z3.500 E0.40426 F2100
G1 X-42.264 Y15.383 Z3.500 E0.08566 F2100
G1 X-42.826 Y13.863 Z3.500 E0.40413 F2100
G1 X-42.940 Y13.539 Z3.500 E0.08577 F2100
G1 X-43.352 Y11.972 Z3.500 E0.40425 F2100
G1 X-43.444 Y11.641 Z3.500 E0.08565 F2100
G1 X-43.869 Y10.078 Z3.500 E0.40412 F2100
G1 X-43.956 Y9.745 Z3.500 E0.08578 F2100
G1 X-44.232 Y8.148 Z3.500 E0.40424 F2100
G1 X-44.294 Y7.810 Z3.500 E0.08566 F2100
G1 X-44.579 Y6.216 Z3.500 E0.40410 F2100
G1 X-44.637 Y5.877 Z3.500 E0.08579 F2100
G1 X-44.776 Y4.262 Z3.500 E0.40423 F2100
G1 X-44.807 Y3.920 Z3.500 E0.08566 F2100
G1 X-44.949 Y2.306 Z3.500 E0.40408 F2100
G1 X-44.979 Y1.964 Z3.500 E0.08580 F2100
G1 X-44.979 Y0.343 Z3.500 E0.40421 F2100

; Layer 7, Z=4.000mm, Diameter=127.3mm, Points=576, Amplitude factor=0.02
G1 X-45.000 Y0.000 Z4.000 E0.15140 F2100
G1 X-44.985 Y-1.571 Z4.000 E0.39190 F2100
G1 X-44.959 Y-1.963 Z4.000 E0.09799 F2100
G1 X-44.834 Y-3.529 Z4.000 E0.39179 F2100
G1 X-44.825 Y-3.922 Z4.000 E0.09809 F2100
G1 X-44.679 Y-5.486 Z4.000 E0.39191 F2100
G1 X-44.620 Y-5.874 Z4.000 E0.09800 F2100
G1 X-44.353 Y-7.422 Z4.000 E0.39182 F2100
G1 X-44.309 Y-7.813 Z4.000 E0.09807 F2100
G1 X-44.033 Y-9.360 Z4.000 E0.39192 F2100
G1 X-43.942 Y-9.742 Z4.000 E0.09799 F2100
G1 X-43.536 Y-11.259 Z4.000 E0.39187 F2100
G1 X-43.457 Y-11.644 Z4.000 E0.09805 F2100
G1 X-43.052 Y-13.162 Z4.000 E0.39194 F2100
G1 X-42.929 Y-13.535 Z4.000 E0.09799 F2100
G1 X-42.387 Y-15.010 Z4.000 E0.39190 F2100
G1 X-42.273 Y-15.386 Z4.000 E0.09802 F2100
G1 X-41.743 Y-16.865 Z4.000 E0.39197 F2100
G1 X-41.589 Y-17.227 Z4.000 E0.09800 F2100
G1 X-40.916 Y-18.647 Z4.000 E0.39194 F2100
G1 X-40.769 Y-19.011 Z4.000 E0.09800 F2100
G1 X-40.115 Y-20.440 Z4.000 E0.39198 F2100
G1 X-39.932 Y-20.787 Z4.000 E0.09799 F2100
G1 X-39.134 Y-22.141 Z4.000 E0.39199 F2100
G1 X-38.954 Y-22.490 Z4.000 E0.09797 F2100
G1 X-38.182 Y-23.859 Z4.000 E0.39199 F2100
G1 X-37.970 Y-24.190 Z4.000 E0.09799 F2100
G1 X-37.055 Y-25.467 Z4.000 E0.39202 F2100
G1 X-36.844 Y-25.798 Z4.000 E0.09795 F2100
G1 X-35.957 Y-27.096 Z4.000 E0.39201 F2100
G1 X-35.719 Y-27.408 Z4.000 E0.09800 F2100
G1 X-34.694 Y-28.600 Z4.000 E0.39205 F2100
G1 X-34.453 Y-28.910 Z4.000 E0.09793 F2100
G1 X-33.459 Y-30.127 Z4.000 E0.39202 F2100
G1 X-33.196 Y-30.419 Z4.000 E0.09800 F2100
G1 X-32.070 Y-31.515 Z4.000 E0.39209 F2100
G1 X-31.801 Y-31.801 Z4.000 E0.09791 F2100
G1 X-30.706 Y-32.928 Z4.000 E0.39201 F2100
G1 X-30.420 Y-33.198 Z4.000 E0.09800 F2100
G1 X-29.201 Y-34.190 Z4.000 E0.39213 F2100
G1 X-28.907 Y-34.451 Z4.000 E0.09790 F2100
G1 X-27.719 Y-35.478 Z4.000 E0.39200 F2100
G1 X-27.412 Y-35.724 Z4.000 E0.09801 F2100
G1 X-26.111 Y-36.606 Z4.000 E0.39214 F2100
G1 X-25.794 Y-36.838 Z4.000 E0.09789 F2100
G1 X-24.521 Y-37.758 Z4.000 E0.39200 F2100
G1 X-24.194 Y-37.978 Z4.000 E0.09802 F2100
G1 X-22.822 Y-38.743 Z4.000 E0.39214 F2100
G1 X-22.485 Y-38.945 Z4.000 E0.09788 F2100
G1 X-21.136 Y-39.751 Z4.000 E0.39199 F2100
G1 X-20.793 Y-39.942 Z4.000 E0.09803 F2100
G1 X-19.359 Y-40.586 Z4.000 E0.39214 F2100
G1 X-19.005 Y-40.756 Z4.000 E0.09788 F2100
G1 X-17.590 Y-41.440 Z4.000 E0.39196 F2100
G1 X-17.233 Y-41.603 Z4.000 E0.09804 F2100
G1 X-15.748 Y-42.121 Z4.000 E0.39214 F2100
G1 X-15.380 Y-42.257 Z4.000 E0.09788 F2100
G1 X-13.911 Y-42.813 Z4.000 E0.39194 F2100
G1 X-13.541 Y-42.946 Z4.000 E0.09806 F2100
G1 X-12.018 Y-43.336 Z4.000 E0.39212 F2100
G1 X-11.639 Y-43.437 Z4.000 E0.09788 F2100
G1 X-10.126 Y-43.860 Z4.000 E0.39192 F2100
G1 X-9.746 Y-43.963 Z4.000 E0.09808 F2100
G1 X-8.196 Y-44.221 Z4.000 E0.39210 F2100
G1 X-7.809 Y-44.287 Z4.000 E0.09789 F2100
G1 X-6.264 Y-44.573 Z4.000 E0.39188 F2100
G1 X-5.877 Y-44.644 Z4.000 E0.09809 F2100
G1 X-4.311 Y-44.770 Z4.000 E0.39207 F2100
G1 X-3.920 Y-44.801 Z4.000 E0.09790 F2100
G1 X-2.355 Y-44.946 Z4.000 E0.39185 F2100
G1 X-1.964 Y-44.985 Z4.000 E0.09810 F2100
G1 X-0.392 Y-44.978 Z4.000 E0.39205 F2100
G1 X0.000 Y-44.973 Z4.000 E0.09791 F2100
G1 X1.571 Y-44.978 Z4.000 E0.39182 F2100
G1 X1.964 Y-44.983 Z4.000 E0.09812 F2100
G1 X3.529 Y-44.844 Z4.000 E0.39202 F2100
G1 X3.920 Y-44.804 Z4.000 E0.09792 F2100
G1 X5.484 Y-44.666 Z4.000 E0.39179 F2100
G1 X5.877 Y-44.639 Z4.000 E0.09813 F2100
G1 X7.425 Y-44.369 Z4.000 E0.39199 F2100
G1 X7.810 Y-44.294 Z4.000 E0.09793 F2100
G1 X9.356 Y-44.015 Z4.000 E0.39176 F2100
G1 X9.744 Y-43.954 Z4.000 E0.09814 F2100
G1 X11.265 Y-43.557 Z4.000 E0.39197 F2100
G1 X11.642 Y-43.447 Z4.000 E0.09795 F2100
G1 X13.155 Y-43.029 Z4.000 E0.39174 F2100
G1 X13.537 Y-42.935 Z4.000 E0.09815 F2100
G1 X15.019 Y-42.413 Z4.000 E0.39193 F2100
G1 X15.385 Y-42.270 Z4.000 E0.09795 F2100
G1 X16.854 Y-41.715 Z4.000 E0.39173 F2100
G1 X17.227 Y-41.589 Z4.000 E0.09815 F2100
G1 X18.660 Y-40.945 Z4.000 E0.39191 F2100
G1 X19.012 Y-40.771 Z4.000 E0.09796 F2100
G1 X20.424 Y-40.084 Z4.000 E0.39172 F2100
G1 X20.785 Y-39.927 Z4.000 E0.09815 F2100
G1 X22.159 Y-39.166 Z4.000 E0.39191 F2100
G1 X22.494 Y-38.961 Z4.000 E0.09798 F2100
G1 X23.838 Y-38.149 Z4.000 E0.39172 F2100
G1 X24.184 Y-37.961 Z4.000 E0.09814 F2100
G1 X25.490 Y-37.089 Z4.000 E0.39189 F2100
G1 X25.806 Y-36.855 Z4.000 E0.09798 F2100
G1 X27.070 Y-35.923 Z4.000 E0.39173 F2100
G1 X27.398 Y-35.706 Z4.000 E0.09814 F2100
G1 X28.628 Y-34.728 Z4.000 E0.39188 F2100
G1 X28.923 Y-34.469 Z4.000 E0.09799 F2100
G1 X30.096 Y-33.425 Z4.000 E0.39175 F2100
G1 X30.403 Y-33.180 Z4.000 E0.09812 F2100
G1 X31.548 Y-32.103 Z4.000 E0.39189 F2100
G1 X31.819 Y-31.819 Z4.000 E0.09799 F2100
G1 X32.893 Y-30.673 Z4.000 E0.39176 F2100
G1 X33.177 Y-30.401 Z4.000 E0.09810 F2100
G1 X34.228 Y-29.233 Z4.000 E0.39191 F2100
G1 X34.474 Y-28.927 Z4.000 E0.09800 F2100
G1 X35.439 Y-27.688 Z4.000 E0.39178 F2100
G1 X35.697 Y-27.392 Z4.000 E0.09808 F2100
G1 X36.648 Y-26.141 Z4.000 E0.39192 F2100
G1 X36.867 Y-25.814 Z4.000 E0.09800 F2100
G1 X37.715 Y-24.492 Z4.000 E0.39182 F2100
G1 X37.946 Y-24.174 Z4.000 E0.09806 F2100
G1 X38.789 Y-22.848 Z4.000 E0.39193 F2100
G1 X38.979 Y-22.505 Z4.000 E0.09800 F2100
G1 X39.704 Y-21.111 Z4.000 E0.39187 F2100
G1 X39.906 Y-20.774 Z4.000 E0.09804 F2100
G1 X40.634 Y-19.381 Z4.000 E0.39194 F2100
G1 X40.795 Y-19.023 Z4.000 E0.09799 F2100
G1 X41.391 Y-17.570 Z4.000 E0.39191 F2100
G1 X41.561 Y-17.215 Z4.000 E0.09802 F2100
G1 X42.170 Y-15.767 Z4.000 E0.39197 F2100
G1 X42.301 Y-15.396 Z4.000 E0.09800 F2100
G1 X42.764 Y-13.895 Z4.000 E0.39195 F2100
G1 X42.901 Y-13.527 Z4.000 E0.09799 F2100
G1 X43.385 Y-12.032 Z4.000 E0.39198 F2100
G1 X43.485 Y-11.652 Z4.000 E0.09799 F2100
G1 X43.811 Y-10.115 Z4.000 E0.39200 F2100
G1 X43.914 Y-9.735 Z4.000 E0.09797 F2100
G1 X44.269 Y-8.205 Z4.000 E0.39199 F2100
G1 X44.337 Y-7.818 Z4.000 E0.09799 F2100
G1 X44.525 Y-6.258 Z4.000 E0.39204 F2100
G1 X44.593 Y-5.871 Z4.000 E0.09795 F2100
G1 X44.816 Y-4.315 Z4.000 E0.39201 F2100
G1 X44.852 Y-3.924 Z4.000 E0.09800 F2100
G1 X44.901 Y-2.353 Z4.000 E0.39207 F2100
G1 X44.932 Y-1.962 Z4.000 E0.09793 F2100
G1 X45.022 Y-0.393 Z4.000 E0.39201 F2100
G1 X45.026 Y0.000 Z4.000 E0.09800 F2100
G1 X44.935 Y1.569 Z4.000 E0.39210 F2100
G1 X44.930 Y1.962 Z4.000 E0.09791 F2100
G1 X44.885 Y3.533 Z4.000 E0.39202 F2100
G1 X44.856 Y3.924 Z4.000 E0.09801 F2100
G1 X44.628 Y5.480 Z4.000 E0.39212 F2100
G1 X44.587 Y5.870 Z4.000 E0.09790 F2100
G1 X44.405 Y7.431 Z4.000 E0.39201 F2100
G1 X44.345 Y7.819 Z4.000 E0.09801 F2100
G1 X43.982 Y9.349 Z4.000 E0.39213 F2100
G1 X43.905 Y9.733 Z4.000 E0.09789 F2100
G1 X43.587 Y11.273 Z4.000 E0.39201 F2100
G1 X43.496 Y11.655 Z4.000 E0.09802 F2100
G1 X43.001 Y13.147 Z4.000 E0.39214 F2100
G1 X42.888 Y13.523 Z4.000 E0.09788 F2100
G1 X42.438 Y15.028 Z4.000 E0.39198 F2100
G1 X42.315 Y15.401 Z4.000 E0.09803 F2100
G1 X41.693 Y16.845 Z4.000 E0.39215 F2100
G1 X41.546 Y17.209 Z4.000 E0.09788 F2100
G1 X40.965 Y18.669 Z4.000 E0.39196 F2100
G1 X40.812 Y19.031 Z4.000 E0.09805 F2100
G1 X40.068 Y20.416 Z4.000 E0.39213 F2100
G1 X39.888 Y20.765 Z4.000 E0.09788 F2100
G1 X39.180 Y22.167 Z4.000 E0.39194 F2100
G1 X38.997 Y22.515 Z4.000 E0.09806 F2100
G1 X38.138 Y23.831 Z4.000 E0.39211 F2100
G1 X37.927 Y24.162 Z4.000 E0.09788 F2100
G1 X37.096 Y25.496 Z4.000 E0.39190 F2100
G1 X36.886 Y25.828 Z4.000 E0.09808 F2100
G1 X35.918 Y27.066 Z4.000 E0.39210 F2100
G1 X35.678 Y27.376 Z4.000 E0.09789 F2100
G1 X34.731 Y28.630 Z4.000 E0.39186 F2100
G1 X34.494 Y28.944 Z4.000 E0.09809 F2100
G1 X33.425 Y30.096 Z4.000 E0.39208 F2100
G1 X33.157 Y30.383 Z4.000 E0.09790 F2100
G1 X32.101 Y31.546 Z4.000 E0.39184 F2100
G1 X31.839 Y31.839 Z4.000 E0.09811 F2100
G1 X30.677 Y32.897 Z4.000 E0.39204 F2100
G1 X30.384 Y33.158 Z4.000 E0.09791 F2100
G1 X29.228 Y34.221 Z4.000 E0.39182 F2100
G1 X28.942 Y34.492 Z4.000 E0.09812 F2100
G1 X27.695 Y35.448 Z4.000 E0.39200 F2100
G1 X27.379 Y35.681 Z4.000 E0.09792 F2100
G1 X26.132 Y36.636 Z4.000 E0.39179 F2100
G1 X25.824 Y36.881 Z4.000 E0.09813 F2100
G1 X24.502 Y37.729 Z4.000 E0.39198 F2100
G1 X24.167 Y37.934 Z4.000 E0.09793 F2100
G1 X22.838 Y38.771 Z4.000 E0.39175 F2100
G1 X22.510 Y38.989 Z4.000 E0.09814 F2100
G1 X21.122 Y39.724 Z4.000 E0.39196 F2100
G1 X20.770 Y39.898 Z4.000 E0.09795 F2100
G1 X19.370 Y40.611 Z4.000 E0.39173 F2100
G1 X19.026 Y40.800 Z4.000 E0.09815 F2100
G1 X17.581 Y41.417 Z4.000 E0.39193 F2100
G1 X17.214 Y41.559 Z4.000 E0.09796 F2100
G1 X15.756 Y42.141 Z4.000 E0.39173 F2100
G1 X15.396 Y42.301 Z4.000 E0.09815 F2100
G1 X13.905 Y42.795 Z4.000 E0.39190 F2100
G1 X13.528 Y42.904 Z4.000 E0.09797 F2100
G1 X12.022 Y43.351 Z4.000 E0.39171 F2100
G1 X11.650 Y43.478 Z4.000 E0.09815 F2100
G1 X10.123 Y43.848 Z4.000 E0.39191 F2100
G1 X9.737 Y43.923 Z4.000 E0.09798 F2100
G1 X8.198 Y44.230 Z4.000 E0.39171 F2100
G1 X7.816 Y44.325 Z4.000 E0.09814 F2100
G1 X6.263 Y44.567 Z4.000 E0.39189 F2100
G1 X5.873 Y44.608 Z4.000 E0.09798 F2100
G1 X4.311 Y44.773 Z4.000 E0.39173 F2100
G1 X3.922 Y44.834 Z4.000 E0.09813 F2100
G1 X2.355 Y44.946 Z4.000 E0.39189 F2100
G1 X1.963 Y44.953 Z4.000 E0.09799 F2100
G1 X0.392 Y44.975 Z4.000 E0.39174 F2100
G1 X-0.000 Y45.002 Z4.000 E0.09812 F2100
G1 X-1.571 Y44.983 Z4.000 E0.39189 F2100
G1 X-1.963 Y44.957 Z4.000 E0.09799 F2100
G1 X-3.529 Y44.836 Z4.000 E0.39177 F2100
G1 X-3.922 Y44.827 Z4.000 E0.09810 F2100
G1 X-5.486 Y44.678 Z4.000 E0.39190 F2100
G1 X-5.874 Y44.618 Z4.000 E0.09800 F2100
G1 X-7.423 Y44.355 Z4.000 E0.39180 F2100
G1 X-7.813 Y44.311 Z4.000 E0.09808 F2100
G1 X-9.359 Y44.032 Z4.000 E0.39191 F2100
G1 X-9.741 Y43.940 Z4.000 E0.09799 F2100
G1 X-11.259 Y43.537 Z4.000 E0.39185 F2100
G1 X-11.645 Y43.458 Z4.000 E0.09806 F2100
G1 X-13.162 Y43.051 Z4.000 E0.39193 F2100
G1 X-13.535 Y42.927 Z4.000 E0.09799 F2100
G1 X-15.010 Y42.388 Z4.000 E0.39187 F2100
G1 X-15.387 Y42.275 Z4.000 E0.09803 F2100
G1 X-16.865 Y41.742 Z4.000 E0.39196 F2100
G1 X-17.226 Y41.587 Z4.000 E0.09800 F2100
G1 X-18.647 Y40.917 Z4.000 E0.39192 F2100
G1 X-19.011 Y40.770 Z4.000 E0.09801 F2100
G1 X-20.439 Y40.114 Z4.000 E0.39197 F2100
G1 X-20.786 Y39.930 Z4.000 E0.09799 F2100
G1 X-22.141 Y39.135 Z4.000 E0.39197 F2100
G1 X-22.491 Y38.956 Z4.000 E0.09799 F2100
G1 X-23.858 Y38.181 Z4.000 E0.39198 F2100
G1 X-24.189 Y37.969 Z4.000 E0.09799 F2100
G1 X-25.467 Y37.055 Z4.000 E0.39200 F2100
G1 X-25.799 Y36.845 Z4.000 E0.09796 F2100
G1 X-27.096 Y35.957 Z4.000 E0.39201 F2100
G1 X-27.408 Y35.718 Z4.000 E0.09800 F2100
G1 X-28.600 Y34.694 Z4.000 E0.39203 F2100
G1 X-28.911 Y34.454 Z4.000 E0.09794 F2100
G1 X-30.127 Y33.459 Z4.000 E0.39202 F2100
G1 X-30.418 Y33.195 Z4.000 E0.09800 F2100
G1 X-31.515 Y32.070 Z4.000 E0.39207 F2100
G1 X-31.802 Y31.802 Z4.000 E0.09792 F2100
G1 X-32.928 Y30.706 Z4.000 E0.39201 F2100
G1 X-33.197 Y30.419 Z4.000 E0.09800 F2100
G1 X-34.190 Y29.201 Z4.000 E0.39211 F2100
G1 X-34.451 Y28.908 Z4.000 E0.09791 F2100
G1 X-35.479 Y27.719 Z4.000 E0.39200 F2100
G1 X-35.723 Y27.411 Z4.000 E0.09800 F2100
G1 X-36.605 Y26.110 Z4.000 E0.39213 F2100
G1 X-36.838 Y25.795 Z4.000 E0.09790 F2100
G1 X-37.759 Y24.521 Z4.000 E0.39200 F2100
G1 X-37.977 Y24.194 Z4.000 E0.09801 F2100
G1 X-38.743 Y22.821 Z4.000 E0.39214 F2100
G1 X-38.945 Y22.485 Z4.000 E0.09788 F2100
G1 X-39.751 Y21.136 Z4.000 E0.39200 F2100
G1 X-39.942 Y20.793 Z4.000 E0.09803 F2100
G1 X-40.586 Y19.358 Z4.000 E0.39214 F2100
G1 X-40.756 Y19.005 Z4.000 E0.09788 F2100
G1 X-41.441 Y17.590 Z4.000 E0.39198 F2100
G1 X-41.603 Y17.232 Z4.000 E0.09804 F2100
G1 X-42.120 Y15.748 Z4.000 E0.39215 F2100
G1 X-42.257 Y15.380 Z4.000 E0.09788 F2100
G1 X-42.814 Y13.911 Z4.000 E0.39195 F2100
G1 X-42.946 Y13.541 Z4.000 E0.09805 F2100
G1 X-43.334 Y12.018 Z4.000 E0.39213 F2100
G1 X-43.437 Y11.639 Z4.000 E0.09788 F2100
G1 X-43.861 Y10.126 Z4.000 E0.39194 F2100
G1 X-43.963 Y9.746 Z4.000 E0.09807 F2100
G1 X-44.219 Y8.196 Z4.000 E0.39211 F2100
G1 X-44.287 Y7.809 Z4.000 E0.09788 F2100
G1 X-44.575 Y6.264 Z4.000 E0.39190 F2100
G1 X-44.644 Y5.878 Z4.000 E0.09808 F2100
G1 X-44.768 Y4.311 Z4.000 E0.39209 F2100
G1 X-44.800 Y3.919 Z4.000 E0.09789 F2100
G1 X-44.948 Y2.356 Z4.000 E0.39187 F2100
G1 X-44.986 Y1.964 Z4.000 E0.09810 F2100
G1 X-44.976 Y0.392 Z4.000 E0.39206 F2100

; Layer 8, Z=4.500mm, Diameter=127.3mm, Points=576, Amplitude factor=0.03
G1 X-45.000 Y0.000 Z4.500 E0.15867 F2100
G1 X-44.993 Y-1.522 Z4.500 E0.37970 F2100
G1 X-44.959 Y-1.963 Z4.500 E0.11029 F2100
G1 X-44.830 Y-3.479 Z4.500 E0.37957 F2100
G1 X-44.824 Y-3.922 Z4.500 E0.11041 F2100
G1 X-44.692 Y-5.438 Z4.500 E0.37972 F2100
G1 X-44.622 Y-5.875 Z4.500 E0.11029 F2100
G1 X-44.353 Y-7.372 Z4.500 E0.37962 F2100
G1 X-44.308 Y-7.813 Z4.500 E0.11038 F2100
G1 X-44.051 Y-9.313 Z4.500 E0.37975 F2100
G1 X-43.944 Y-9.742 Z4.500 E0.11029 F2100
G1 X-43.539 Y-11.209 Z4.500 E0.37969 F2100
G1 X-43.454 Y-11.644 Z4.500 E0.11034 F2100
G1 X-43.074 Y-13.118 Z4.500 E0.37978 F2100
G1 X-42.932 Y-13.536 Z4.500 E0.11028 F2100
G1 X-42.395 Y-14.961 Z4.500 E0.37974 F2100
G1 X-42.270 Y-15.385 Z4.500 E0.11030 F2100
G1 X-41.768 Y-16.823 Z4.500 E0.37982 F2100
G1 X-41.592 Y-17.228 Z4.500 E0.11028 F2100
G1 X-40.928 Y-18.598 Z4.500 E0.37981 F2100
G1 X-40.765 Y-19.009 Z4.500 E0.11026 F2100
G1 X-40.144 Y-20.400 Z4.500 E0.37984 F2100
G1 X-39.936 Y-20.789 Z4.500 E0.11027 F2100
G1 X-39.150 Y-22.094 Z4.500 E0.37988 F2100
G1 X-38.950 Y-22.488 Z4.500 E0.11023 F2100
G1 X-38.214 Y-23.821 Z4.500 E0.37987 F2100
G1 X-37.975 Y-24.193 Z4.500 E0.11026 F2100
G1 X-37.075 Y-25.422 Z4.500 E0.37993 F2100
G1 X-36.839 Y-25.795 Z4.500 E0.11019 F2100
G1 X-35.993 Y-27.061 Z4.500 E0.37990 F2100
G1 X-35.724 Y-27.412 Z4.500 E0.11027 F2100
G1 X-34.719 Y-28.556 Z4.500 E0.37998 F2100
G1 X-34.448 Y-28.906 Z4.500 E0.11016 F2100
G1 X-33.497 Y-30.095 Z4.500 E0.37991 F2100
G1 X-33.201 Y-30.423 Z4.500 E0.11027 F2100
G1 X-32.098 Y-31.474 Z4.500 E0.38003 F2100
G1 X-31.796 Y-31.796 Z4.500 E0.11013 F2100
G1 X-30.747 Y-32.900 Z4.500 E0.37991 F2100
G1 X-30.425 Y-33.203 Z4.500 E0.11027 F2100
G1 X-29.233 Y-34.152 Z4.500 E0.38007 F2100
G1 X-28.903 Y-34.445 Z4.500 E0.11012 F2100
G1 X-27.761 Y-35.453 Z4.500 E0.37989 F2100
G1 X-27.416 Y-35.730 Z4.500 E0.11028 F2100
G1 X-26.146 Y-36.571 Z4.500 E0.38008 F2100
G1 X-25.790 Y-36.832 Z4.500 E0.11010 F2100
G1 X-24.565 Y-37.736 Z4.500 E0.37988 F2100
G1 X-24.199 Y-37.984 Z4.500 E0.11030 F2100
G1 X-22.860 Y-38.713 Z4.500 E0.38008 F2100
G1 X-22.481 Y-38.938 Z4.500 E0.11009 F2100
G1 X-21.181 Y-39.732 Z4.500 E0.37987 F2100
G1 X-20.796 Y-39.950 Z4.500 E0.11032 F2100
G1 X-19.400 Y-40.560 Z4.500 E0.38008 F2100
G1 X-19.001 Y-40.749 Z4.500 E0.11009 F2100
G1 X-17.637 Y-41.424 Z4.500 E0.37982 F2100
G1 X-17.236 Y-41.610 Z4.500 E0.11033 F2100
G1 X-15.793 Y-42.099 Z4.500 E0.38007 F2100
G1 X-15.378 Y-42.250 Z4.500 E0.11010 F2100
G1 X-13.959 Y-42.801 Z4.500 E0.37978 F2100
G1 X-13.543 Y-42.954 Z4.500 E0.11036 F2100
G1 X-12.064 Y-43.318 Z4.500 E0.38003 F2100
G1 X-11.637 Y-43.430 Z4.500 E0.11011 F2100
G1 X-10.174 Y-43.852 Z4.500 E0.37975 F2100
G1 X-9.748 Y-43.970 Z4.500 E0.11039 F2100
