; MeshVase Slicer - Klipper GCode Output
; Model: mesh
; Generated: 2025-12-02 22:46:31
; Nozzle: 1.0mm, Layer: 0.5mm
; Nozzle temp: 260°C, Bed: 65°C

; --- START GCODE ---
SET_GCODE_VARIABLE MACRO=START_PRINT VARIABLE=bed_temp VALUE=65
SET_GCODE_VARIABLE MACRO=START_PRINT VARIABLE=extruder_temp VALUE=260
START_PRINT

; Absolute positioning for X/Y/Z, relative for E
G90
M83

; --- PURGE LINE ---
; 10mm purge line to ensure good extrusion start
G1 X100.000 Y10.000 Z0.500 F2400
G1 X120.000 Y10.000 Z0.500 E4.98902 F2100

; Layer 0, Z=0.500mm, Diameter=127.3mm, Points=576, Amplitude factor=0.00
G1 X-45.000 Y0.000 Z0.500 E41.23494 F2100
G1 X-44.958 Y-1.914 Z0.500 E0.47751 F2100
G1 X-44.957 Y-1.963 Z0.500 E0.01224 F2100
G1 X-44.832 Y-3.873 Z0.500 E0.47751 F2100
G1 X-44.829 Y-3.922 Z0.500 E0.01224 F2100
G1 X-44.621 Y-5.825 Z0.500 E0.47752 F2100
G1 X-44.615 Y-5.874 Z0.500 E0.01224 F2100
G1 X-44.324 Y-7.766 Z0.500 E0.47751 F2100
G1 X-44.316 Y-7.814 Z0.500 E0.01224 F2100
G1 X-43.943 Y-9.692 Z0.500 E0.47751 F2100
G1 X-43.933 Y-9.740 Z0.500 E0.01224 F2100
G1 X-43.478 Y-11.599 Z0.500 E0.47752 F2100
G1 X-43.466 Y-11.647 Z0.500 E0.01224 F2100
G1 X-42.931 Y-13.485 Z0.500 E0.47751 F2100
G1 X-42.918 Y-13.532 Z0.500 E0.01224 F2100
G1 X-42.302 Y-15.344 Z0.500 E0.47750 F2100
G1 X-42.286 Y-15.391 Z0.500 E0.01224 F2100
G1 X-41.593 Y-17.175 Z0.500 E0.47753 F2100
G1 X-41.575 Y-17.221 Z0.500 E0.01224 F2100
G1 X-40.803 Y-18.973 Z0.500 E0.47750 F2100
G1 X-40.783 Y-19.018 Z0.500 E0.01224 F2100
G1 X-39.938 Y-20.735 Z0.500 E0.47751 F2100
G1 X-39.916 Y-20.779 Z0.500 E0.01224 F2100
G1 X-38.994 Y-22.457 Z0.500 E0.47752 F2100
G1 X-38.971 Y-22.500 Z0.500 E0.01224 F2100
G1 X-37.978 Y-24.137 Z0.500 E0.47751 F2100
G1 X-37.953 Y-24.179 Z0.500 E0.01224 F2100
G1 X-36.889 Y-25.770 Z0.500 E0.47751 F2100
G1 X-36.861 Y-25.811 Z0.500 E0.01224 F2100
G1 X-35.730 Y-27.355 Z0.500 E0.47752 F2100
G1 X-35.701 Y-27.395 Z0.500 E0.01224 F2100
G1 X-34.502 Y-28.887 Z0.500 E0.47750 F2100
G1 X-34.472 Y-28.925 Z0.500 E0.01224 F2100
G1 X-33.210 Y-30.365 Z0.500 E0.47753 F2100
G1 X-33.178 Y-30.402 Z0.500 E0.01224 F2100
G1 X-31.853 Y-31.784 Z0.500 E0.47751 F2100
G1 X-31.819 Y-31.819 Z0.500 E0.01224 F2100
G1 X-30.437 Y-33.144 Z0.500 E0.47751 F2100
G1 X-30.402 Y-33.178 Z0.500 E0.01224 F2100
G1 X-28.962 Y-34.439 Z0.500 E0.47753 F2100
G1 X-28.925 Y-34.472 Z0.500 E0.01224 F2100
G1 X-27.433 Y-35.671 Z0.500 E0.47750 F2100
G1 X-27.395 Y-35.701 Z0.500 E0.01224 F2100
G1 X-25.850 Y-36.832 Z0.500 E0.47752 F2100
G1 X-25.811 Y-36.861 Z0.500 E0.01224 F2100
G1 X-24.220 Y-37.926 Z0.500 E0.47751 F2100
G1 X-24.179 Y-37.953 Z0.500 E0.01224 F2100
G1 X-22.542 Y-38.945 Z0.500 E0.47751 F2100
G1 X-22.500 Y-38.971 Z0.500 E0.01224 F2100
G1 X-20.822 Y-39.892 Z0.500 E0.47752 F2100
G1 X-20.779 Y-39.916 Z0.500 E0.01224 F2100
G1 X-19.062 Y-40.762 Z0.500 E0.47751 F2100
G1 X-19.018 Y-40.783 Z0.500 E0.01224 F2100
G1 X-17.266 Y-41.555 Z0.500 E0.47751 F2100
G1 X-17.221 Y-41.575 Z0.500 E0.01224 F2100
G1 X-15.436 Y-42.268 Z0.500 E0.47753 F2100
G1 X-15.391 Y-42.286 Z0.500 E0.01224 F2100
G1 X-13.578 Y-42.902 Z0.500 E0.47750 F2100
G1 X-13.532 Y-42.918 Z0.500 E0.01224 F2100
G1 X-11.694 Y-43.452 Z0.500 E0.47751 F2100
G1 X-11.647 Y-43.466 Z0.500 E0.01224 F2100
G1 X-9.788 Y-43.922 Z0.500 E0.47752 F2100
G1 X-9.740 Y-43.934 Z0.500 E0.01224 F2100
G1 X-7.862 Y-44.306 Z0.500 E0.47751 F2100
G1 X-7.814 Y-44.316 Z0.500 E0.01224 F2100
G1 X-5.922 Y-44.608 Z0.500 E0.47751 F2100
G1 X-5.874 Y-44.616 Z0.500 E0.01224 F2100
G1 X-3.971 Y-44.823 Z0.500 E0.47752 F2100
G1 X-3.922 Y-44.828 Z0.500 E0.01224 F2100
G1 X-2.012 Y-44.955 Z0.500 E0.47751 F2100
G1 X-1.963 Y-44.958 Z0.500 E0.01224 F2100
G1 X-0.049 Y-44.998 Z0.500 E0.47751 F2100
G1 X0.000 Y-44.999 Z0.500 E0.01224 F2100
G1 X1.914 Y-44.959 Z0.500 E0.47751 F2100
G1 X1.963 Y-44.958 Z0.500 E0.01224 F2100
G1 X3.873 Y-44.832 Z0.500 E0.47751 F2100
G1 X3.922 Y-44.828 Z0.500 E0.01224 F2100
G1 X5.825 Y-44.621 Z0.500 E0.47751 F2100
G1 X5.874 Y-44.615 Z0.500 E0.01224 F2100
G1 X7.766 Y-44.323 Z0.500 E0.47751 F2100
G1 X7.814 Y-44.316 Z0.500 E0.01224 F2100
G1 X9.692 Y-43.943 Z0.500 E0.47751 F2100
G1 X9.740 Y-43.934 Z0.500 E0.01224 F2100
G1 X11.599 Y-43.478 Z0.500 E0.47752 F2100
G1 X11.647 Y-43.466 Z0.500 E0.01224 F2100
G1 X13.485 Y-42.931 Z0.500 E0.47751 F2100
G1 X13.532 Y-42.918 Z0.500 E0.01224 F2100
G1 X15.344 Y-42.302 Z0.500 E0.47750 F2100
G1 X15.391 Y-42.286 Z0.500 E0.01224 F2100
G1 X17.175 Y-41.593 Z0.500 E0.47753 F2100
G1 X17.221 Y-41.575 Z0.500 E0.01224 F2100
G1 X18.973 Y-40.803 Z0.500 E0.47751 F2100
G1 X19.018 Y-40.784 Z0.500 E0.01224 F2100
G1 X20.735 Y-39.937 Z0.500 E0.47751 F2100
G1 X20.779 Y-39.916 Z0.500 E0.01224 F2100
G1 X22.457 Y-38.995 Z0.500 E0.47752 F2100
G1 X22.500 Y-38.971 Z0.500 E0.01224 F2100
G1 X24.137 Y-37.978 Z0.500 E0.47751 F2100
G1 X24.179 Y-37.953 Z0.500 E0.01224 F2100
G1 X25.770 Y-36.889 Z0.500 E0.47751 F2100
G1 X25.811 Y-36.862 Z0.500 E0.01224 F2100
G1 X27.355 Y-35.730 Z0.500 E0.47752 F2100
G1 X27.394 Y-35.701 Z0.500 E0.01224 F2100
G1 X28.887 Y-34.503 Z0.500 E0.47750 F2100
G1 X28.925 Y-34.472 Z0.500 E0.01224 F2100
G1 X30.365 Y-33.210 Z0.500 E0.47752 F2100
G1 X30.402 Y-33.178 Z0.500 E0.01224 F2100
G1 X31.784 Y-31.854 Z0.500 E0.47751 F2100
G1 X31.820 Y-31.820 Z0.500 E0.01224 F2100
G1 X33.144 Y-30.437 Z0.500 E0.47751 F2100
G1 X33.177 Y-30.402 Z0.500 E0.01224 F2100
G1 X34.440 Y-28.962 Z0.500 E0.47753 F2100
G1 X34.472 Y-28.925 Z0.500 E0.01224 F2100
G1 X35.670 Y-27.432 Z0.500 E0.47750 F2100
G1 X35.701 Y-27.394 Z0.500 E0.01224 F2100
G1 X36.833 Y-25.851 Z0.500 E0.47752 F2100
G1 X36.862 Y-25.811 Z0.500 E0.01224 F2100
G1 X37.925 Y-24.219 Z0.500 E0.47750 F2100
G1 X37.952 Y-24.178 Z0.500 E0.01224 F2100
G1 X38.946 Y-22.542 Z0.500 E0.47751 F2100
G1 X38.971 Y-22.500 Z0.500 E0.01224 F2100
G1 X39.892 Y-20.822 Z0.500 E0.47752 F2100
G1 X39.915 Y-20.779 Z0.500 E0.01224 F2100
G1 X40.762 Y-19.062 Z0.500 E0.47751 F2100
G1 X40.784 Y-19.018 Z0.500 E0.01224 F2100
G1 X41.555 Y-17.266 Z0.500 E0.47750 F2100
G1 X41.574 Y-17.221 Z0.500 E0.01224 F2100
G1 X42.269 Y-15.437 Z0.500 E0.47753 F2100
G1 X42.287 Y-15.391 Z0.500 E0.01224 F2100
G1 X42.901 Y-13.578 Z0.500 E0.47750 F2100
G1 X42.917 Y-13.532 Z0.500 E0.01224 F2100
G1 X43.453 Y-11.694 Z0.500 E0.47751 F2100
G1 X43.467 Y-11.647 Z0.500 E0.01224 F2100
G1 X43.921 Y-9.787 Z0.500 E0.47752 F2100
G1 X43.933 Y-9.740 Z0.500 E0.01224 F2100
G1 X44.307 Y-7.862 Z0.500 E0.47751 F2100
G1 X44.317 Y-7.814 Z0.500 E0.01224 F2100
G1 X44.607 Y-5.922 Z0.500 E0.47751 F2100
G1 X44.615 Y-5.874 Z0.500 E0.01224 F2100
G1 X44.824 Y-3.971 Z0.500 E0.47751 F2100
G1 X44.829 Y-3.922 Z0.500 E0.01224 F2100
G1 X44.953 Y-2.012 Z0.500 E0.47751 F2100
G1 X44.957 Y-1.963 Z0.500 E0.01224 F2100
G1 X44.999 Y-0.049 Z0.500 E0.47751 F2100
G1 X45.001 Y0.000 Z0.500 E0.01224 F2100
G1 X44.958 Y1.914 Z0.500 E0.47751 F2100
G1 X44.957 Y1.963 Z0.500 E0.01224 F2100
G1 X44.833 Y3.873 Z0.500 E0.47751 F2100
G1 X44.829 Y3.922 Z0.500 E0.01224 F2100
G1 X44.620 Y5.825 Z0.500 E0.47751 F2100
G1 X44.614 Y5.874 Z0.500 E0.01224 F2100
G1 X44.324 Y7.766 Z0.500 E0.47751 F2100
G1 X44.317 Y7.814 Z0.500 E0.01224 F2100
G1 X43.942 Y9.692 Z0.500 E0.47751 F2100
G1 X43.933 Y9.740 Z0.500 E0.01224 F2100
G1 X43.479 Y11.599 Z0.500 E0.47752 F2100
G1 X43.467 Y11.647 Z0.500 E0.01224 F2100
G1 X42.930 Y13.484 Z0.500 E0.47751 F2100
G1 X42.917 Y13.532 Z0.500 E0.01224 F2100
G1 X42.303 Y15.345 Z0.500 E0.47750 F2100
G1 X42.287 Y15.391 Z0.500 E0.01224 F2100
G1 X41.592 Y17.175 Z0.500 E0.47753 F2100
G1 X41.574 Y17.221 Z0.500 E0.01224 F2100
G1 X40.804 Y18.973 Z0.500 E0.47751 F2100
G1 X40.784 Y19.018 Z0.500 E0.01224 F2100
G1 X39.937 Y20.734 Z0.500 E0.47751 F2100
G1 X39.915 Y20.778 Z0.500 E0.01224 F2100
G1 X38.995 Y22.457 Z0.500 E0.47752 F2100
G1 X38.972 Y22.500 Z0.500 E0.01224 F2100
G1 X37.978 Y24.136 Z0.500 E0.47751 F2100
G1 X37.952 Y24.178 Z0.500 E0.01224 F2100
G1 X36.890 Y25.770 Z0.500 E0.47751 F2100
G1 X36.862 Y25.811 Z0.500 E0.01224 F2100
G1 X35.729 Y27.354 Z0.500 E0.47752 F2100
G1 X35.700 Y27.394 Z0.500 E0.01224 F2100
G1 X34.503 Y28.887 Z0.500 E0.47750 F2100
G1 X34.472 Y28.926 Z0.500 E0.01224 F2100
G1 X33.209 Y30.364 Z0.500 E0.47753 F2100
G1 X33.177 Y30.401 Z0.500 E0.01224 F2100
G1 X31.854 Y31.785 Z0.500 E0.47751 F2100
G1 X31.820 Y31.820 Z0.500 E0.01224 F2100
G1 X30.437 Y33.143 Z0.500 E0.47751 F2100
G1 X30.401 Y33.177 Z0.500 E0.01224 F2100
G1 X28.963 Y34.440 Z0.500 E0.47752 F2100
G1 X28.926 Y34.472 Z0.500 E0.01224 F2100
G1 X27.432 Y35.670 Z0.500 E0.47750 F2100
G1 X27.394 Y35.700 Z0.500 E0.01224 F2100
G1 X25.851 Y36.833 Z0.500 E0.47752 F2100
G1 X25.811 Y36.862 Z0.500 E0.01224 F2100
G1 X24.219 Y37.925 Z0.500 E0.47751 F2100
G1 X24.178 Y37.952 Z0.500 E0.01224 F2100
G1 X22.542 Y38.946 Z0.500 E0.47751 F2100
G1 X22.500 Y38.971 Z0.500 E0.01224 F2100
G1 X20.822 Y39.892 Z0.500 E0.47752 F2100
G1 X20.779 Y39.915 Z0.500 E0.01224 F2100
G1 X19.062 Y40.762 Z0.500 E0.47751 F2100
G1 X19.018 Y40.784 Z0.500 E0.01224 F2100
G1 X17.266 Y41.555 Z0.500 E0.47751 F2100
G1 X17.221 Y41.574 Z0.500 E0.01224 F2100
G1 X15.437 Y42.269 Z0.500 E0.47753 F2100
G1 X15.391 Y42.287 Z0.500 E0.01224 F2100
G1 X13.578 Y42.901 Z0.500 E0.47750 F2100
G1 X13.532 Y42.917 Z0.500 E0.01224 F2100
G1 X11.694 Y43.453 Z0.500 E0.47751 F2100
G1 X11.647 Y43.467 Z0.500 E0.01224 F2100
G1 X9.787 Y43.921 Z0.500 E0.47752 F2100
G1 X9.740 Y43.933 Z0.500 E0.01224 F2100
G1 X7.862 Y44.307 Z0.500 E0.47751 F2100
G1 X7.814 Y44.316 Z0.500 E0.01224 F2100
G1 X5.922 Y44.607 Z0.500 E0.47751 F2100
G1 X5.874 Y44.615 Z0.500 E0.01224 F2100
G1 X3.971 Y44.824 Z0.500 E0.47751 F2100
G1 X3.922 Y44.829 Z0.500 E0.01224 F2100
G1 X2.012 Y44.954 Z0.500 E0.47751 F2100
G1 X1.963 Y44.957 Z0.500 E0.01224 F2100
G1 X0.049 Y44.999 Z0.500 E0.47751 F2100
G1 X-0.000 Y45.000 Z0.500 E0.01224 F2100
G1 X-1.914 Y44.958 Z0.500 E0.47751 F2100
G1 X-1.963 Y44.957 Z0.500 E0.01224 F2100
G1 X-3.873 Y44.832 Z0.500 E0.47751 F2100
G1 X-3.922 Y44.829 Z0.500 E0.01224 F2100
G1 X-5.825 Y44.620 Z0.500 E0.47752 F2100
G1 X-5.874 Y44.615 Z0.500 E0.01224 F2100
G1 X-7.766 Y44.324 Z0.500 E0.47751 F2100
G1 X-7.814 Y44.316 Z0.500 E0.01224 F2100
G1 X-9.692 Y43.943 Z0.500 E0.47751 F2100
G1 X-9.740 Y43.933 Z0.500 E0.01224 F2100
G1 X-11.599 Y43.478 Z0.500 E0.47752 F2100
G1 X-11.647 Y43.467 Z0.500 E0.01224 F2100
G1 X-13.485 Y42.931 Z0.500 E0.47751 F2100
G1 X-13.532 Y42.918 Z0.500 E0.01224 F2100
G1 X-15.344 Y42.302 Z0.500 E0.47750 F2100
G1 X-15.391 Y42.286 Z0.500 E0.01224 F2100
G1 X-17.175 Y41.593 Z0.500 E0.47753 F2100
G1 X-17.221 Y41.575 Z0.500 E0.01224 F2100
G1 X-18.973 Y40.803 Z0.500 E0.47750 F2100
G1 X-19.018 Y40.784 Z0.500 E0.01224 F2100
G1 X-20.735 Y39.938 Z0.500 E0.47751 F2100
G1 X-20.779 Y39.916 Z0.500 E0.01224 F2100
G1 X-22.457 Y38.994 Z0.500 E0.47752 F2100
G1 X-22.500 Y38.971 Z0.500 E0.01224 F2100
G1 X-24.137 Y37.978 Z0.500 E0.47751 F2100
G1 X-24.179 Y37.953 Z0.500 E0.01224 F2100
G1 X-25.770 Y36.889 Z0.500 E0.47751 F2100
G1 X-25.811 Y36.861 Z0.500 E0.01224 F2100
G1 X-27.355 Y35.730 Z0.500 E0.47752 F2100
G1 X-27.395 Y35.701 Z0.500 E0.01224 F2100
G1 X-28.887 Y34.502 Z0.500 E0.47750 F2100
G1 X-28.925 Y34.472 Z0.500 E0.01224 F2100
G1 X-30.365 Y33.210 Z0.500 E0.47753 F2100
G1 X-30.402 Y33.178 Z0.500 E0.01224 F2100
G1 X-31.784 Y31.853 Z0.500 E0.47751 F2100
G1 X-31.819 Y31.819 Z0.500 E0.01224 F2100
G1 X-33.144 Y30.437 Z0.500 E0.47751 F2100
G1 X-33.178 Y30.402 Z0.500 E0.01224 F2100
G1 X-34.439 Y28.962 Z0.500 E0.47753 F2100
G1 X-34.472 Y28.925 Z0.500 E0.01224 F2100
G1 X-35.671 Y27.433 Z0.500 E0.47750 F2100
G1 X-35.701 Y27.395 Z0.500 E0.01224 F2100
G1 X-36.832 Y25.850 Z0.500 E0.47752 F2100
G1 X-36.861 Y25.811 Z0.500 E0.01224 F2100
G1 X-37.926 Y24.220 Z0.500 E0.47751 F2100
G1 X-37.953 Y24.179 Z0.500 E0.01224 F2100
G1 X-38.945 Y22.542 Z0.500 E0.47751 F2100
G1 X-38.971 Y22.500 Z0.500 E0.01224 F2100
G1 X-39.892 Y20.822 Z0.500 E0.47752 F2100
G1 X-39.916 Y20.779 Z0.500 E0.01224 F2100
G1 X-40.762 Y19.062 Z0.500 E0.47751 F2100
G1 X-40.783 Y19.018 Z0.500 E0.01224 F2100
G1 X-41.555 Y17.266 Z0.500 E0.47751 F2100
G1 X-41.575 Y17.221 Z0.500 E0.01224 F2100
G1 X-42.268 Y15.436 Z0.500 E0.47753 F2100
G1 X-42.286 Y15.391 Z0.500 E0.01224 F2100
G1 X-42.902 Y13.578 Z0.500 E0.47750 F2100
G1 X-42.918 Y13.532 Z0.500 E0.01224 F2100
G1 X-43.452 Y11.694 Z0.500 E0.47751 F2100
G1 X-43.466 Y11.647 Z0.500 E0.01224 F2100
G1 X-43.922 Y9.788 Z0.500 E0.47752 F2100
G1 X-43.934 Y9.740 Z0.500 E0.01224 F2100
G1 X-44.306 Y7.862 Z0.500 E0.47751 F2100
G1 X-44.316 Y7.814 Z0.500 E0.01224 F2100
G1 X-44.608 Y5.922 Z0.500 E0.47751 F2100
G1 X-44.616 Y5.874 Z0.500 E0.01224 F2100
G1 X-44.823 Y3.971 Z0.500 E0.47752 F2100
G1 X-44.828 Y3.922 Z0.500 E0.01224 F2100
G1 X-44.955 Y2.012 Z0.500 E0.47751 F2100
G1 X-44.958 Y1.963 Z0.500 E0.01224 F2100
G1 X-44.998 Y0.049 Z0.500 E0.47751 F2100

; Layer 1, Z=1.000mm, Diameter=127.3mm, Points=576, Amplitude factor=0.00
G1 X-45.000 Y0.000 Z1.000 E0.12533 F2100
G1 X-44.960 Y-1.865 Z1.000 E0.46527 F2100
G1 X-44.957 Y-1.963 Z1.000 E0.02449 F2100
G1 X-44.835 Y-3.824 Z1.000 E0.46527 F2100
G1 X-44.829 Y-3.922 Z1.000 E0.02449 F2100
G1 X-44.627 Y-5.776 Z1.000 E0.46527 F2100
G1 X-44.615 Y-5.874 Z1.000 E0.02449 F2100
G1 X-44.330 Y-7.717 Z1.000 E0.46527 F2100
G1 X-44.316 Y-7.814 Z1.000 E0.02449 F2100
G1 X-43.954 Y-9.644 Z1.000 E0.46527 F2100
G1 X-43.934 Y-9.740 Z1.000 E0.02449 F2100
G1 X-43.489 Y-11.551 Z1.000 E0.46527 F2100
G1 X-43.466 Y-11.647 Z1.000 E0.02449 F2100
G1 X-42.946 Y-13.438 Z1.000 E0.46527 F2100
G1 X-42.918 Y-13.532 Z1.000 E0.02449 F2100
G1 X-42.316 Y-15.297 Z1.000 E0.46526 F2100
G1 X-42.285 Y-15.391 Z1.000 E0.02449 F2100
G1 X-41.612 Y-17.130 Z1.000 E0.46528 F2100
G1 X-41.576 Y-17.221 Z1.000 E0.02449 F2100
G1 X-40.822 Y-18.927 Z1.000 E0.46526 F2100
G1 X-40.783 Y-19.017 Z1.000 E0.02449 F2100
G1 X-39.961 Y-20.691 Z1.000 E0.46527 F2100
G1 X-39.917 Y-20.779 Z1.000 E0.02449 F2100
G1 X-39.017 Y-22.413 Z1.000 E0.46527 F2100
G1 X-38.970 Y-22.499 Z1.000 E0.02449 F2100
G1 X-38.005 Y-24.096 Z1.000 E0.46527 F2100
G1 X-37.954 Y-24.179 Z1.000 E0.02449 F2100
G1 X-36.915 Y-25.728 Z1.000 E0.46526 F2100
G1 X-36.860 Y-25.810 Z1.000 E0.02449 F2100
G1 X-35.761 Y-27.316 Z1.000 E0.46528 F2100
G1 X-35.702 Y-27.395 Z1.000 E0.02449 F2100
G1 X-34.532 Y-28.847 Z1.000 E0.46526 F2100
G1 X-34.470 Y-28.924 Z1.000 E0.02449 F2100
G1 X-33.244 Y-30.329 Z1.000 E0.46528 F2100
G1 X-33.179 Y-30.403 Z1.000 E0.02449 F2100
G1 X-31.886 Y-31.747 Z1.000 E0.46527 F2100
G1 X-31.818 Y-31.818 Z1.000 E0.02449 F2100
G1 X-30.474 Y-33.111 Z1.000 E0.46527 F2100
G1 X-30.403 Y-33.179 Z1.000 E0.02449 F2100
G1 X-28.998 Y-34.405 Z1.000 E0.46528 F2100
G1 X-28.924 Y-34.470 Z1.000 E0.02449 F2100
G1 X-27.472 Y-35.641 Z1.000 E0.46526 F2100
G1 X-27.396 Y-35.703 Z1.000 E0.02449 F2100
G1 X-25.889 Y-36.802 Z1.000 E0.46528 F2100
G1 X-25.810 Y-36.860 Z1.000 E0.02449 F2100
G1 X-24.261 Y-37.900 Z1.000 E0.46526 F2100
G1 X-24.180 Y-37.955 Z1.000 E0.02449 F2100
G1 X-22.583 Y-38.918 Z1.000 E0.46527 F2100
G1 X-22.499 Y-38.969 Z1.000 E0.02449 F2100
G1 X-20.866 Y-39.871 Z1.000 E0.46527 F2100
G1 X-20.780 Y-39.918 Z1.000 E0.02449 F2100
G1 X-19.105 Y-40.738 Z1.000 E0.46527 F2100
G1 X-19.017 Y-40.781 Z1.000 E0.02449 F2100
G1 X-17.312 Y-41.537 Z1.000 E0.46526 F2100
G1 X-17.222 Y-41.577 Z1.000 E0.02449 F2100
G1 X-15.482 Y-42.248 Z1.000 E0.46528 F2100
G1 X-15.390 Y-42.284 Z1.000 E0.02449 F2100
G1 X-13.626 Y-42.888 Z1.000 E0.46526 F2100
G1 X-13.533 Y-42.920 Z1.000 E0.02449 F2100
G1 X-11.741 Y-43.437 Z1.000 E0.46527 F2100
G1 X-11.646 Y-43.464 Z1.000 E0.02449 F2100
G1 X-9.836 Y-43.912 Z1.000 E0.46528 F2100
G1 X-9.740 Y-43.936 Z1.000 E0.02449 F2100
G1 X-7.910 Y-44.295 Z1.000 E0.46527 F2100
G1 X-7.814 Y-44.314 Z1.000 E0.02449 F2100
G1 X-5.971 Y-44.602 Z1.000 E0.46527 F2100
G1 X-5.874 Y-44.617 Z1.000 E0.02449 F2100
G1 X-4.019 Y-44.816 Z1.000 E0.46527 F2100
G1 X-3.922 Y-44.826 Z1.000 E0.02449 F2100
G1 X-2.061 Y-44.953 Z1.000 E0.46527 F2100
G1 X-1.963 Y-44.960 Z1.000 E0.02449 F2100
G1 X-0.098 Y-44.996 Z1.000 E0.46527 F2100
G1 X0.000 Y-44.998 Z1.000 E0.02449 F2100
G1 X1.865 Y-44.961 Z1.000 E0.46527 F2100
G1 X1.963 Y-44.959 Z1.000 E0.02449 F2100
G1 X3.824 Y-44.833 Z1.000 E0.46527 F2100
G1 X3.922 Y-44.827 Z1.000 E0.02449 F2100
G1 X5.776 Y-44.627 Z1.000 E0.46527 F2100
G1 X5.874 Y-44.617 Z1.000 E0.02449 F2100
G1 X7.717 Y-44.330 Z1.000 E0.46527 F2100
G1 X7.814 Y-44.314 Z1.000 E0.02449 F2100
G1 X9.644 Y-43.954 Z1.000 E0.46526 F2100
G1 X9.740 Y-43.935 Z1.000 E0.02449 F2100
G1 X11.551 Y-43.489 Z1.000 E0.46528 F2100
G1 X11.646 Y-43.465 Z1.000 E0.02449 F2100
G1 X13.438 Y-42.946 Z1.000 E0.46527 F2100
G1 X13.532 Y-42.919 Z1.000 E0.02449 F2100
G1 X15.298 Y-42.317 Z1.000 E0.46526 F2100
G1 X15.390 Y-42.285 Z1.000 E0.02449 F2100
G1 X17.130 Y-41.611 Z1.000 E0.46528 F2100
G1 X17.221 Y-41.576 Z1.000 E0.02449 F2100
G1 X18.928 Y-40.823 Z1.000 E0.46526 F2100
G1 X19.017 Y-40.783 Z1.000 E0.02449 F2100
G1 X20.691 Y-39.960 Z1.000 E0.46527 F2100
G1 X20.779 Y-39.916 Z1.000 E0.02449 F2100
G1 X22.414 Y-39.018 Z1.000 E0.46528 F2100
G1 X22.500 Y-38.970 Z1.000 E0.02449 F2100
G1 X24.095 Y-38.004 Z1.000 E0.46527 F2100
G1 X24.179 Y-37.953 Z1.000 E0.02449 F2100
G1 X25.729 Y-36.916 Z1.000 E0.46526 F2100
G1 X25.811 Y-36.861 Z1.000 E0.02449 F2100
G1 X27.315 Y-35.759 Z1.000 E0.46527 F2100
G1 X27.395 Y-35.701 Z1.000 E0.02449 F2100
G1 X28.849 Y-34.533 Z1.000 E0.46526 F2100
G1 X28.925 Y-34.472 Z1.000 E0.02449 F2100
G1 X30.328 Y-33.242 Z1.000 E0.46528 F2100
G1 X30.402 Y-33.178 Z1.000 E0.02449 F2100
G1 X31.749 Y-31.888 Z1.000 E0.46527 F2100
G1 X31.820 Y-31.820 Z1.000 E0.02449 F2100
G1 X33.109 Y-30.472 Z1.000 E0.46526 F2100
G1 X33.177 Y-30.402 Z1.000 E0.02449 F2100
G1 X34.408 Y-29.000 Z1.000 E0.46528 F2100
G1 X34.472 Y-28.926 Z1.000 E0.02449 F2100
G1 X35.639 Y-27.470 Z1.000 E0.46525 F2100
G1 X35.701 Y-27.394 Z1.000 E0.02449 F2100
G1 X36.804 Y-25.891 Z1.000 E0.46528 F2100
G1 X36.862 Y-25.811 Z1.000 E0.02449 F2100
G1 X37.897 Y-24.260 Z1.000 E0.46526 F2100
G1 X37.952 Y-24.178 Z1.000 E0.02449 F2100
G1 X38.921 Y-22.585 Z1.000 E0.46527 F2100
G1 X38.972 Y-22.500 Z1.000 E0.02449 F2100
G1 X39.867 Y-20.864 Z1.000 E0.46527 F2100
G1 X39.915 Y-20.778 Z1.000 E0.02449 F2100
G1 X40.742 Y-19.106 Z1.000 E0.46527 F2100
G1 X40.785 Y-19.018 Z1.000 E0.02449 F2100
G1 X41.534 Y-17.310 Z1.000 E0.46526 F2100
G1 X41.573 Y-17.220 Z1.000 E0.02449 F2100
G1 X42.252 Y-15.483 Z1.000 E0.46528 F2100
G1 X42.287 Y-15.391 Z1.000 E0.02449 F2100
G1 X42.884 Y-13.624 Z1.000 E0.46526 F2100
G1 X42.916 Y-13.531 Z1.000 E0.02449 F2100
G1 X43.441 Y-11.742 Z1.000 E0.46527 F2100
G1 X43.468 Y-11.647 Z1.000 E0.02449 F2100
G1 X43.908 Y-9.835 Z1.000 E0.46528 F2100
G1 X43.932 Y-9.739 Z1.000 E0.02449 F2100
G1 X44.299 Y-7.911 Z1.000 E0.46527 F2100
G1 X44.318 Y-7.814 Z1.000 E0.02449 F2100
G1 X44.598 Y-5.970 Z1.000 E0.46527 F2100
G1 X44.613 Y-5.873 Z1.000 E0.02449 F2100
G1 X44.820 Y-4.020 Z1.000 E0.46527 F2100
G1 X44.831 Y-3.922 Z1.000 E0.02449 F2100
G1 X44.949 Y-2.061 Z1.000 E0.46527 F2100
G1 X44.955 Y-1.963 Z1.000 E0.02449 F2100
G1 X45.000 Y-0.098 Z1.000 E0.46527 F2100
G1 X45.002 Y0.000 Z1.000 E0.02449 F2100
G1 X44.957 Y1.865 Z1.000 E0.46527 F2100
G1 X44.955 Y1.963 Z1.000 E0.02449 F2100
G1 X44.838 Y3.824 Z1.000 E0.46527 F2100
G1 X44.831 Y3.922 Z1.000 E0.02449 F2100
G1 X44.623 Y5.776 Z1.000 E0.46527 F2100
G1 X44.613 Y5.873 Z1.000 E0.02449 F2100
G1 X44.334 Y7.718 Z1.000 E0.46527 F2100
G1 X44.319 Y7.815 Z1.000 E0.02449 F2100
G1 X43.950 Y9.643 Z1.000 E0.46527 F2100
G1 X43.931 Y9.739 Z1.000 E0.02449 F2100
G1 X43.492 Y11.552 Z1.000 E0.46528 F2100
G1 X43.469 Y11.648 Z1.000 E0.02449 F2100
G1 X42.942 Y13.437 Z1.000 E0.46527 F2100
G1 X42.915 Y13.531 Z1.000 E0.02449 F2100
G1 X42.320 Y15.299 Z1.000 E0.46526 F2100
G1 X42.289 Y15.392 Z1.000 E0.02449 F2100
G1 X41.608 Y17.128 Z1.000 E0.46528 F2100
G1 X41.572 Y17.220 Z1.000 E0.02449 F2100
G1 X40.826 Y18.929 Z1.000 E0.46526 F2100
G1 X40.786 Y19.019 Z1.000 E0.02449 F2100
G1 X39.957 Y20.690 Z1.000 E0.46527 F2100
G1 X39.913 Y20.778 Z1.000 E0.02449 F2100
G1 X39.020 Y22.415 Z1.000 E0.46527 F2100
G1 X38.973 Y22.501 Z1.000 E0.02449 F2100
G1 X38.001 Y24.093 Z1.000 E0.46527 F2100
G1 X37.950 Y24.177 Z1.000 E0.02449 F2100
G1 X36.918 Y25.731 Z1.000 E0.46526 F2100
G1 X36.864 Y25.812 Z1.000 E0.02449 F2100
G1 X35.757 Y27.314 Z1.000 E0.46528 F2100
G1 X35.699 Y27.393 Z1.000 E0.02449 F2100
G1 X34.535 Y28.850 Z1.000 E0.46525 F2100
G1 X34.474 Y28.927 Z1.000 E0.02449 F2100
G1 X33.241 Y30.326 Z1.000 E0.46528 F2100
G1 X33.176 Y30.400 Z1.000 E0.02449 F2100
G1 X31.889 Y31.750 Z1.000 E0.46526 F2100
G1 X31.821 Y31.821 Z1.000 E0.02449 F2100
G1 X30.471 Y33.108 Z1.000 E0.46527 F2100
G1 X30.400 Y33.176 Z1.000 E0.02449 F2100
G1 X29.000 Y34.409 Z1.000 E0.46528 F2100
G1 X28.927 Y34.474 Z1.000 E0.02449 F2100
G1 X27.470 Y35.638 Z1.000 E0.46526 F2100
G1 X27.393 Y35.699 Z1.000 E0.02448 F2100
G1 X25.891 Y36.805 Z1.000 E0.46528 F2100
G1 X25.812 Y36.863 Z1.000 E0.02449 F2100
G1 X24.259 Y37.897 Z1.000 E0.46527 F2100
G1 X24.178 Y37.951 Z1.000 E0.02449 F2100
G1 X22.585 Y38.921 Z1.000 E0.46527 F2100
G1 X22.501 Y38.973 Z1.000 E0.02449 F2100
G1 X20.864 Y39.867 Z1.000 E0.46528 F2100
G1 X20.778 Y39.914 Z1.000 E0.02449 F2100
G1 X19.106 Y40.741 Z1.000 E0.46527 F2100
G1 X19.018 Y40.785 Z1.000 E0.02449 F2100
G1 X17.310 Y41.534 Z1.000 E0.46526 F2100
G1 X17.220 Y41.573 Z1.000 E0.02449 F2100
G1 X15.483 Y42.251 Z1.000 E0.46528 F2100
G1 X15.391 Y42.287 Z1.000 E0.02449 F2100
G1 X13.625 Y42.885 Z1.000 E0.46526 F2100
G1 X13.531 Y42.916 Z1.000 E0.02449 F2100
G1 X11.741 Y43.440 Z1.000 E0.46527 F2100
G1 X11.647 Y43.468 Z1.000 E0.02449 F2100
G1 X9.835 Y43.909 Z1.000 E0.46528 F2100
G1 X9.740 Y43.932 Z1.000 E0.02449 F2100
G1 X7.911 Y44.298 Z1.000 E0.46526 F2100
G1 X7.814 Y44.317 Z1.000 E0.02449 F2100
G1 X5.971 Y44.600 Z1.000 E0.46527 F2100
G1 X5.874 Y44.614 Z1.000 E0.02449 F2100
G1 X4.020 Y44.818 Z1.000 E0.46527 F2100
G1 X3.922 Y44.829 Z1.000 E0.02449 F2100
G1 X2.061 Y44.951 Z1.000 E0.46527 F2100
G1 X1.963 Y44.957 Z1.000 E0.02449 F2100
G1 X0.098 Y44.998 Z1.000 E0.46527 F2100
G1 X-0.000 Y45.000 Z1.000 E0.02449 F2100
G1 X-1.865 Y44.960 Z1.000 E0.46527 F2100
G1 X-1.963 Y44.957 Z1.000 E0.02449 F2100
G1 X-3.824 Y44.835 Z1.000 E0.46527 F2100
G1 X-3.922 Y44.829 Z1.000 E0.02449 F2100
G1 X-5.776 Y44.626 Z1.000 E0.46527 F2100
G1 X-5.874 Y44.615 Z1.000 E0.02449 F2100
G1 X-7.717 Y44.330 Z1.000 E0.46527 F2100
G1 X-7.814 Y44.316 Z1.000 E0.02449 F2100
G1 X-9.644 Y43.953 Z1.000 E0.46527 F2100
G1 X-9.740 Y43.934 Z1.000 E0.02449 F2100
G1 X-11.551 Y43.489 Z1.000 E0.46527 F2100
G1 X-11.647 Y43.466 Z1.000 E0.02449 F2100
G1 X-13.438 Y42.946 Z1.000 E0.46527 F2100
G1 X-13.532 Y42.918 Z1.000 E0.02449 F2100
G1 X-15.297 Y42.316 Z1.000 E0.46526 F2100
G1 X-15.391 Y42.285 Z1.000 E0.02449 F2100
G1 X-17.130 Y41.612 Z1.000 E0.46528 F2100
G1 X-17.221 Y41.576 Z1.000 E0.02449 F2100
G1 X-18.927 Y40.822 Z1.000 E0.46526 F2100
G1 X-19.017 Y40.783 Z1.000 E0.02449 F2100
G1 X-20.691 Y39.960 Z1.000 E0.46527 F2100
G1 X-20.779 Y39.917 Z1.000 E0.02449 F2100
G1 X-22.413 Y39.017 Z1.000 E0.46527 F2100
G1 X-22.499 Y38.970 Z1.000 E0.02449 F2100
G1 X-24.096 Y38.005 Z1.000 E0.46527 F2100
G1 X-24.179 Y37.954 Z1.000 E0.02449 F2100
G1 X-25.728 Y36.915 Z1.000 E0.46526 F2100
G1 X-25.810 Y36.860 Z1.000 E0.02449 F2100
G1 X-27.316 Y35.761 Z1.000 E0.46528 F2100
G1 X-27.395 Y35.702 Z1.000 E0.02449 F2100
G1 X-28.847 Y34.532 Z1.000 E0.46526 F2100
G1 X-28.924 Y34.471 Z1.000 E0.02449 F2100
G1 X-30.329 Y33.244 Z1.000 E0.46528 F2100
G1 X-30.403 Y33.179 Z1.000 E0.02449 F2100
G1 X-31.747 Y31.886 Z1.000 E0.46527 F2100
G1 X-31.818 Y31.818 Z1.000 E0.02449 F2100
G1 X-33.111 Y30.474 Z1.000 E0.46527 F2100
G1 X-33.179 Y30.403 Z1.000 E0.02449 F2100
G1 X-34.405 Y28.998 Z1.000 E0.46528 F2100
G1 X-34.470 Y28.924 Z1.000 E0.02449 F2100
G1 X-35.641 Y27.472 Z1.000 E0.46526 F2100
G1 X-35.703 Y27.396 Z1.000 E0.02449 F2100
G1 X-36.802 Y25.889 Z1.000 E0.46528 F2100
G1 X-36.860 Y25.810 Z1.000 E0.02449 F2100
G1 X-37.900 Y24.261 Z1.000 E0.46526 F2100
G1 X-37.955 Y24.180 Z1.000 E0.02449 F2100
G1 X-38.918 Y22.583 Z1.000 E0.46527 F2100
G1 X-38.969 Y22.499 Z1.000 E0.02449 F2100
G1 X-39.871 Y20.866 Z1.000 E0.46527 F2100
G1 X-39.918 Y20.780 Z1.000 E0.02449 F2100
G1 X-40.738 Y19.105 Z1.000 E0.46527 F2100
G1 X-40.782 Y19.017 Z1.000 E0.02449 F2100
G1 X-41.537 Y17.312 Z1.000 E0.46526 F2100
G1 X-41.577 Y17.222 Z1.000 E0.02449 F2100
G1 X-42.248 Y15.482 Z1.000 E0.46528 F2100
G1 X-42.284 Y15.390 Z1.000 E0.02449 F2100
G1 X-42.888 Y13.626 Z1.000 E0.46526 F2100
G1 X-42.920 Y13.533 Z1.000 E0.02449 F2100
G1 X-43.437 Y11.740 Z1.000 E0.46527 F2100
G1 X-43.464 Y11.646 Z1.000 E0.02449 F2100
G1 X-43.912 Y9.836 Z1.000 E0.46528 F2100
G1 X-43.936 Y9.740 Z1.000 E0.02449 F2100
G1 X-44.295 Y7.910 Z1.000 E0.46527 F2100
G1 X-44.314 Y7.814 Z1.000 E0.02449 F2100
G1 X-44.602 Y5.971 Z1.000 E0.46527 F2100
G1 X-44.617 Y5.874 Z1.000 E0.02449 F2100
G1 X-44.816 Y4.019 Z1.000 E0.46527 F2100
G1 X-44.826 Y3.922 Z1.000 E0.02449 F2100
G1 X-44.953 Y2.061 Z1.000 E0.46527 F2100
G1 X-44.960 Y1.963 Z1.000 E0.02449 F2100
G1 X-44.996 Y0.098 Z1.000 E0.46527 F2100

; Layer 2, Z=1.500mm, Diameter=127.3mm, Points=576, Amplitude factor=0.00
G1 X-45.004 Y-0.000 Z1.500 E0.12712 F2100
G1 X-44.957 Y-1.816 Z1.500 E0.45304 F2100
G1 X-44.953 Y-1.963 Z1.500 E0.03672 F2100
G1 X-44.841 Y-3.775 Z1.500 E0.45302 F2100
G1 X-44.833 Y-3.922 Z1.500 E0.03674 F2100
G1 X-44.628 Y-5.727 Z1.500 E0.45304 F2100
G1 X-44.611 Y-5.873 Z1.500 E0.03672 F2100
G1 X-44.341 Y-7.669 Z1.500 E0.45302 F2100
G1 X-44.320 Y-7.815 Z1.500 E0.03674 F2100
G1 X-43.960 Y-9.595 Z1.500 E0.45303 F2100
G1 X-43.930 Y-9.739 Z1.500 E0.03672 F2100
G1 X-43.503 Y-11.504 Z1.500 E0.45302 F2100
G1 X-43.469 Y-11.648 Z1.500 E0.03674 F2100
G1 X-42.957 Y-13.390 Z1.500 E0.45304 F2100
G1 X-42.915 Y-13.531 Z1.500 E0.03673 F2100
G1 X-42.335 Y-15.252 Z1.500 E0.45301 F2100
G1 X-42.288 Y-15.392 Z1.500 E0.03674 F2100
G1 X-41.627 Y-17.083 Z1.500 E0.45305 F2100
G1 X-41.573 Y-17.220 Z1.500 E0.03673 F2100
G1 X-40.843 Y-18.883 Z1.500 E0.45301 F2100
G1 X-40.785 Y-19.019 Z1.500 E0.03674 F2100
G1 X-39.981 Y-20.647 Z1.500 E0.45304 F2100
G1 X-39.914 Y-20.778 Z1.500 E0.03673 F2100
G1 X-39.042 Y-22.371 Z1.500 E0.45302 F2100
G1 X-38.972 Y-22.501 Z1.500 E0.03674 F2100
G1 X-38.030 Y-24.053 Z1.500 E0.45303 F2100
G1 X-37.952 Y-24.178 Z1.500 E0.03673 F2100
G1 X-36.943 Y-25.688 Z1.500 E0.45301 F2100
G1 X-36.862 Y-25.811 Z1.500 E0.03674 F2100
G1 X-35.789 Y-27.276 Z1.500 E0.45304 F2100
G1 X-35.701 Y-27.394 Z1.500 E0.03673 F2100
G1 X-34.563 Y-28.810 Z1.500 E0.45300 F2100
G1 X-34.472 Y-28.925 Z1.500 E0.03674 F2100
G1 X-33.276 Y-30.292 Z1.500 E0.45304 F2100
G1 X-33.178 Y-30.402 Z1.500 E0.03673 F2100
G1 X-31.920 Y-31.712 Z1.500 E0.45302 F2100
G1 X-31.819 Y-31.819 Z1.500 E0.03674 F2100
G1 X-30.510 Y-33.078 Z1.500 E0.45303 F2100
G1 X-30.402 Y-33.178 Z1.500 E0.03673 F2100
G1 X-29.034 Y-34.373 Z1.500 E0.45303 F2100
G1 X-28.924 Y-34.471 Z1.500 E0.03674 F2100
G1 X-27.511 Y-35.611 Z1.500 E0.45302 F2100
G1 X-27.395 Y-35.702 Z1.500 E0.03673 F2100
G1 X-25.928 Y-36.772 Z1.500 E0.45303 F2100
G1 X-25.810 Y-36.860 Z1.500 E0.03674 F2100
G1 X-24.303 Y-37.874 Z1.500 E0.45302 F2100
G1 X-24.180 Y-37.955 Z1.500 E0.03673 F2100
G1 X-22.624 Y-38.891 Z1.500 E0.45302 F2100
G1 X-22.499 Y-38.969 Z1.500 E0.03674 F2100
G1 X-20.910 Y-39.848 Z1.500 E0.45304 F2100
G1 X-20.780 Y-39.918 Z1.500 E0.03673 F2100
G1 X-19.148 Y-40.715 Z1.500 E0.45303 F2100
G1 X-19.016 Y-40.781 Z1.500 E0.03673 F2100
G1 X-17.357 Y-41.519 Z1.500 E0.45302 F2100
G1 X-17.222 Y-41.578 Z1.500 E0.03673 F2100
G1 X-15.527 Y-42.228 Z1.500 E0.45304 F2100
G1 X-15.390 Y-42.283 Z1.500 E0.03673 F2100
G1 X-13.673 Y-42.875 Z1.500 E0.45302 F2100
G1 X-13.533 Y-42.921 Z1.500 E0.03673 F2100
G1 X-11.787 Y-43.421 Z1.500 E0.45303 F2100
G1 X-11.646 Y-43.463 Z1.500 E0.03673 F2100
G1 X-9.884 Y-43.903 Z1.500 E0.45304 F2100
G1 X-9.741 Y-43.938 Z1.500 E0.03673 F2100
G1 X-7.958 Y-44.282 Z1.500 E0.45303 F2100
G1 X-7.813 Y-44.312 Z1.500 E0.03673 F2100
G1 X-6.020 Y-44.598 Z1.500 E0.45303 F2100
G1 X-5.874 Y-44.620 Z1.500 E0.03673 F2100
G1 X-4.068 Y-44.807 Z1.500 E0.45304 F2100
G1 X-3.922 Y-44.824 Z1.500 E0.03673 F2100
G1 X-2.110 Y-44.953 Z1.500 E0.45303 F2100
G1 X-1.963 Y-44.962 Z1.500 E0.03673 F2100
G1 X-0.147 Y-44.991 Z1.500 E0.45303 F2100
G1 X0.000 Y-44.995 Z1.500 E0.03673 F2100
G1 X1.816 Y-44.966 Z1.500 E0.45303 F2100
G1 X1.963 Y-44.963 Z1.500 E0.03674 F2100
G1 X3.775 Y-44.833 Z1.500 E0.45304 F2100
G1 X3.922 Y-44.823 Z1.500 E0.03673 F2100
G1 X5.728 Y-44.637 Z1.500 E0.45303 F2100
G1 X5.874 Y-44.621 Z1.500 E0.03674 F2100
G1 X7.668 Y-44.333 Z1.500 E0.45304 F2100
G1 X7.813 Y-44.311 Z1.500 E0.03673 F2100
G1 X9.597 Y-43.968 Z1.500 E0.45303 F2100
G1 X9.741 Y-43.939 Z1.500 E0.03674 F2100
G1 X11.502 Y-43.496 Z1.500 E0.45305 F2100
G1 X11.645 Y-43.461 Z1.500 E0.03673 F2100
G1 X13.392 Y-42.964 Z1.500 E0.45303 F2100
G1 X13.534 Y-42.923 Z1.500 E0.03674 F2100
G1 X15.250 Y-42.328 Z1.500 E0.45303 F2100
G1 X15.389 Y-42.281 Z1.500 E0.03673 F2100
G1 X17.086 Y-41.633 Z1.500 E0.45304 F2100
G1 X17.223 Y-41.580 Z1.500 E0.03674 F2100
G1 X18.881 Y-40.838 Z1.500 E0.45303 F2100
G1 X19.015 Y-40.779 Z1.500 E0.03672 F2100
G1 X20.649 Y-39.985 Z1.500 E0.45303 F2100
G1 X20.781 Y-39.920 Z1.500 E0.03674 F2100
G1 X22.368 Y-39.038 Z1.500 E0.45304 F2100
G1 X22.497 Y-38.966 Z1.500 E0.03673 F2100
G1 X24.055 Y-38.033 Z1.500 E0.45302 F2100
G1 X24.181 Y-37.957 Z1.500 E0.03674 F2100
G1 X25.686 Y-36.940 Z1.500 E0.45303 F2100
G1 X25.808 Y-36.858 Z1.500 E0.03672 F2100
G1 X27.278 Y-35.791 Z1.500 E0.45303 F2100
G1 X27.397 Y-35.705 Z1.500 E0.03674 F2100
G1 X28.808 Y-34.561 Z1.500 E0.45303 F2100
G1 X28.922 Y-34.468 Z1.500 E0.03672 F2100
G1 X30.293 Y-33.277 Z1.500 E0.45303 F2100
G1 X30.405 Y-33.181 Z1.500 E0.03674 F2100
G1 X31.711 Y-31.919 Z1.500 E0.45304 F2100
G1 X31.817 Y-31.817 Z1.500 E0.03672 F2100
G1 X33.078 Y-30.510 Z1.500 E0.45302 F2100
G1 X33.181 Y-30.405 Z1.500 E0.03674 F2100
G1 X34.373 Y-29.034 Z1.500 E0.45305 F2100
G1 X34.469 Y-28.923 Z1.500 E0.03673 F2100
G1 X35.611 Y-27.511 Z1.500 E0.45300 F2100
G1 X35.704 Y-27.397 Z1.500 E0.03674 F2100
G1 X36.773 Y-25.928 Z1.500 E0.45305 F2100
G1 X36.859 Y-25.809 Z1.500 E0.03673 F2100
G1 X37.873 Y-24.302 Z1.500 E0.45301 F2100
G1 X37.955 Y-24.180 Z1.500 E0.03674 F2100
G1 X38.893 Y-22.625 Z1.500 E0.45304 F2100
G1 X38.968 Y-22.498 Z1.500 E0.03672 F2100
G1 X39.846 Y-20.909 Z1.500 E0.45302 F2100
G1 X39.918 Y-20.780 Z1.500 E0.03674 F2100
G1 X40.718 Y-19.149 Z1.500 E0.45304 F2100
G1 X40.782 Y-19.017 Z1.500 E0.03673 F2100
G1 X41.516 Y-17.356 Z1.500 E0.45301 F2100
G1 X41.577 Y-17.222 Z1.500 E0.03674 F2100
G1 X42.232 Y-15.528 Z1.500 E0.45305 F2100
G1 X42.284 Y-15.390 Z1.500 E0.03673 F2100
G1 X42.870 Y-13.671 Z1.500 E0.45301 F2100
G1 X42.919 Y-13.532 Z1.500 E0.03674 F2100
G1 X43.426 Y-11.788 Z1.500 E0.45303 F2100
G1 X43.466 Y-11.647 Z1.500 E0.03673 F2100
G1 X43.898 Y-9.883 Z1.500 E0.45302 F2100
G1 X43.934 Y-9.740 Z1.500 E0.03674 F2100
G1 X44.288 Y-7.959 Z1.500 E0.45303 F2100
G1 X44.316 Y-7.814 Z1.500 E0.03673 F2100
G1 X44.592 Y-6.019 Z1.500 E0.45302 F2100
G1 X44.615 Y-5.874 Z1.500 E0.03674 F2100
G1 X44.814 Y-4.069 Z1.500 E0.45303 F2100
G1 X44.829 Y-3.922 Z1.500 E0.03673 F2100
G1 X44.946 Y-2.110 Z1.500 E0.45302 F2100
G1 X44.957 Y-1.963 Z1.500 E0.03674 F2100
G1 X44.999 Y-0.147 Z1.500 E0.45303 F2100
G1 X45.001 Y0.000 Z1.500 E0.03673 F2100
G1 X44.958 Y1.816 Z1.500 E0.45302 F2100
G1 X44.956 Y1.963 Z1.500 E0.03674 F2100
G1 X44.841 Y3.775 Z1.500 E0.45303 F2100
G1 X44.830 Y3.922 Z1.500 E0.03673 F2100
G1 X44.628 Y5.727 Z1.500 E0.45302 F2100
G1 X44.613 Y5.873 Z1.500 E0.03674 F2100
G1 X44.342 Y7.669 Z1.500 E0.45303 F2100
G1 X44.318 Y7.815 Z1.500 E0.03673 F2100
G1 X43.959 Y9.595 Z1.500 E0.45302 F2100
G1 X43.931 Y9.739 Z1.500 E0.03674 F2100
G1 X43.505 Y11.505 Z1.500 E0.45304 F2100
G1 X43.469 Y11.648 Z1.500 E0.03673 F2100
G1 X42.955 Y13.389 Z1.500 E0.45302 F2100
G1 X42.915 Y13.531 Z1.500 E0.03674 F2100
G1 X42.337 Y15.253 Z1.500 E0.45302 F2100
G1 X42.289 Y15.392 Z1.500 E0.03673 F2100
G1 X41.624 Y17.082 Z1.500 E0.45304 F2100
G1 X41.571 Y17.219 Z1.500 E0.03674 F2100
G1 X40.847 Y18.885 Z1.500 E0.45302 F2100
G1 X40.787 Y19.019 Z1.500 E0.03673 F2100
G1 X39.976 Y20.644 Z1.500 E0.45303 F2100
G1 X39.912 Y20.777 Z1.500 E0.03673 F2100
G1 X39.046 Y22.373 Z1.500 E0.45304 F2100
G1 X38.975 Y22.502 Z1.500 E0.03673 F2100
G1 X38.025 Y24.050 Z1.500 E0.45303 F2100
G1 X37.949 Y24.176 Z1.500 E0.03673 F2100
G1 X36.948 Y25.691 Z1.500 E0.45302 F2100
G1 X36.866 Y25.814 Z1.500 E0.03673 F2100
G1 X35.784 Y27.272 Z1.500 E0.45304 F2100
G1 X35.697 Y27.391 Z1.500 E0.03673 F2100
G1 X34.568 Y28.814 Z1.500 E0.45302 F2100
G1 X34.476 Y28.929 Z1.500 E0.03673 F2100
G1 X33.270 Y30.287 Z1.500 E0.45305 F2100
G1 X33.174 Y30.398 Z1.500 E0.03673 F2100
G1 X31.926 Y31.717 Z1.500 E0.45303 F2100
G1 X31.824 Y31.824 Z1.500 E0.03673 F2100
G1 X30.504 Y33.071 Z1.500 E0.45303 F2100
G1 X30.398 Y33.174 Z1.500 E0.03673 F2100
G1 X29.040 Y34.379 Z1.500 E0.45304 F2100
G1 X28.929 Y34.476 Z1.500 E0.03674 F2100
G1 X27.506 Y35.604 Z1.500 E0.45302 F2100
G1 X27.391 Y35.696 Z1.500 E0.03673 F2100
G1 X25.933 Y36.779 Z1.500 E0.45304 F2100
G1 X25.814 Y36.866 Z1.500 E0.03674 F2100
G1 X24.298 Y37.866 Z1.500 E0.45303 F2100
G1 X24.175 Y37.948 Z1.500 E0.03673 F2100
G1 X22.629 Y38.900 Z1.500 E0.45303 F2100
G1 X22.503 Y38.976 Z1.500 E0.03674 F2100
G1 X20.905 Y39.840 Z1.500 E0.45304 F2100
G1 X20.776 Y39.910 Z1.500 E0.03673 F2100
G1 X19.152 Y40.724 Z1.500 E0.45303 F2100
G1 X19.020 Y40.789 Z1.500 E0.03674 F2100
G1 X17.353 Y41.510 Z1.500 E0.45303 F2100
G1 X17.219 Y41.569 Z1.500 E0.03673 F2100
G1 X15.530 Y42.238 Z1.500 E0.45304 F2100
G1 X15.393 Y42.292 Z1.500 E0.03674 F2100
G1 X13.670 Y42.865 Z1.500 E0.45303 F2100
G1 X13.530 Y42.912 Z1.500 E0.03672 F2100
G1 X11.790 Y43.430 Z1.500 E0.45302 F2100
G1 X11.648 Y43.472 Z1.500 E0.03674 F2100
G1 X9.882 Y43.894 Z1.500 E0.45305 F2100
G1 X9.739 Y43.928 Z1.500 E0.03673 F2100
G1 X7.959 Y44.292 Z1.500 E0.45302 F2100
G1 X7.815 Y44.321 Z1.500 E0.03674 F2100
G1 X6.019 Y44.588 Z1.500 E0.45304 F2100
G1 X5.873 Y44.610 Z1.500 E0.03672 F2100
G1 X4.069 Y44.817 Z1.500 E0.45302 F2100
G1 X3.922 Y44.834 Z1.500 E0.03674 F2100
G1 X2.110 Y44.944 Z1.500 E0.45304 F2100
G1 X1.963 Y44.952 Z1.500 E0.03672 F2100
G1 X0.147 Y45.001 Z1.500 E0.45302 F2100
G1 X-0.000 Y45.005 Z1.500 E0.03674 F2100
G1 X-1.816 Y44.957 Z1.500 E0.45304 F2100
G1 X-1.963 Y44.953 Z1.500 E0.03672 F2100
G1 X-3.775 Y44.842 Z1.500 E0.45302 F2100
G1 X-3.922 Y44.833 Z1.500 E0.03674 F2100
G1 X-5.727 Y44.628 Z1.500 E0.45304 F2100
G1 X-5.873 Y44.611 Z1.500 E0.03672 F2100
G1 X-7.669 Y44.341 Z1.500 E0.45302 F2100
G1 X-7.815 Y44.320 Z1.500 E0.03674 F2100
G1 X-9.595 Y43.960 Z1.500 E0.45303 F2100
G1 X-9.739 Y43.930 Z1.500 E0.03672 F2100
G1 X-11.504 Y43.504 Z1.500 E0.45302 F2100
G1 X-11.648 Y43.470 Z1.500 E0.03674 F2100
G1 X-13.390 Y42.957 Z1.500 E0.45304 F2100
G1 X-13.531 Y42.915 Z1.500 E0.03672 F2100
G1 X-15.252 Y42.335 Z1.500 E0.45301 F2100
G1 X-15.392 Y42.289 Z1.500 E0.03674 F2100
G1 X-17.083 Y41.627 Z1.500 E0.45305 F2100
G1 X-17.220 Y41.572 Z1.500 E0.03673 F2100
G1 X-18.883 Y40.844 Z1.500 E0.45301 F2100
G1 X-19.019 Y40.786 Z1.500 E0.03674 F2100
G1 X-20.646 Y39.980 Z1.500 E0.45304 F2100
G1 X-20.778 Y39.914 Z1.500 E0.03673 F2100
G1 X-22.371 Y39.042 Z1.500 E0.45302 F2100
G1 X-22.501 Y38.972 Z1.500 E0.03674 F2100
G1 X-24.053 Y38.029 Z1.500 E0.45303 F2100
G1 X-24.178 Y37.952 Z1.500 E0.03673 F2100
G1 X-25.688 Y36.943 Z1.500 E0.45301 F2100
G1 X-25.811 Y36.862 Z1.500 E0.03674 F2100
G1 X-27.276 Y35.789 Z1.500 E0.45304 F2100
G1 X-27.394 Y35.701 Z1.500 E0.03673 F2100
G1 X-28.810 Y34.563 Z1.500 E0.45300 F2100
G1 X-28.925 Y34.472 Z1.500 E0.03674 F2100
G1 X-30.292 Y33.276 Z1.500 E0.45304 F2100
G1 X-30.402 Y33.178 Z1.500 E0.03673 F2100
G1 X-31.712 Y31.920 Z1.500 E0.45301 F2100
G1 X-31.819 Y31.819 Z1.500 E0.03674 F2100
G1 X-33.077 Y30.509 Z1.500 E0.45303 F2100
G1 X-33.178 Y30.402 Z1.500 E0.03673 F2100
G1 X-34.373 Y29.035 Z1.500 E0.45303 F2100
G1 X-34.471 Y28.925 Z1.500 E0.03674 F2100
G1 X-35.611 Y27.511 Z1.500 E0.45302 F2100
G1 X-35.702 Y27.395 Z1.500 E0.03673 F2100
G1 X-36.772 Y25.928 Z1.500 E0.45303 F2100
G1 X-36.860 Y25.810 Z1.500 E0.03674 F2100
G1 X-37.874 Y24.303 Z1.500 E0.45302 F2100
G1 X-37.954 Y24.180 Z1.500 E0.03673 F2100
G1 X-38.892 Y22.624 Z1.500 E0.45302 F2100
G1 X-38.969 Y22.499 Z1.500 E0.03674 F2100
G1 X-39.848 Y20.910 Z1.500 E0.45304 F2100
G1 X-39.918 Y20.780 Z1.500 E0.03673 F2100
G1 X-40.715 Y19.148 Z1.500 E0.45303 F2100
G1 X-40.781 Y19.017 Z1.500 E0.03674 F2100
G1 X-41.519 Y17.357 Z1.500 E0.45302 F2100
G1 X-41.578 Y17.222 Z1.500 E0.03673 F2100
G1 X-42.229 Y15.527 Z1.500 E0.45304 F2100
G1 X-42.283 Y15.390 Z1.500 E0.03673 F2100
G1 X-42.874 Y13.673 Z1.500 E0.45302 F2100
G1 X-42.921 Y13.533 Z1.500 E0.03673 F2100
G1 X-43.421 Y11.787 Z1.500 E0.45303 F2100
G1 X-43.463 Y11.646 Z1.500 E0.03673 F2100
G1 X-43.903 Y9.884 Z1.500 E0.45304 F2100
G1 X-43.938 Y9.741 Z1.500 E0.03673 F2100
G1 X-44.282 Y7.958 Z1.500 E0.45303 F2100
G1 X-44.312 Y7.813 Z1.500 E0.03673 F2100
G1 X-44.598 Y6.020 Z1.500 E0.45303 F2100
G1 X-44.620 Y5.874 Z1.500 E0.03673 F2100
G1 X-44.807 Y4.068 Z1.500 E0.45303 F2100
G1 X-44.824 Y3.922 Z1.500 E0.03673 F2100
G1 X-44.953 Y2.110 Z1.500 E0.45303 F2100
G1 X-44.962 Y1.963 Z1.500 E0.03673 F2100
G1 X-44.991 Y0.147 Z1.500 E0.45303 F2100

; Layer 3, Z=2.000mm, Diameter=127.3mm, Points=576, Amplitude factor=0.01
G1 X-45.008 Y-0.000 Z2.000 E0.13008 F2100
G1 X-44.957 Y-1.766 Z2.000 E0.44081 F2100
G1 X-44.950 Y-1.963 Z2.000 E0.04896 F2100
G1 X-44.846 Y-3.726 Z2.000 E0.44077 F2100
G1 X-44.836 Y-3.923 Z2.000 E0.04900 F2100
G1 X-44.633 Y-5.678 Z2.000 E0.44081 F2100
G1 X-44.608 Y-5.873 Z2.000 E0.04896 F2100
G1 X-44.349 Y-7.621 Z2.000 E0.44077 F2100
G1 X-44.322 Y-7.815 Z2.000 E0.04900 F2100
G1 X-43.969 Y-9.547 Z2.000 E0.44081 F2100
G1 X-43.928 Y-9.739 Z2.000 E0.04896 F2100
G1 X-43.516 Y-11.457 Z2.000 E0.44077 F2100
G1 X-43.472 Y-11.648 Z2.000 E0.04900 F2100
G1 X-42.971 Y-13.343 Z2.000 E0.44080 F2100
G1 X-42.913 Y-13.530 Z2.000 E0.04896 F2100
G1 X-42.350 Y-15.205 Z2.000 E0.44075 F2100
G1 X-42.290 Y-15.392 Z2.000 E0.04900 F2100
G1 X-41.645 Y-17.038 Z2.000 E0.44081 F2100
G1 X-41.571 Y-17.219 Z2.000 E0.04897 F2100
G1 X-40.863 Y-18.838 Z2.000 E0.44075 F2100
G1 X-40.787 Y-19.019 Z2.000 E0.04900 F2100
G1 X-40.003 Y-20.603 Z2.000 E0.44080 F2100
G1 X-39.913 Y-20.778 Z2.000 E0.04897 F2100
G1 X-39.064 Y-22.327 Z2.000 E0.44077 F2100
G1 X-38.973 Y-22.501 Z2.000 E0.04900 F2100
G1 X-38.056 Y-24.012 Z2.000 E0.44080 F2100
G1 X-37.952 Y-24.178 Z2.000 E0.04897 F2100
G1 X-36.969 Y-25.646 Z2.000 E0.44076 F2100
G1 X-36.862 Y-25.811 Z2.000 E0.04900 F2100
G1 X-35.819 Y-27.238 Z2.000 E0.44081 F2100
G1 X-35.701 Y-27.394 Z2.000 E0.04897 F2100
G1 X-34.592 Y-28.770 Z2.000 E0.44075 F2100
G1 X-34.472 Y-28.925 Z2.000 E0.04899 F2100
G1 X-33.310 Y-30.257 Z2.000 E0.44081 F2100
G1 X-33.178 Y-30.402 Z2.000 E0.04897 F2100
G1 X-31.952 Y-31.675 Z2.000 E0.44077 F2100
G1 X-31.819 Y-31.819 Z2.000 E0.04899 F2100
G1 X-30.547 Y-33.046 Z2.000 E0.44079 F2100
G1 X-30.403 Y-33.179 Z2.000 E0.04897 F2100
G1 X-29.069 Y-34.338 Z2.000 E0.44078 F2100
G1 X-28.924 Y-34.470 Z2.000 E0.04899 F2100
G1 X-27.551 Y-35.583 Z2.000 E0.44078 F2100
G1 X-27.396 Y-35.704 Z2.000 E0.04897 F2100
G1 X-25.965 Y-36.740 Z2.000 E0.44079 F2100
G1 X-25.809 Y-36.859 Z2.000 E0.04899 F2100
G1 X-24.346 Y-37.849 Z2.000 E0.44079 F2100
G1 X-24.181 Y-37.956 Z2.000 E0.04897 F2100
G1 X-22.664 Y-38.863 Z2.000 E0.44078 F2100
G1 X-22.498 Y-38.967 Z2.000 E0.04898 F2100
G1 X-20.954 Y-39.828 Z2.000 E0.44080 F2100
G1 X-20.781 Y-39.920 Z2.000 E0.04898 F2100
G1 X-19.190 Y-40.690 Z2.000 E0.44079 F2100
G1 X-19.015 Y-40.778 Z2.000 E0.04898 F2100
G1 X-17.404 Y-41.503 Z2.000 E0.44079 F2100
G1 X-17.223 Y-41.581 Z2.000 E0.04898 F2100
G1 X-15.571 Y-42.207 Z2.000 E0.44081 F2100
G1 X-15.389 Y-42.280 Z2.000 E0.04898 F2100
G1 X-13.720 Y-42.863 Z2.000 E0.44079 F2100
G1 X-13.534 Y-42.924 Z2.000 E0.04898 F2100
G1 X-11.833 Y-43.403 Z2.000 E0.44080 F2100
G1 X-11.645 Y-43.459 Z2.000 E0.04898 F2100
G1 X-9.933 Y-43.896 Z2.000 E0.44081 F2100
G1 X-9.742 Y-43.941 Z2.000 E0.04898 F2100
G1 X-8.005 Y-44.268 Z2.000 E0.44080 F2100
G1 X-7.813 Y-44.308 Z2.000 E0.04897 F2100
G1 X-6.069 Y-44.595 Z2.000 E0.44080 F2100
G1 X-5.875 Y-44.624 Z2.000 E0.04898 F2100
G1 X-4.116 Y-44.797 Z2.000 E0.44081 F2100
G1 X-3.921 Y-44.820 Z2.000 E0.04897 F2100
G1 X-2.159 Y-44.954 Z2.000 E0.44080 F2100
G1 X-1.963 Y-44.966 Z2.000 E0.04898 F2100
G1 X-0.196 Y-44.986 Z2.000 E0.44081 F2100
G1 X0.000 Y-44.990 Z2.000 E0.04897 F2100
G1 X1.767 Y-44.972 Z2.000 E0.44080 F2100
G1 X1.963 Y-44.967 Z2.000 E0.04898 F2100
G1 X3.725 Y-44.831 Z2.000 E0.44082 F2100
G1 X3.921 Y-44.819 Z2.000 E0.04897 F2100
G1 X5.680 Y-44.646 Z2.000 E0.44080 F2100
G1 X5.875 Y-44.625 Z2.000 E0.04899 F2100
G1 X7.618 Y-44.336 Z2.000 E0.44082 F2100
G1 X7.812 Y-44.306 Z2.000 E0.04896 F2100
G1 X9.549 Y-43.981 Z2.000 E0.44080 F2100
G1 X9.742 Y-43.943 Z2.000 E0.04899 F2100
G1 X11.454 Y-43.504 Z2.000 E0.44083 F2100
G1 X11.644 Y-43.457 Z2.000 E0.04896 F2100
G1 X13.346 Y-42.981 Z2.000 E0.44079 F2100
G1 X13.535 Y-42.927 Z2.000 E0.04899 F2100
G1 X15.202 Y-42.340 Z2.000 E0.44081 F2100
G1 X15.387 Y-42.277 Z2.000 E0.04896 F2100
G1 X17.041 Y-41.654 Z2.000 E0.44080 F2100
G1 X17.225 Y-41.584 Z2.000 E0.04899 F2100
G1 X18.834 Y-40.855 Z2.000 E0.44082 F2100
G1 X19.014 Y-40.775 Z2.000 E0.04896 F2100
G1 X20.607 Y-40.010 Z2.000 E0.44079 F2100
G1 X20.783 Y-39.924 Z2.000 E0.04899 F2100
G1 X22.324 Y-39.058 Z2.000 E0.44083 F2100
G1 X22.495 Y-38.963 Z2.000 E0.04896 F2100
G1 X24.015 Y-38.061 Z2.000 E0.44079 F2100
G1 X24.184 Y-37.961 Z2.000 E0.04899 F2100
G1 X25.643 Y-36.965 Z2.000 E0.44081 F2100
G1 X25.806 Y-36.854 Z2.000 E0.04896 F2100
G1 X27.240 Y-35.823 Z2.000 E0.44079 F2100
G1 X27.400 Y-35.708 Z2.000 E0.04900 F2100
G1 X28.768 Y-34.590 Z2.000 E0.44080 F2100
G1 X28.920 Y-34.465 Z2.000 E0.04896 F2100
G1 X30.258 Y-33.312 Z2.000 E0.44079 F2100
G1 X30.407 Y-33.184 Z2.000 E0.04900 F2100
G1 X31.674 Y-31.952 Z2.000 E0.44081 F2100
G1 X31.814 Y-31.814 Z2.000 E0.04896 F2100
G1 X33.046 Y-30.547 Z2.000 E0.44077 F2100
G1 X33.183 Y-30.407 Z2.000 E0.04900 F2100
G1 X34.339 Y-29.070 Z2.000 E0.44082 F2100
G1 X34.466 Y-28.921 Z2.000 E0.04896 F2100
G1 X35.581 Y-27.550 Z2.000 E0.44076 F2100
G1 X35.706 Y-27.398 Z2.000 E0.04900 F2100
G1 X36.743 Y-25.967 Z2.000 E0.44082 F2100
G1 X36.857 Y-25.807 Z2.000 E0.04896 F2100
G1 X37.846 Y-24.343 Z2.000 E0.44076 F2100
G1 X37.958 Y-24.182 Z2.000 E0.04900 F2100
G1 X38.867 Y-22.667 Z2.000 E0.44081 F2100
G1 X38.966 Y-22.497 Z2.000 E0.04896 F2100
G1 X39.823 Y-20.952 Z2.000 E0.44077 F2100
G1 X39.920 Y-20.781 Z2.000 E0.04900 F2100
G1 X40.696 Y-19.193 Z2.000 E0.44081 F2100
G1 X40.780 Y-19.016 Z2.000 E0.04896 F2100
G1 X41.496 Y-17.401 Z2.000 E0.44076 F2100
G1 X41.578 Y-17.222 Z2.000 E0.04900 F2100
G1 X42.215 Y-15.574 Z2.000 E0.44081 F2100
G1 X42.283 Y-15.390 Z2.000 E0.04897 F2100
G1 X42.854 Y-13.718 Z2.000 E0.44075 F2100
G1 X42.920 Y-13.533 Z2.000 E0.04900 F2100
G1 X43.413 Y-11.836 Z2.000 E0.44080 F2100
G1 X43.465 Y-11.646 Z2.000 E0.04897 F2100
G1 X43.885 Y-9.930 Z2.000 E0.44077 F2100
G1 X43.935 Y-9.740 Z2.000 E0.04900 F2100
G1 X44.280 Y-8.007 Z2.000 E0.44080 F2100
G1 X44.315 Y-7.814 Z2.000 E0.04897 F2100
G1 X44.582 Y-6.067 Z2.000 E0.44077 F2100
G1 X44.615 Y-5.874 Z2.000 E0.04900 F2100
G1 X44.811 Y-4.117 Z2.000 E0.44080 F2100
G1 X44.829 Y-3.922 Z2.000 E0.04897 F2100
G1 X44.941 Y-2.159 Z2.000 E0.44077 F2100
G1 X44.956 Y-1.963 Z2.000 E0.04899 F2100
G1 X45.000 Y-0.196 Z2.000 E0.44080 F2100
G1 X45.001 Y0.000 Z2.000 E0.04897 F2100
G1 X44.957 Y1.766 Z2.000 E0.44077 F2100
G1 X44.955 Y1.963 Z2.000 E0.04899 F2100
G1 X44.847 Y3.727 Z2.000 E0.44080 F2100
G1 X44.831 Y3.922 Z2.000 E0.04897 F2100
G1 X44.631 Y5.678 Z2.000 E0.44078 F2100
G1 X44.612 Y5.873 Z2.000 E0.04899 F2100
G1 X44.352 Y7.621 Z2.000 E0.44080 F2100
G1 X44.320 Y7.815 Z2.000 E0.04897 F2100
G1 X43.965 Y9.546 Z2.000 E0.44078 F2100
G1 X43.929 Y9.739 Z2.000 E0.04899 F2100
G1 X43.520 Y11.458 Z2.000 E0.44081 F2100
G1 X43.471 Y11.648 Z2.000 E0.04897 F2100
G1 X42.965 Y13.341 Z2.000 E0.44078 F2100
G1 X42.912 Y13.530 Z2.000 E0.04898 F2100
G1 X42.357 Y15.208 Z2.000 E0.44079 F2100
G1 X42.292 Y15.393 Z2.000 E0.04897 F2100
G1 X41.638 Y17.035 Z2.000 E0.44080 F2100
G1 X41.569 Y17.218 Z2.000 E0.04898 F2100
G1 X40.871 Y18.842 Z2.000 E0.44079 F2100
G1 X40.790 Y19.021 Z2.000 E0.04898 F2100
G1 X39.994 Y20.599 Z2.000 E0.44080 F2100
G1 X39.909 Y20.775 Z2.000 E0.04898 F2100
G1 X39.074 Y22.332 Z2.000 E0.44081 F2100
G1 X38.978 Y22.504 Z2.000 E0.04898 F2100
G1 X38.046 Y24.006 Z2.000 E0.44080 F2100
G1 X37.946 Y24.174 Z2.000 E0.04898 F2100
G1 X36.979 Y25.653 Z2.000 E0.44079 F2100
G1 X36.869 Y25.816 Z2.000 E0.04898 F2100
G1 X35.809 Y27.230 Z2.000 E0.44081 F2100
G1 X35.694 Y27.389 Z2.000 E0.04897 F2100
G1 X34.603 Y28.779 Z2.000 E0.44079 F2100
G1 X34.479 Y28.931 Z2.000 E0.04898 F2100
G1 X33.299 Y30.247 Z2.000 E0.44082 F2100
G1 X33.171 Y30.395 Z2.000 E0.04897 F2100
G1 X31.963 Y31.685 Z2.000 E0.44080 F2100
G1 X31.826 Y31.826 Z2.000 E0.04898 F2100
G1 X30.536 Y33.034 Z2.000 E0.44081 F2100
G1 X30.395 Y33.170 Z2.000 E0.04897 F2100
G1 X29.080 Y34.350 Z2.000 E0.44081 F2100
G1 X28.932 Y34.479 Z2.000 E0.04899 F2100
G1 X27.541 Y35.570 Z2.000 E0.44080 F2100
G1 X27.388 Y35.693 Z2.000 E0.04896 F2100
G1 X25.975 Y36.754 Z2.000 E0.44081 F2100
G1 X25.817 Y36.870 Z2.000 E0.04899 F2100
G1 X24.336 Y37.835 Z2.000 E0.44081 F2100
G1 X24.173 Y37.944 Z2.000 E0.04896 F2100
G1 X22.673 Y38.878 Z2.000 E0.44080 F2100
G1 X22.505 Y38.980 Z2.000 E0.04899 F2100
G1 X20.946 Y39.812 Z2.000 E0.44083 F2100
G1 X20.774 Y39.906 Z2.000 E0.04896 F2100
G1 X19.198 Y40.706 Z2.000 E0.44080 F2100
G1 X19.022 Y40.793 Z2.000 E0.04899 F2100
G1 X17.397 Y41.487 Z2.000 E0.44082 F2100
G1 X17.217 Y41.565 Z2.000 E0.04896 F2100
G1 X15.577 Y42.224 Z2.000 E0.44080 F2100
G1 X15.394 Y42.296 Z2.000 E0.04899 F2100
G1 X13.715 Y42.846 Z2.000 E0.44081 F2100
G1 X13.529 Y42.908 Z2.000 E0.04896 F2100
G1 X11.838 Y43.420 Z2.000 E0.44079 F2100
G1 X11.649 Y43.476 Z2.000 E0.04899 F2100
G1 X9.929 Y43.879 Z2.000 E0.44083 F2100
G1 X9.738 Y43.924 Z2.000 E0.04896 F2100
G1 X8.008 Y44.286 Z2.000 E0.44078 F2100
G1 X7.816 Y44.326 Z2.000 E0.04899 F2100
G1 X6.067 Y44.578 Z2.000 E0.44082 F2100
G1 X5.872 Y44.606 Z2.000 E0.04896 F2100
G1 X4.118 Y44.814 Z2.000 E0.44078 F2100
G1 X3.923 Y44.838 Z2.000 E0.04900 F2100
G1 X2.158 Y44.938 Z2.000 E0.44082 F2100
G1 X1.962 Y44.949 Z2.000 E0.04896 F2100
G1 X0.196 Y45.002 Z2.000 E0.44078 F2100
G1 X-0.000 Y45.008 Z2.000 E0.04900 F2100
G1 X-1.766 Y44.956 Z2.000 E0.44081 F2100
G1 X-1.963 Y44.949 Z2.000 E0.04896 F2100
G1 X-3.727 Y44.847 Z2.000 E0.44077 F2100
G1 X-3.923 Y44.836 Z2.000 E0.04900 F2100
G1 X-5.678 Y44.632 Z2.000 E0.44081 F2100
G1 X-5.873 Y44.608 Z2.000 E0.04896 F2100
G1 X-7.621 Y44.350 Z2.000 E0.44077 F2100
G1 X-7.815 Y44.323 Z2.000 E0.04900 F2100
G1 X-9.546 Y43.968 Z2.000 E0.44081 F2100
G1 X-9.738 Y43.927 Z2.000 E0.04896 F2100
G1 X-11.457 Y43.516 Z2.000 E0.44077 F2100
G1 X-11.648 Y43.472 Z2.000 E0.04900 F2100
G1 X-13.343 Y42.970 Z2.000 E0.44081 F2100
G1 X-13.530 Y42.912 Z2.000 E0.04896 F2100
G1 X-15.206 Y42.351 Z2.000 E0.44075 F2100
G1 X-15.392 Y42.291 Z2.000 E0.04900 F2100
G1 X-17.037 Y41.645 Z2.000 E0.44082 F2100
G1 X-17.219 Y41.571 Z2.000 E0.04897 F2100
G1 X-18.838 Y40.863 Z2.000 E0.44076 F2100
G1 X-19.019 Y40.787 Z2.000 E0.04900 F2100
G1 X-20.603 Y40.002 Z2.000 E0.44080 F2100
G1 X-20.777 Y39.913 Z2.000 E0.04897 F2100
G1 X-22.328 Y39.065 Z2.000 E0.44077 F2100
G1 X-22.501 Y38.973 Z2.000 E0.04900 F2100
G1 X-24.011 Y38.055 Z2.000 E0.44080 F2100
G1 X-24.177 Y37.951 Z2.000 E0.04897 F2100
G1 X-25.647 Y36.969 Z2.000 E0.44076 F2100
G1 X-25.812 Y36.863 Z2.000 E0.04900 F2100
G1 X-27.237 Y35.819 Z2.000 E0.44081 F2100
G1 X-27.394 Y35.700 Z2.000 E0.04897 F2100
G1 X-28.770 Y34.593 Z2.000 E0.44075 F2100
G1 X-28.925 Y34.472 Z2.000 E0.04899 F2100
G1 X-30.256 Y33.310 Z2.000 E0.44081 F2100
G1 X-30.402 Y33.178 Z2.000 E0.04897 F2100
G1 X-31.675 Y31.953 Z2.000 E0.44076 F2100
G1 X-31.819 Y31.819 Z2.000 E0.04899 F2100
G1 X-33.045 Y30.547 Z2.000 E0.44079 F2100
G1 X-33.179 Y30.403 Z2.000 E0.04897 F2100
G1 X-34.339 Y29.070 Z2.000 E0.44078 F2100
G1 X-34.470 Y28.924 Z2.000 E0.04899 F2100
G1 X-35.582 Y27.551 Z2.000 E0.44078 F2100
G1 X-35.703 Y27.396 Z2.000 E0.04897 F2100
G1 X-36.741 Y25.966 Z2.000 E0.44078 F2100
G1 X-36.859 Y25.809 Z2.000 E0.04899 F2100
G1 X-37.849 Y24.345 Z2.000 E0.44079 F2100
G1 X-37.956 Y24.181 Z2.000 E0.04897 F2100
G1 X-38.863 Y22.664 Z2.000 E0.44078 F2100
G1 X-38.967 Y22.498 Z2.000 E0.04899 F2100
G1 X-39.828 Y20.954 Z2.000 E0.44080 F2100
G1 X-39.920 Y20.781 Z2.000 E0.04897 F2100
G1 X-40.690 Y19.191 Z2.000 E0.44079 F2100
G1 X-40.779 Y19.016 Z2.000 E0.04898 F2100
G1 X-41.503 Y17.404 Z2.000 E0.44079 F2100
G1 X-41.580 Y17.223 Z2.000 E0.04897 F2100
G1 X-42.207 Y15.571 Z2.000 E0.44080 F2100
G1 X-42.280 Y15.389 Z2.000 E0.04898 F2100
G1 X-42.863 Y13.720 Z2.000 E0.44079 F2100
G1 X-42.924 Y13.534 Z2.000 E0.04898 F2100
G1 X-43.403 Y11.833 Z2.000 E0.44080 F2100
G1 X-43.460 Y11.645 Z2.000 E0.04898 F2100
G1 X-43.896 Y9.933 Z2.000 E0.44081 F2100
G1 X-43.941 Y9.741 Z2.000 E0.04898 F2100
G1 X-44.269 Y8.005 Z2.000 E0.44080 F2100
G1 X-44.308 Y7.813 Z2.000 E0.04897 F2100
G1 X-44.595 Y6.069 Z2.000 E0.44080 F2100
G1 X-44.623 Y5.875 Z2.000 E0.04898 F2100
G1 X-44.798 Y4.116 Z2.000 E0.44081 F2100
G1 X-44.820 Y3.921 Z2.000 E0.04897 F2100
G1 X-44.954 Y2.159 Z2.000 E0.44080 F2100
G1 X-44.966 Y1.963 Z2.000 E0.04898 F2100
G1 X-44.986 Y0.196 Z2.000 E0.44081 F2100

; Layer 4, Z=2.500mm, Diameter=127.3mm, Points=576, Amplitude factor=0.01
G1 X-45.000 Y0.000 Z2.500 E0.13404 F2100
G1 X-44.969 Y-1.718 Z2.500 E0.42857 F2100
G1 X-44.958 Y-1.963 Z2.500 E0.06121 F2100
G1 X-44.837 Y-3.676 Z2.500 E0.42852 F2100
G1 X-44.827 Y-3.922 Z2.500 E0.06126 F2100
G1 X-44.650 Y-5.631 Z2.500 E0.42857 F2100
G1 X-44.618 Y-5.874 Z2.500 E0.06122 F2100
G1 X-44.345 Y-7.570 Z2.500 E0.42853 F2100
G1 X-44.313 Y-7.814 Z2.500 E0.06125 F2100
G1 X-43.991 Y-9.501 Z2.500 E0.42857 F2100
G1 X-43.938 Y-9.741 Z2.500 E0.06122 F2100
G1 X-43.515 Y-11.406 Z2.500 E0.42854 F2100
G1 X-43.461 Y-11.646 Z2.500 E0.06125 F2100
G1 X-42.997 Y-13.300 Z2.500 E0.42857 F2100
G1 X-42.923 Y-13.534 Z2.500 E0.06122 F2100
G1 X-42.354 Y-15.154 Z2.500 E0.42854 F2100
G1 X-42.280 Y-15.388 Z2.500 E0.06124 F2100
G1 X-41.675 Y-16.997 Z2.500 E0.42859 F2100
G1 X-41.582 Y-17.224 Z2.500 E0.06122 F2100
G1 X-40.871 Y-18.788 Z2.500 E0.42855 F2100
G1 X-40.776 Y-19.014 Z2.500 E0.06123 F2100
G1 X-40.036 Y-20.565 Z2.500 E0.42858 F2100
G1 X-39.924 Y-20.783 Z2.500 E0.06122 F2100
G1 X-39.077 Y-22.278 Z2.500 E0.42858 F2100
G1 X-38.962 Y-22.495 Z2.500 E0.06123 F2100
G1 X-38.092 Y-23.976 Z2.500 E0.42859 F2100
G1 X-37.962 Y-24.184 Z2.500 E0.06123 F2100
G1 X-36.986 Y-25.598 Z2.500 E0.42858 F2100
G1 X-36.852 Y-25.804 Z2.500 E0.06122 F2100
G1 X-35.858 Y-27.206 Z2.500 E0.42860 F2100
G1 X-35.711 Y-27.402 Z2.500 E0.06123 F2100
G1 X-34.614 Y-28.724 Z2.500 E0.42858 F2100
G1 X-34.462 Y-28.917 Z2.500 E0.06122 F2100
G1 X-33.351 Y-30.228 Z2.500 E0.42860 F2100
G1 X-33.187 Y-30.411 Z2.500 E0.06123 F2100
G1 X-31.978 Y-31.631 Z2.500 E0.42860 F2100
G1 X-31.810 Y-31.810 Z2.500 E0.06121 F2100
G1 X-30.590 Y-33.019 Z2.500 E0.42859 F2100
G1 X-30.411 Y-33.188 Z2.500 E0.06123 F2100
G1 X-29.100 Y-34.298 Z2.500 E0.42863 F2100
G1 X-28.916 Y-34.461 Z2.500 E0.06121 F2100
G1 X-27.595 Y-35.560 Z2.500 E0.42858 F2100
G1 X-27.403 Y-35.713 Z2.500 E0.06123 F2100
G1 X-26.000 Y-36.704 Z2.500 E0.42863 F2100
G1 X-25.802 Y-36.849 Z2.500 E0.06120 F2100
G1 X-24.391 Y-37.830 Z2.500 E0.42858 F2100
G1 X-24.187 Y-37.966 Z2.500 E0.06124 F2100
G1 X-22.702 Y-38.830 Z2.500 E0.42863 F2100
G1 X-22.492 Y-38.958 Z2.500 E0.06120 F2100
G1 X-21.001 Y-39.811 Z2.500 E0.42859 F2100
G1 X-20.786 Y-39.930 Z2.500 E0.06124 F2100
G1 X-19.231 Y-40.662 Z2.500 E0.42863 F2100
G1 X-19.011 Y-40.769 Z2.500 E0.06120 F2100
G1 X-17.451 Y-41.489 Z2.500 E0.42857 F2100
G1 X-17.227 Y-41.589 Z2.500 E0.06125 F2100
G1 X-15.615 Y-42.184 Z2.500 E0.42864 F2100
G1 X-15.385 Y-42.271 Z2.500 E0.06119 F2100
G1 X-13.769 Y-42.852 Z2.500 E0.42856 F2100
G1 X-13.537 Y-42.932 Z2.500 E0.06125 F2100
G1 X-11.879 Y-43.385 Z2.500 E0.42863 F2100
G1 X-11.643 Y-43.451 Z2.500 E0.06119 F2100
G1 X-9.981 Y-43.888 Z2.500 E0.42857 F2100
G1 X-9.743 Y-43.949 Z2.500 E0.06125 F2100
G1 X-8.053 Y-44.256 Z2.500 E0.42863 F2100
G1 X-7.812 Y-44.301 Z2.500 E0.06119 F2100
G1 X-6.118 Y-44.590 Z2.500 E0.42856 F2100
G1 X-5.876 Y-44.630 Z2.500 E0.06126 F2100
G1 X-4.165 Y-44.791 Z2.500 E0.42863 F2100
G1 X-3.921 Y-44.814 Z2.500 E0.06119 F2100
G1 X-2.208 Y-44.952 Z2.500 E0.42855 F2100
G1 X-1.963 Y-44.972 Z2.500 E0.06126 F2100
G1 X-0.245 Y-44.985 Z2.500 E0.42862 F2100
G1 X0.000 Y-44.986 Z2.500 E0.06119 F2100
G1 X1.718 Y-44.972 Z2.500 E0.42854 F2100
G1 X1.963 Y-44.971 Z2.500 E0.06126 F2100
G1 X3.676 Y-44.836 Z2.500 E0.42861 F2100
G1 X3.921 Y-44.816 Z2.500 E0.06119 F2100
G1 X5.631 Y-44.649 Z2.500 E0.42853 F2100
G1 X5.875 Y-44.627 Z2.500 E0.06127 F2100
G1 X7.570 Y-44.347 Z2.500 E0.42861 F2100
G1 X7.812 Y-44.305 Z2.500 E0.06120 F2100
G1 X9.500 Y-43.987 Z2.500 E0.42852 F2100
G1 X9.742 Y-43.944 Z2.500 E0.06127 F2100
G1 X11.407 Y-43.520 Z2.500 E0.42860 F2100
G1 X11.644 Y-43.457 Z2.500 E0.06120 F2100
G1 X13.297 Y-42.990 Z2.500 E0.42851 F2100
G1 X13.535 Y-42.927 Z2.500 E0.06127 F2100
G1 X15.157 Y-42.362 Z2.500 E0.42858 F2100
G1 X15.388 Y-42.278 Z2.500 E0.06120 F2100
G1 X16.993 Y-41.666 Z2.500 E0.42852 F2100
G1 X17.224 Y-41.582 Z2.500 E0.06127 F2100
G1 X18.792 Y-40.881 Z2.500 E0.42858 F2100
G1 X19.015 Y-40.777 Z2.500 E0.06120 F2100
G1 X20.559 Y-40.025 Z2.500 E0.42851 F2100
G1 X20.782 Y-39.921 Z2.500 E0.06127 F2100
G1 X22.285 Y-39.089 Z2.500 E0.42858 F2100
G1 X22.497 Y-38.966 Z2.500 E0.06121 F2100
G1 X23.968 Y-38.079 Z2.500 E0.42850 F2100
G1 X24.181 Y-37.957 Z2.500 E0.06127 F2100
G1 X25.608 Y-37.000 Z2.500 E0.42857 F2100
G1 X25.809 Y-36.858 Z2.500 E0.06121 F2100
G1 X27.195 Y-35.844 Z2.500 E0.42851 F2100
G1 X27.396 Y-35.703 Z2.500 E0.06127 F2100
G1 X28.736 Y-34.629 Z2.500 E0.42856 F2100
G1 X28.924 Y-34.470 Z2.500 E0.06121 F2100
G1 X30.214 Y-33.336 Z2.500 E0.42852 F2100
G1 X30.403 Y-33.179 Z2.500 E0.06127 F2100
G1 X31.646 Y-31.993 Z2.500 E0.42857 F2100
G1 X31.819 Y-31.819 Z2.500 E0.06121 F2100
G1 X33.003 Y-30.575 Z2.500 E0.42851 F2100
G1 X33.177 Y-30.401 Z2.500 E0.06126 F2100
G1 X34.316 Y-29.115 Z2.500 E0.42858 F2100
G1 X34.473 Y-28.926 Z2.500 E0.06122 F2100
G1 X35.541 Y-27.581 Z2.500 E0.42850 F2100
G1 X35.699 Y-27.393 Z2.500 E0.06126 F2100
G1 X36.724 Y-26.014 Z2.500 E0.42858 F2100
G1 X36.864 Y-25.813 Z2.500 E0.06122 F2100
G1 X37.808 Y-24.377 Z2.500 E0.42852 F2100
G1 X37.949 Y-24.176 Z2.500 E0.06125 F2100
G1 X38.853 Y-22.715 Z2.500 E0.42857 F2100
G1 X38.975 Y-22.502 Z2.500 E0.06122 F2100
G1 X39.788 Y-20.989 Z2.500 E0.42854 F2100
G1 X39.910 Y-20.776 Z2.500 E0.06125 F2100
G1 X40.686 Y-19.243 Z2.500 E0.42858 F2100
G1 X40.790 Y-19.021 Z2.500 E0.06122 F2100
G1 X41.464 Y-17.441 Z2.500 E0.42854 F2100
G1 X41.568 Y-17.218 Z2.500 E0.06124 F2100
G1 X42.209 Y-15.624 Z2.500 E0.42859 F2100
G1 X42.294 Y-15.394 Z2.500 E0.06122 F2100
G1 X42.826 Y-13.760 Z2.500 E0.42855 F2100
G1 X42.909 Y-13.529 Z2.500 E0.06123 F2100
G1 X43.411 Y-11.886 Z2.500 E0.42858 F2100
G1 X43.476 Y-11.649 Z2.500 E0.06122 F2100
G1 X43.861 Y-9.975 Z2.500 E0.42858 F2100
G1 X43.923 Y-9.738 Z2.500 E0.06123 F2100
G1 X44.283 Y-8.057 Z2.500 E0.42858 F2100
G1 X44.327 Y-7.816 Z2.500 E0.06123 F2100
G1 X44.563 Y-6.114 Z2.500 E0.42859 F2100
G1 X44.603 Y-5.872 Z2.500 E0.06122 F2100
G1 X44.817 Y-4.167 Z2.500 E0.42859 F2100
G1 X44.841 Y-3.923 Z2.500 E0.06123 F2100
G1 X44.926 Y-2.207 Z2.500 E0.42860 F2100
G1 X44.944 Y-1.962 Z2.500 E0.06122 F2100
G1 X45.010 Y-0.245 Z2.500 E0.42859 F2100
G1 X45.013 Y0.000 Z2.500 E0.06123 F2100
G1 X44.947 Y1.717 Z2.500 E0.42861 F2100
G1 X44.943 Y1.962 Z2.500 E0.06121 F2100
G1 X44.861 Y3.678 Z2.500 E0.42859 F2100
G1 X44.843 Y3.923 Z2.500 E0.06123 F2100
G1 X44.626 Y5.628 Z2.500 E0.42862 F2100
G1 X44.600 Y5.872 Z2.500 E0.06121 F2100
G1 X44.369 Y7.574 Z2.500 E0.42859 F2100
G1 X44.331 Y7.817 Z2.500 E0.06124 F2100
G1 X43.966 Y9.496 Z2.500 E0.42862 F2100
G1 X43.918 Y9.736 Z2.500 E0.06120 F2100
G1 X43.540 Y11.412 Z2.500 E0.42860 F2100
G1 X43.482 Y11.651 Z2.500 E0.06124 F2100
G1 X42.971 Y13.292 Z2.500 E0.42863 F2100
G1 X42.902 Y13.527 Z2.500 E0.06120 F2100
G1 X42.380 Y15.164 Z2.500 E0.42858 F2100
G1 X42.301 Y15.396 Z2.500 E0.06124 F2100
G1 X41.650 Y16.986 Z2.500 E0.42864 F2100
G1 X41.560 Y17.215 Z2.500 E0.06120 F2100
G1 X40.896 Y18.799 Z2.500 E0.42857 F2100
G1 X40.798 Y19.025 Z2.500 E0.06125 F2100
G1 X40.011 Y20.552 Z2.500 E0.42863 F2100
G1 X39.901 Y20.771 Z2.500 E0.06119 F2100
G1 X39.101 Y22.292 Z2.500 E0.42858 F2100
G1 X38.985 Y22.508 Z2.500 E0.06125 F2100
G1 X38.069 Y23.962 Z2.500 E0.42863 F2100
G1 X37.939 Y24.170 Z2.500 E0.06119 F2100
G1 X37.009 Y25.614 Z2.500 E0.42856 F2100
G1 X36.874 Y25.820 Z2.500 E0.06125 F2100
G1 X35.836 Y27.189 Z2.500 E0.42864 F2100
G1 X35.689 Y27.385 Z2.500 E0.06119 F2100
G1 X34.635 Y28.742 Z2.500 E0.42854 F2100
G1 X34.483 Y28.935 Z2.500 E0.06126 F2100
G1 X33.331 Y30.210 Z2.500 E0.42863 F2100
G1 X33.167 Y30.392 Z2.500 E0.06119 F2100
G1 X31.997 Y31.650 Z2.500 E0.42854 F2100
G1 X31.830 Y31.830 Z2.500 E0.06126 F2100
G1 X30.572 Y33.001 Z2.500 E0.42861 F2100
G1 X30.392 Y33.167 Z2.500 E0.06119 F2100
G1 X29.116 Y34.317 Z2.500 E0.42855 F2100
G1 X28.934 Y34.482 Z2.500 E0.06127 F2100
G1 X27.581 Y35.541 Z2.500 E0.42860 F2100
G1 X27.387 Y35.691 Z2.500 E0.06119 F2100
G1 X26.013 Y36.723 Z2.500 E0.42854 F2100
G1 X25.818 Y36.872 Z2.500 E0.06127 F2100
G1 X24.379 Y37.811 Z2.500 E0.42860 F2100
G1 X24.172 Y37.943 Z2.500 E0.06120 F2100
G1 X22.713 Y38.849 Z2.500 E0.42852 F2100
G1 X22.505 Y38.981 Z2.500 E0.06127 F2100
G1 X20.992 Y39.793 Z2.500 E0.42860 F2100
G1 X20.774 Y39.906 Z2.500 E0.06120 F2100
G1 X19.240 Y40.679 Z2.500 E0.42851 F2100
G1 X19.022 Y40.792 Z2.500 E0.06127 F2100
G1 X17.444 Y41.473 Z2.500 E0.42858 F2100
G1 X17.217 Y41.567 Z2.500 E0.06120 F2100
G1 X15.620 Y42.199 Z2.500 E0.42852 F2100
G1 X15.394 Y42.294 Z2.500 E0.06127 F2100
G1 X13.764 Y42.837 Z2.500 E0.42857 F2100
G1 X13.530 Y42.910 Z2.500 E0.06120 F2100
G1 X11.883 Y43.398 Z2.500 E0.42850 F2100
G1 X11.649 Y43.473 Z2.500 E0.06127 F2100
G1 X9.978 Y43.875 Z2.500 E0.42858 F2100
G1 X9.739 Y43.928 Z2.500 E0.06121 F2100
G1 X8.055 Y44.267 Z2.500 E0.42850 F2100
G1 X7.815 Y44.321 Z2.500 E0.06127 F2100
G1 X6.117 Y44.580 Z2.500 E0.42857 F2100
G1 X5.873 Y44.611 Z2.500 E0.06121 F2100
G1 X4.166 Y44.799 Z2.500 E0.42851 F2100
G1 X3.922 Y44.832 Z2.500 E0.06127 F2100
G1 X2.208 Y44.945 Z2.500 E0.42857 F2100
G1 X1.963 Y44.955 Z2.500 E0.06121 F2100
G1 X0.245 Y44.990 Z2.500 E0.42851 F2100
G1 X-0.000 Y45.001 Z2.500 E0.06126 F2100
G1 X-1.718 Y44.968 Z2.500 E0.42857 F2100
G1 X-1.963 Y44.957 Z2.500 E0.06121 F2100
G1 X-3.677 Y44.838 Z2.500 E0.42851 F2100
G1 X-3.922 Y44.828 Z2.500 E0.06126 F2100
G1 X-5.631 Y44.649 Z2.500 E0.42857 F2100
G1 X-5.874 Y44.617 Z2.500 E0.06122 F2100
G1 X-7.570 Y44.345 Z2.500 E0.42852 F2100
G1 X-7.814 Y44.314 Z2.500 E0.06126 F2100
G1 X-9.501 Y43.990 Z2.500 E0.42857 F2100
G1 X-9.741 Y43.937 Z2.500 E0.06122 F2100
G1 X-11.406 Y43.515 Z2.500 E0.42854 F2100
G1 X-11.646 Y43.462 Z2.500 E0.06125 F2100
G1 X-13.299 Y42.996 Z2.500 E0.42857 F2100
G1 X-13.533 Y42.922 Z2.500 E0.06122 F2100
G1 X-15.155 Y42.355 Z2.500 E0.42853 F2100
G1 X-15.389 Y42.280 Z2.500 E0.06124 F2100
G1 X-16.997 Y41.675 Z2.500 E0.42859 F2100
G1 X-17.223 Y41.581 Z2.500 E0.06122 F2100
G1 X-18.788 Y40.871 Z2.500 E0.42855 F2100
G1 X-19.014 Y40.777 Z2.500 E0.06124 F2100
G1 X-20.565 Y40.036 Z2.500 E0.42858 F2100
G1 X-20.783 Y39.923 Z2.500 E0.06122 F2100
G1 X-22.278 Y39.077 Z2.500 E0.42857 F2100
G1 X-22.495 Y38.963 Z2.500 E0.06123 F2100
G1 X-23.976 Y38.092 Z2.500 E0.42858 F2100
G1 X-24.184 Y37.961 Z2.500 E0.06123 F2100
G1 X-25.599 Y36.986 Z2.500 E0.42857 F2100
G1 X-25.805 Y36.853 Z2.500 E0.06123 F2100
G1 X-27.205 Y35.858 Z2.500 E0.42859 F2100
G1 X-27.401 Y35.710 Z2.500 E0.06123 F2100
G1 X-28.724 Y34.614 Z2.500 E0.42858 F2100
G1 X-28.918 Y34.463 Z2.500 E0.06122 F2100
G1 X-30.227 Y33.351 Z2.500 E0.42860 F2100
G1 X-30.410 Y33.187 Z2.500 E0.06123 F2100
G1 X-31.632 Y31.978 Z2.500 E0.42860 F2100
G1 X-31.810 Y31.810 Z2.500 E0.06121 F2100
G1 X-33.019 Y30.590 Z2.500 E0.42859 F2100
G1 X-33.188 Y30.411 Z2.500 E0.06123 F2100
G1 X-34.298 Y29.100 Z2.500 E0.42862 F2100
G1 X-34.461 Y28.916 Z2.500 E0.06121 F2100
G1 X-35.560 Y27.595 Z2.500 E0.42858 F2100
G1 X-35.712 Y27.403 Z2.500 E0.06123 F2100
G1 X-36.704 Y26.000 Z2.500 E0.42863 F2100
G1 X-36.850 Y25.802 Z2.500 E0.06121 F2100
G1 X-37.830 Y24.391 Z2.500 E0.42858 F2100
G1 X-37.965 Y24.187 Z2.500 E0.06124 F2100
G1 X-38.830 Y22.702 Z2.500 E0.42863 F2100
G1 X-38.958 Y22.492 Z2.500 E0.06120 F2100
G1 X-39.811 Y21.001 Z2.500 E0.42859 F2100
G1 X-39.929 Y20.786 Z2.500 E0.06124 F2100
G1 X-40.661 Y19.231 Z2.500 E0.42863 F2100
G1 X-40.769 Y19.011 Z2.500 E0.06120 F2100
G1 X-41.490 Y17.451 Z2.500 E0.42858 F2100
G1 X-41.589 Y17.227 Z2.500 E0.06124 F2100
G1 X-42.183 Y15.614 Z2.500 E0.42864 F2100
G1 X-42.271 Y15.385 Z2.500 E0.06120 F2100
G1 X-42.852 Y13.769 Z2.500 E0.42857 F2100
G1 X-42.932 Y13.537 Z2.500 E0.06125 F2100
G1 X-43.384 Y11.879 Z2.500 E0.42863 F2100
G1 X-43.451 Y11.643 Z2.500 E0.06119 F2100
G1 X-43.888 Y9.981 Z2.500 E0.42858 F2100
G1 X-43.949 Y9.743 Z2.500 E0.06125 F2100
G1 X-44.255 Y8.053 Z2.500 E0.42863 F2100
G1 X-44.301 Y7.811 Z2.500 E0.06119 F2100
G1 X-44.590 Y6.118 Z2.500 E0.42856 F2100
G1 X-44.630 Y5.876 Z2.500 E0.06126 F2100
G1 X-44.790 Y4.165 Z2.500 E0.42863 F2100
G1 X-44.814 Y3.921 Z2.500 E0.06119 F2100
G1 X-44.953 Y2.208 Z2.500 E0.42855 F2100
G1 X-44.972 Y1.964 Z2.500 E0.06126 F2100
G1 X-44.984 Y0.245 Z2.500 E0.42862 F2100

; Layer 5, Z=3.000mm, Diameter=127.3mm, Points=576, Amplitude factor=0.01
G1 X-45.000 Y0.000 Z3.000 E0.13899 F2100
G1 X-44.975 Y-1.669 Z3.000 E0.41635 F2100
G1 X-44.959 Y-1.963 Z3.000 E0.07347 F2100
G1 X-44.836 Y-3.627 Z3.000 E0.41627 F2100
G1 X-44.826 Y-3.922 Z3.000 E0.07354 F2100
G1 X-44.661 Y-5.583 Z3.000 E0.41635 F2100
G1 X-44.619 Y-5.874 Z3.000 E0.07347 F2100
G1 X-44.347 Y-7.521 Z3.000 E0.41629 F2100
G1 X-44.311 Y-7.813 Z3.000 E0.07353 F2100
G1 X-44.006 Y-9.454 Z3.000 E0.41636 F2100
G1 X-43.940 Y-9.741 Z3.000 E0.07347 F2100
G1 X-43.521 Y-11.357 Z3.000 E0.41631 F2100
G1 X-43.459 Y-11.645 Z3.000 E0.07352 F2100
G1 X-43.016 Y-13.254 Z3.000 E0.41636 F2100
G1 X-42.926 Y-13.535 Z3.000 E0.07348 F2100
G1 X-42.364 Y-15.106 Z3.000 E0.41632 F2100
G1 X-42.277 Y-15.387 Z3.000 E0.07350 F2100
G1 X-41.699 Y-16.954 Z3.000 E0.41639 F2100
G1 X-41.585 Y-17.225 Z3.000 E0.07348 F2100
G1 X-40.884 Y-18.740 Z3.000 E0.41635 F2100
G1 X-40.772 Y-19.013 Z3.000 E0.07349 F2100
G1 X-40.064 Y-20.524 Z3.000 E0.41639 F2100
G1 X-39.928 Y-20.785 Z3.000 E0.07348 F2100
G1 X-39.095 Y-22.231 Z3.000 E0.41638 F2100
G1 X-38.958 Y-22.493 Z3.000 E0.07348 F2100
G1 X-38.124 Y-23.938 Z3.000 E0.41639 F2100
G1 X-37.966 Y-24.187 Z3.000 E0.07348 F2100
G1 X-37.007 Y-25.554 Z3.000 E0.41639 F2100
G1 X-36.848 Y-25.801 Z3.000 E0.07347 F2100
G1 X-35.893 Y-27.170 Z3.000 E0.41641 F2100
G1 X-35.715 Y-27.405 Z3.000 E0.07348 F2100
G1 X-34.639 Y-28.681 Z3.000 E0.41641 F2100
G1 X-34.458 Y-28.914 Z3.000 E0.07346 F2100
G1 X-33.389 Y-30.195 Z3.000 E0.41642 F2100
G1 X-33.192 Y-30.414 Z3.000 E0.07349 F2100
G1 X-32.007 Y-31.591 Z3.000 E0.41644 F2100
G1 X-31.806 Y-31.806 Z3.000 E0.07345 F2100
G1 X-30.630 Y-32.991 Z3.000 E0.41641 F2100
G1 X-30.415 Y-33.193 Z3.000 E0.07349 F2100
G1 X-29.132 Y-34.260 Z3.000 E0.41647 F2100
G1 X-28.912 Y-34.456 Z3.000 E0.07344 F2100
G1 X-27.638 Y-35.535 Z3.000 E0.41640 F2100
G1 X-27.407 Y-35.718 Z3.000 E0.07349 F2100
G1 X-26.035 Y-36.669 Z3.000 E0.41648 F2100
G1 X-25.798 Y-36.844 Z3.000 E0.07343 F2100
G1 X-24.436 Y-37.808 Z3.000 E0.41640 F2100
G1 X-24.190 Y-37.971 Z3.000 E0.07350 F2100
G1 X-22.741 Y-38.799 Z3.000 E0.41648 F2100
G1 X-22.489 Y-38.952 Z3.000 E0.07343 F2100
G1 X-21.047 Y-39.793 Z3.000 E0.41640 F2100
G1 X-20.789 Y-39.936 Z3.000 E0.07351 F2100
G1 X-19.273 Y-40.634 Z3.000 E0.41648 F2100
G1 X-19.008 Y-40.763 Z3.000 E0.07342 F2100
G1 X-17.498 Y-41.475 Z3.000 E0.41638 F2100
G1 X-17.230 Y-41.596 Z3.000 E0.07351 F2100
G1 X-15.658 Y-42.161 Z3.000 E0.41649 F2100
G1 X-15.383 Y-42.265 Z3.000 E0.07342 F2100
G1 X-13.817 Y-42.841 Z3.000 E0.41637 F2100
G1 X-13.539 Y-42.939 Z3.000 E0.07352 F2100
G1 X-11.925 Y-43.366 Z3.000 E0.41647 F2100
G1 X-11.641 Y-43.445 Z3.000 E0.07342 F2100
G1 X-10.030 Y-43.881 Z3.000 E0.41637 F2100
G1 X-9.745 Y-43.955 Z3.000 E0.07353 F2100
G1 X-8.100 Y-44.242 Z3.000 E0.41647 F2100
G1 X-7.810 Y-44.295 Z3.000 E0.07342 F2100
G1 X-6.167 Y-44.586 Z3.000 E0.41635 F2100
G1 X-5.877 Y-44.637 Z3.000 E0.07353 F2100
G1 X-4.213 Y-44.782 Z3.000 E0.41646 F2100
G1 X-3.920 Y-44.808 Z3.000 E0.07342 F2100
G1 X-2.257 Y-44.952 Z3.000 E0.41633 F2100
G1 X-1.964 Y-44.978 Z3.000 E0.07354 F2100
G1 X-0.294 Y-44.981 Z3.000 E0.41644 F2100
G1 X0.000 Y-44.980 Z3.000 E0.07342 F2100
G1 X1.669 Y-44.976 Z3.000 E0.41631 F2100
G1 X1.964 Y-44.977 Z3.000 E0.07355 F2100
G1 X3.627 Y-44.837 Z3.000 E0.41643 F2100
G1 X3.920 Y-44.810 Z3.000 E0.07343 F2100
G1 X5.582 Y-44.657 Z3.000 E0.41629 F2100
G1 X5.876 Y-44.633 Z3.000 E0.07355 F2100
G1 X7.522 Y-44.353 Z3.000 E0.41641 F2100
G1 X7.811 Y-44.299 Z3.000 E0.07343 F2100
G1 X9.452 Y-43.998 Z3.000 E0.41627 F2100
G1 X9.743 Y-43.949 Z3.000 E0.07356 F2100
G1 X11.359 Y-43.531 Z3.000 E0.41640 F2100
G1 X11.643 Y-43.452 Z3.000 E0.07344 F2100
G1 X13.250 Y-43.004 Z3.000 E0.41626 F2100
G1 X13.536 Y-42.931 Z3.000 E0.07356 F2100
G1 X15.111 Y-42.378 Z3.000 E0.41637 F2100
G1 X15.386 Y-42.274 Z3.000 E0.07344 F2100
G1 X16.947 Y-41.683 Z3.000 E0.41626 F2100
G1 X17.225 Y-41.586 Z3.000 E0.07357 F2100
G1 X18.748 Y-40.902 Z3.000 E0.41636 F2100
G1 X19.013 Y-40.774 Z3.000 E0.07345 F2100
G1 X20.514 Y-40.045 Z3.000 E0.41624 F2100
G1 X20.783 Y-39.924 Z3.000 E0.07356 F2100
G1 X22.243 Y-39.114 Z3.000 E0.41636 F2100
G1 X22.496 Y-38.964 Z3.000 E0.07346 F2100
G1 X23.925 Y-38.103 Z3.000 E0.41624 F2100
G1 X24.182 Y-37.959 Z3.000 E0.07356 F2100
G1 X25.569 Y-37.029 Z3.000 E0.41634 F2100
G1 X25.807 Y-36.857 Z3.000 E0.07346 F2100
G1 X27.153 Y-35.870 Z3.000 E0.41625 F2100
G1 X27.397 Y-35.705 Z3.000 E0.07356 F2100
G1 X28.700 Y-34.662 Z3.000 E0.41633 F2100
G1 X28.923 Y-34.469 Z3.000 E0.07346 F2100
G1 X30.175 Y-33.365 Z3.000 E0.41626 F2100
G1 X30.403 Y-33.179 Z3.000 E0.07355 F2100
G1 X31.614 Y-32.030 Z3.000 E0.41634 F2100
G1 X31.819 Y-31.819 Z3.000 E0.07347 F2100
G1 X32.966 Y-30.607 Z3.000 E0.41625 F2100
G1 X33.177 Y-30.401 Z3.000 E0.07354 F2100
G1 X34.287 Y-29.155 Z3.000 E0.41636 F2100
G1 X34.473 Y-28.927 Z3.000 E0.07347 F2100
G1 X35.506 Y-27.616 Z3.000 E0.41626 F2100
G1 X35.698 Y-27.392 Z3.000 E0.07353 F2100
G1 X36.699 Y-26.057 Z3.000 E0.41636 F2100
G1 X36.866 Y-25.813 Z3.000 E0.07347 F2100
G1 X37.776 Y-24.415 Z3.000 E0.41628 F2100
G1 X37.948 Y-24.175 Z3.000 E0.07352 F2100
G1 X38.832 Y-22.760 Z3.000 E0.41636 F2100
G1 X38.977 Y-22.504 Z3.000 E0.07348 F2100
G1 X39.759 Y-21.029 Z3.000 E0.41631 F2100
G1 X39.908 Y-20.775 Z3.000 E0.07352 F2100
G1 X40.670 Y-19.290 Z3.000 E0.41637 F2100
G1 X40.792 Y-19.022 Z3.000 E0.07348 F2100
G1 X41.439 Y-17.483 Z3.000 E0.41633 F2100
G1 X41.565 Y-17.217 Z3.000 E0.07350 F2100
G1 X42.198 Y-15.672 Z3.000 E0.41639 F2100
G1 X42.297 Y-15.395 Z3.000 E0.07348 F2100
G1 X42.804 Y-13.805 Z3.000 E0.41635 F2100
G1 X42.905 Y-13.528 Z3.000 E0.07349 F2100
G1 X43.404 Y-11.935 Z3.000 E0.41639 F2100
G1 X43.480 Y-11.651 Z3.000 E0.07348 F2100
G1 X43.843 Y-10.021 Z3.000 E0.41639 F2100
G1 X43.919 Y-9.737 Z3.000 E0.07348 F2100
G1 X44.280 Y-8.107 Z3.000 E0.41639 F2100
G1 X44.332 Y-7.817 Z3.000 E0.07348 F2100
G1 X44.548 Y-6.162 Z3.000 E0.41641 F2100
G1 X44.598 Y-5.871 Z3.000 E0.07347 F2100
G1 X44.819 Y-4.217 Z3.000 E0.41640 F2100
G1 X44.847 Y-3.924 Z3.000 E0.07348 F2100
G1 X44.915 Y-2.256 Z3.000 E0.41643 F2100
G1 X44.939 Y-1.962 Z3.000 E0.07346 F2100
G1 X45.016 Y-0.295 Z3.000 E0.41641 F2100
G1 X45.019 Y0.000 Z3.000 E0.07349 F2100
G1 X44.941 Y1.668 Z3.000 E0.41644 F2100
G1 X44.937 Y1.962 Z3.000 E0.07345 F2100
G1 X44.871 Y3.630 Z3.000 E0.41641 F2100
G1 X44.849 Y3.924 Z3.000 E0.07349 F2100
G1 X44.624 Y5.578 Z3.000 E0.41646 F2100
G1 X44.594 Y5.871 Z3.000 E0.07344 F2100
G1 X44.384 Y7.527 Z3.000 E0.41641 F2100
G1 X44.338 Y7.818 Z3.000 E0.07350 F2100
G1 X43.969 Y9.446 Z3.000 E0.41647 F2100
G1 X43.912 Y9.735 Z3.000 E0.07343 F2100
G1 X43.558 Y11.366 Z3.000 E0.41641 F2100
G1 X43.488 Y11.653 Z3.000 E0.07350 F2100
G1 X42.979 Y13.243 Z3.000 E0.41648 F2100
G1 X42.896 Y13.525 Z3.000 E0.07342 F2100
G1 X42.401 Y15.119 Z3.000 E0.41639 F2100
G1 X42.308 Y15.399 Z3.000 E0.07351 F2100
G1 X41.662 Y16.938 Z3.000 E0.41649 F2100
G1 X41.553 Y17.212 Z3.000 E0.07342 F2100
G1 X40.921 Y18.757 Z3.000 E0.41638 F2100
G1 X40.805 Y19.028 Z3.000 E0.07351 F2100
G1 X40.028 Y20.506 Z3.000 E0.41648 F2100
G1 X39.895 Y20.768 Z3.000 E0.07342 F2100
G1 X39.129 Y22.251 Z3.000 E0.41638 F2100
G1 X38.991 Y22.511 Z3.000 E0.07352 F2100
G1 X38.090 Y23.917 Z3.000 E0.41647 F2100
G1 X37.934 Y24.166 Z3.000 E0.07342 F2100
G1 X37.040 Y25.576 Z3.000 E0.41635 F2100
G1 X36.880 Y25.824 Z3.000 E0.07353 F2100
G1 X35.862 Y27.147 Z3.000 E0.41647 F2100
G1 X35.683 Y27.381 Z3.000 E0.07342 F2100
G1 X34.668 Y28.706 Z3.000 E0.41633 F2100
G1 X34.488 Y28.939 Z3.000 E0.07353 F2100
G1 X33.361 Y30.170 Z3.000 E0.41646 F2100
G1 X33.162 Y30.387 Z3.000 E0.07342 F2100
G1 X32.033 Y31.617 Z3.000 E0.41632 F2100
G1 X31.834 Y31.834 Z3.000 E0.07354 F2100
G1 X30.606 Y32.965 Z3.000 E0.41643 F2100
G1 X30.388 Y33.163 Z3.000 E0.07343 F2100
G1 X29.154 Y34.287 Z3.000 E0.41631 F2100
G1 X28.938 Y34.487 Z3.000 E0.07355 F2100
G1 X27.618 Y35.508 Z3.000 E0.41641 F2100
G1 X27.383 Y35.686 Z3.000 E0.07343 F2100
G1 X26.054 Y36.695 Z3.000 E0.41629 F2100
G1 X25.821 Y36.876 Z3.000 E0.07356 F2100
G1 X24.419 Y37.782 Z3.000 E0.41640 F2100
G1 X24.170 Y37.939 Z3.000 E0.07343 F2100
G1 X22.755 Y38.824 Z3.000 E0.41627 F2100
G1 X22.508 Y38.985 Z3.000 E0.07356 F2100
G1 X21.034 Y39.769 Z3.000 E0.41640 F2100
G1 X20.772 Y39.902 Z3.000 E0.07344 F2100
G1 X19.284 Y40.657 Z3.000 E0.41626 F2100
G1 X19.024 Y40.796 Z3.000 E0.07356 F2100
G1 X17.489 Y41.453 Z3.000 E0.41637 F2100
G1 X17.216 Y41.563 Z3.000 E0.07345 F2100
G1 X15.666 Y42.181 Z3.000 E0.41626 F2100
G1 X15.395 Y42.297 Z3.000 E0.07357 F2100
G1 X13.811 Y42.823 Z3.000 E0.41636 F2100
G1 X13.529 Y42.907 Z3.000 E0.07345 F2100
G1 X11.929 Y43.383 Z3.000 E0.41624 F2100
G1 X11.649 Y43.476 Z3.000 E0.07356 F2100
G1 X10.026 Y43.866 Z3.000 E0.41636 F2100
G1 X9.738 Y43.926 Z3.000 E0.07346 F2100
G1 X8.102 Y44.255 Z3.000 E0.41623 F2100
G1 X7.815 Y44.323 Z3.000 E0.07356 F2100
G1 X6.165 Y44.575 Z3.000 E0.41635 F2100
G1 X5.873 Y44.610 Z3.000 E0.07346 F2100
G1 X4.214 Y44.790 Z3.000 E0.41624 F2100
G1 X3.922 Y44.833 Z3.000 E0.07356 F2100
G1 X2.257 Y44.946 Z3.000 E0.41635 F2100
G1 X1.963 Y44.954 Z3.000 E0.07347 F2100
G1 X0.294 Y44.985 Z3.000 E0.41625 F2100
G1 X-0.000 Y45.001 Z3.000 E0.07355 F2100
G1 X-1.669 Y44.974 Z3.000 E0.41634 F2100
G1 X-1.963 Y44.957 Z3.000 E0.07347 F2100
G1 X-3.627 Y44.837 Z3.000 E0.41626 F2100
G1 X-3.922 Y44.828 Z3.000 E0.07354 F2100
G1 X-5.582 Y44.659 Z3.000 E0.41635 F2100
G1 X-5.874 Y44.617 Z3.000 E0.07347 F2100
G1 X-7.521 Y44.348 Z3.000 E0.41628 F2100
G1 X-7.814 Y44.313 Z3.000 E0.07353 F2100
G1 X-9.454 Y44.005 Z3.000 E0.41635 F2100
G1 X-9.741 Y43.938 Z3.000 E0.07347 F2100
G1 X-11.357 Y43.522 Z3.000 E0.41630 F2100
G1 X-11.645 Y43.461 Z3.000 E0.07352 F2100
G1 X-13.254 Y43.015 Z3.000 E0.41636 F2100
G1 X-13.534 Y42.925 Z3.000 E0.07348 F2100
G1 X-15.106 Y42.364 Z3.000 E0.41631 F2100
G1 X-15.388 Y42.278 Z3.000 E0.07351 F2100
G1 X-16.953 Y41.698 Z3.000 E0.41638 F2100
G1 X-17.225 Y41.584 Z3.000 E0.07348 F2100
G1 X-18.740 Y40.885 Z3.000 E0.41633 F2100
G1 X-19.013 Y40.774 Z3.000 E0.07350 F2100
G1 X-20.524 Y40.063 Z3.000 E0.41638 F2100
G1 X-20.784 Y39.926 Z3.000 E0.07348 F2100
G1 X-22.232 Y39.095 Z3.000 E0.41637 F2100
G1 X-22.493 Y38.959 Z3.000 E0.07349 F2100
G1 X-23.938 Y38.123 Z3.000 E0.41639 F2100
G1 X-24.186 Y37.965 Z3.000 E0.07348 F2100
G1 X-25.554 Y37.008 Z3.000 E0.41638 F2100
G1 X-25.802 Y36.849 Z3.000 E0.07347 F2100
G1 X-27.170 Y35.892 Z3.000 E0.41640 F2100
G1 X-27.404 Y35.714 Z3.000 E0.07348 F2100
G1 X-28.682 Y34.639 Z3.000 E0.41640 F2100
G1 X-28.914 Y34.459 Z3.000 E0.07346 F2100
G1 X-30.195 Y33.388 Z3.000 E0.41641 F2100
G1 X-30.414 Y33.191 Z3.000 E0.07349 F2100
G1 X-31.591 Y32.007 Z3.000 E0.41643 F2100
G1 X-31.806 Y31.806 Z3.000 E0.07345 F2100
G1 X-32.991 Y30.630 Z3.000 E0.41641 F2100
G1 X-33.192 Y30.415 Z3.000 E0.07349 F2100
G1 X-34.260 Y29.132 Z3.000 E0.41646 F2100
G1 X-34.456 Y28.912 Z3.000 E0.07345 F2100
G1 X-35.535 Y27.638 Z3.000 E0.41640 F2100
G1 X-35.717 Y27.407 Z3.000 E0.07349 F2100
G1 X-36.669 Y26.035 Z3.000 E0.41647 F2100
G1 X-36.844 Y25.799 Z3.000 E0.07344 F2100
G1 X-37.808 Y24.436 Z3.000 E0.41640 F2100
G1 X-37.971 Y24.190 Z3.000 E0.07350 F2100
G1 X-38.799 Y22.740 Z3.000 E0.41647 F2100
G1 X-38.952 Y22.489 Z3.000 E0.07343 F2100
G1 X-39.793 Y21.047 Z3.000 E0.41641 F2100
G1 X-39.935 Y20.789 Z3.000 E0.07350 F2100
G1 X-40.634 Y19.273 Z3.000 E0.41648 F2100
G1 X-40.763 Y19.008 Z3.000 E0.07342 F2100
G1 X-41.476 Y17.499 Z3.000 E0.41639 F2100
G1 X-41.596 Y17.230 Z3.000 E0.07351 F2100
G1 X-42.160 Y15.658 Z3.000 E0.41649 F2100
G1 X-42.265 Y15.383 Z3.000 E0.07342 F2100
G1 X-42.842 Y13.817 Z3.000 E0.41638 F2100
G1 X-42.939 Y13.539 Z3.000 E0.07351 F2100
G1 X-43.365 Y11.924 Z3.000 E0.41648 F2100
G1 X-43.445 Y11.641 Z3.000 E0.07342 F2100
G1 X-43.882 Y10.030 Z3.000 E0.41638 F2100
G1 X-43.955 Y9.745 Z3.000 E0.07352 F2100
G1 X-44.241 Y8.100 Z3.000 E0.41647 F2100
G1 X-44.294 Y7.810 Z3.000 E0.07342 F2100
G1 X-44.587 Y6.167 Z3.000 E0.41635 F2100
G1 X-44.637 Y5.877 Z3.000 E0.07353 F2100
G1 X-44.781 Y4.213 Z3.000 E0.41646 F2100
G1 X-44.807 Y3.920 Z3.000 E0.07342 F2100
G1 X-44.953 Y2.258 Z3.000 E0.41634 F2100
G1 X-44.978 Y1.964 Z3.000 E0.07354 F2100
G1 X-44.979 Y0.294 Z3.000 E0.41645 F2100

; Layer 6, Z=3.500mm, Diameter=127.3mm, Points=576, Amplitude factor=0.02
G1 X-45.024 Y-0.000 Z3.500 E0.14516 F2100
G1 X-44.956 Y-1.619 Z3.500 E0.40423 F2100
G1 X-44.934 Y-1.962 Z3.500 E0.08569 F2100
G1 X-44.858 Y-3.580 Z3.500 E0.40402 F2100
G1 X-44.850 Y-3.924 Z3.500 E0.08588 F2100
G1 X-44.647 Y-5.532 Z3.500 E0.40420 F2100
G1 X-44.595 Y-5.871 Z3.500 E0.08570 F2100
G1 X-44.372 Y-7.475 Z3.500 E0.40399 F2100
G1 X-44.335 Y-7.817 Z3.500 E0.08589 F2100
G1 X-43.999 Y-9.403 Z3.500 E0.40418 F2100
G1 X-43.916 Y-9.736 Z3.500 E0.08571 F2100
G1 X-43.548 Y-11.313 Z3.500 E0.40398 F2100
G1 X-43.482 Y-11.651 Z3.500 E0.08589 F2100
G1 X-43.016 Y-13.203 Z3.500 E0.40416 F2100
G1 X-42.904 Y-13.528 Z3.500 E0.08572 F2100
G1 X-42.393 Y-15.064 Z3.500 E0.40396 F2100
G1 X-42.298 Y-15.395 Z3.500 E0.08589 F2100
G1 X-41.704 Y-16.903 Z3.500 E0.40415 F2100
G1 X-41.565 Y-17.217 Z3.500 E0.08573 F2100
G1 X-40.915 Y-18.700 Z3.500 E0.40396 F2100
G1 X-40.792 Y-19.022 Z3.500 E0.08588 F2100
G1 X-40.076 Y-20.475 Z3.500 E0.40413 F2100
G1 X-39.909 Y-20.775 Z3.500 E0.08574 F2100
G1 X-39.127 Y-22.193 Z3.500 E0.40397 F2100
G1 X-38.976 Y-22.503 Z3.500 E0.08588 F2100
G1 X-38.142 Y-23.891 Z3.500 E0.40413 F2100
G1 X-37.949 Y-24.176 Z3.500 E0.08574 F2100
G1 X-37.041 Y-25.517 Z3.500 E0.40398 F2100
G1 X-36.863 Y-25.812 Z3.500 E0.08586 F2100
G1 X-35.917 Y-27.127 Z3.500 E0.40414 F2100
G1 X-35.701 Y-27.394 Z3.500 E0.08575 F2100
G1 X-34.674 Y-28.646 Z3.500 E0.40400 F2100
G1 X-34.471 Y-28.924 Z3.500 E0.08585 F2100
G1 X-33.418 Y-30.156 Z3.500 E0.40415 F2100
G1 X-33.180 Y-30.404 Z3.500 E0.08575 F2100
G1 X-32.043 Y-31.557 Z3.500 E0.40404 F2100
G1 X-31.816 Y-31.816 Z3.500 E0.08583 F2100
G1 X-30.664 Y-32.956 Z3.500 E0.40415 F2100
G1 X-30.406 Y-33.183 Z3.500 E0.08575 F2100
G1 X-29.169 Y-34.228 Z3.500 E0.40408 F2100
G1 X-28.920 Y-34.465 Z3.500 E0.08582 F2100
G1 X-27.677 Y-35.505 Z3.500 E0.40416 F2100
G1 X-27.401 Y-35.709 Z3.500 E0.08574 F2100
G1 X-26.073 Y-36.638 Z3.500 E0.40412 F2100
G1 X-25.804 Y-36.852 Z3.500 E0.08579 F2100
G1 X-24.478 Y-37.784 Z3.500 E0.40418 F2100
G1 X-24.186 Y-37.964 Z3.500 E0.08574 F2100
G1 X-22.780 Y-38.770 Z3.500 E0.40416 F2100
G1 X-22.492 Y-38.958 Z3.500 E0.08577 F2100
G1 X-21.093 Y-39.775 Z3.500 E0.40421 F2100
G1 X-20.786 Y-39.930 Z3.500 E0.08575 F2100
G1 X-19.314 Y-40.606 Z3.500 E0.40420 F2100
G1 X-19.010 Y-40.767 Z3.500 E0.08575 F2100
G1 X-17.547 Y-41.463 Z3.500 E0.40422 F2100
G1 X-17.228 Y-41.593 Z3.500 E0.08574 F2100
G1 X-15.701 Y-42.134 Z3.500 E0.40425 F2100
G1 X-15.384 Y-42.266 Z3.500 E0.08573 F2100
G1 X-13.867 Y-42.836 Z3.500 E0.40424 F2100
G1 X-13.539 Y-42.939 Z3.500 E0.08574 F2100
G1 X-11.969 Y-43.341 Z3.500 E0.40428 F2100
G1 X-11.641 Y-43.444 Z3.500 E0.08571 F2100
G1 X-10.080 Y-43.882 Z3.500 E0.40427 F2100
G1 X-9.745 Y-43.957 Z3.500 E0.08575 F2100
G1 X-8.146 Y-44.219 Z3.500 E0.40431 F2100
G1 X-7.810 Y-44.291 Z3.500 E0.08569 F2100
G1 X-6.218 Y-44.594 Z3.500 E0.40427 F2100
G1 X-5.877 Y-44.642 Z3.500 E0.08575 F2100
G1 X-4.261 Y-44.760 Z3.500 E0.40434 F2100
G1 X-3.920 Y-44.801 Z3.500 E0.08567 F2100
G1 X-2.307 Y-44.966 Z3.500 E0.40427 F2100
G1 X-1.964 Y-44.986 Z3.500 E0.08576 F2100
G1 X-0.343 Y-44.962 Z3.500 E0.40436 F2100
G1 X0.000 Y-44.971 Z3.500 E0.08566 F2100
G1 X1.620 Y-44.995 Z3.500 E0.40427 F2100
G1 X1.964 Y-44.987 Z3.500 E0.08576 F2100
G1 X3.577 Y-44.821 Z3.500 E0.40438 F2100
G1 X3.919 Y-44.799 Z3.500 E0.08565 F2100
G1 X5.536 Y-44.682 Z3.500 E0.40426 F2100
G1 X5.878 Y-44.645 Z3.500 E0.08577 F2100
G1 X7.470 Y-44.340 Z3.500 E0.40439 F2100
G1 X7.809 Y-44.286 Z3.500 E0.08564 F2100
G1 X9.409 Y-44.028 Z3.500 E0.40425 F2100
G1 X9.747 Y-43.964 Z3.500 E0.08578 F2100
G1 X11.306 Y-43.522 Z3.500 E0.40439 F2100
G1 X11.639 Y-43.437 Z3.500 E0.08564 F2100
G1 X13.210 Y-43.039 Z3.500 E0.40423 F2100
G1 X13.541 Y-42.947 Z3.500 E0.08579 F2100
G1 X15.057 Y-42.373 Z3.500 E0.40437 F2100
G1 X15.380 Y-42.257 Z3.500 E0.08564 F2100
G1 X16.910 Y-41.722 Z3.500 E0.40421 F2100
G1 X17.233 Y-41.603 Z3.500 E0.08581 F2100
G1 X18.694 Y-40.901 Z3.500 E0.40435 F2100
G1 X19.005 Y-40.756 Z3.500 E0.08564 F2100
G1 X20.480 Y-40.087 Z3.500 E0.40417 F2100
G1 X20.793 Y-39.942 Z3.500 E0.08582 F2100
G1 X22.189 Y-39.119 Z3.500 E0.40434 F2100
G1 X22.485 Y-38.945 Z3.500 E0.08565 F2100
G1 X23.895 Y-38.147 Z3.500 E0.40414 F2100
G1 X24.194 Y-37.977 Z3.500 E0.08584 F2100
G1 X25.515 Y-37.038 Z3.500 E0.40431 F2100
G1 X25.795 Y-36.839 Z3.500 E0.08566 F2100
G1 X27.127 Y-35.917 Z3.500 E0.40411 F2100
G1 X27.411 Y-35.723 Z3.500 E0.08585 F2100
G1 X28.648 Y-34.676 Z3.500 E0.40427 F2100
G1 X28.908 Y-34.452 Z3.500 E0.08567 F2100
G1 X30.152 Y-33.414 Z3.500 E0.40408 F2100
G1 X30.419 Y-33.196 Z3.500 E0.08586 F2100
G1 X31.564 Y-32.049 Z3.500 E0.40425 F2100
G1 X31.802 Y-31.802 Z3.500 E0.08568 F2100
G1 X32.947 Y-30.656 Z3.500 E0.40404 F2100
G1 X33.195 Y-30.417 Z3.500 E0.08587 F2100
G1 X34.240 Y-29.179 Z3.500 E0.40423 F2100
G1 X34.455 Y-28.911 Z3.500 E0.08569 F2100
G1 X35.491 Y-27.666 Z3.500 E0.40400 F2100
G1 X35.717 Y-27.407 Z3.500 E0.08588 F2100
G1 X36.655 Y-26.086 Z3.500 E0.40420 F2100
G1 X36.846 Y-25.800 Z3.500 E0.08570 F2100
G1 X37.764 Y-24.465 Z3.500 E0.40398 F2100
G1 X37.968 Y-24.188 Z3.500 E0.08588 F2100
G1 X38.792 Y-22.793 Z3.500 E0.40417 F2100
G1 X38.957 Y-22.492 Z3.500 E0.08571 F2100
G1 X39.749 Y-21.079 Z3.500 E0.40398 F2100
G1 X39.929 Y-20.786 Z3.500 E0.08589 F2100
G1 X40.635 Y-19.327 Z3.500 E0.40415 F2100
G1 X40.772 Y-19.012 Z3.500 E0.08572 F2100
G1 X41.432 Y-17.533 Z3.500 E0.40396 F2100
G1 X41.585 Y-17.225 Z3.500 E0.08589 F2100
G1 X42.168 Y-15.713 Z3.500 E0.40415 F2100
G1 X42.277 Y-15.387 Z3.500 E0.08573 F2100
G1 X42.799 Y-13.855 Z3.500 E0.40396 F2100
G1 X42.925 Y-13.534 Z3.500 E0.08588 F2100
G1 X43.380 Y-11.979 Z3.500 E0.40413 F2100
G1 X43.460 Y-11.645 Z3.500 E0.08574 F2100
G1 X43.840 Y-10.071 Z3.500 E0.40398 F2100
G1 X43.938 Y-9.741 Z3.500 E0.08588 F2100
G1 X44.262 Y-8.154 Z3.500 E0.40413 F2100
G1 X44.313 Y-7.814 Z3.500 E0.08574 F2100
G1 X44.548 Y-6.211 Z3.500 E0.40399 F2100
G1 X44.616 Y-5.874 Z3.500 E0.08586 F2100
G1 X44.808 Y-4.265 Z3.500 E0.40413 F2100
G1 X44.829 Y-3.922 Z3.500 E0.08574 F2100
G1 X44.917 Y-2.305 Z3.500 E0.40402 F2100
G1 X44.955 Y-1.963 Z3.500 E0.08585 F2100
G1 X45.012 Y-0.344 Z3.500 E0.40414 F2100
G1 X45.004 Y0.000 Z3.500 E0.08575 F2100
G1 X44.944 Y1.619 Z3.500 E0.40405 F2100
G1 X44.951 Y1.963 Z3.500 E0.08583 F2100
G1 X44.873 Y3.581 Z3.500 E0.40416 F2100
G1 X44.836 Y3.923 Z3.500 E0.08575 F2100
G1 X44.629 Y5.529 Z3.500 E0.40408 F2100
G1 X44.606 Y5.872 Z3.500 E0.08581 F2100
G1 X44.393 Y7.479 Z3.500 E0.40417 F2100
G1 X44.327 Y7.816 Z3.500 E0.08575 F2100
G1 X43.975 Y9.397 Z3.500 E0.40412 F2100
G1 X43.921 Y9.737 Z3.500 E0.08579 F2100
G1 X43.574 Y11.320 Z3.500 E0.40420 F2100
G1 X43.481 Y11.651 Z3.500 E0.08575 F2100
G1 X42.987 Y13.194 Z3.500 E0.40416 F2100
G1 X42.902 Y13.527 Z3.500 E0.08577 F2100
G1 X42.423 Y15.075 Z3.500 E0.40420 F2100
G1 X42.303 Y15.397 Z3.500 E0.08574 F2100
G1 X41.672 Y16.890 Z3.500 E0.40422 F2100
G1 X41.557 Y17.214 Z3.500 E0.08575 F2100
G1 X40.949 Y18.716 Z3.500 E0.40423 F2100
G1 X40.802 Y19.026 Z3.500 E0.08574 F2100
G1 X40.041 Y20.457 Z3.500 E0.40425 F2100
G1 X39.896 Y20.769 Z3.500 E0.08572 F2100
G1 X39.163 Y22.214 Z3.500 E0.40425 F2100
G1 X38.991 Y22.511 Z3.500 E0.08575 F2100
G1 X38.105 Y23.868 Z3.500 E0.40429 F2100
G1 X37.932 Y24.166 Z3.500 E0.08570 F2100
G1 X37.078 Y25.543 Z3.500 E0.40426 F2100
G1 X36.882 Y25.825 Z3.500 E0.08575 F2100
G1 X35.879 Y27.098 Z3.500 E0.40433 F2100
G1 X35.680 Y27.378 Z3.500 E0.08569 F2100
G1 X34.711 Y28.677 Z3.500 E0.40426 F2100
G1 X34.493 Y28.943 Z3.500 E0.08575 F2100
G1 X33.381 Y30.122 Z3.500 E0.40436 F2100
G1 X33.157 Y30.383 Z3.500 E0.08567 F2100
G1 X32.079 Y31.593 Z3.500 E0.40427 F2100
G1 X31.840 Y31.840 Z3.500 E0.08576 F2100
G1 X30.629 Y32.917 Z3.500 E0.40437 F2100
G1 X30.382 Y33.156 Z3.500 E0.08566 F2100
G1 X29.203 Y34.268 Z3.500 E0.40428 F2100
G1 X28.945 Y34.495 Z3.500 E0.08577 F2100
G1 X27.644 Y35.462 Z3.500 E0.40437 F2100
G1 X27.376 Y35.677 Z3.500 E0.08564 F2100
G1 X26.105 Y36.682 Z3.500 E0.40427 F2100
G1 X25.829 Y36.887 Z3.500 E0.08577 F2100
G1 X24.449 Y37.738 Z3.500 E0.40438 F2100
G1 X24.162 Y37.926 Z3.500 E0.08564 F2100
G1 X22.808 Y38.817 Z3.500 E0.40424 F2100
G1 X22.516 Y38.998 Z3.500 E0.08578 F2100
G1 X21.067 Y39.727 Z3.500 E0.40439 F2100
G1 X20.764 Y39.888 Z3.500 E0.08564 F2100
G1 X19.337 Y40.655 Z3.500 E0.40422 F2100
G1 X19.031 Y40.812 Z3.500 E0.08580 F2100
G1 X17.526 Y41.413 Z3.500 E0.40437 F2100
G1 X17.209 Y41.546 Z3.500 E0.08564 F2100
G1 X15.719 Y42.184 Z3.500 E0.40421 F2100
G1 X15.401 Y42.315 Z3.500 E0.08581 F2100
G1 X13.850 Y42.786 Z3.500 E0.40435 F2100
G1 X13.523 Y42.888 Z3.500 E0.08564 F2100
G1 X11.982 Y43.391 Z3.500 E0.40416 F2100
G1 X11.655 Y43.496 Z3.500 E0.08582 F2100
G1 X10.069 Y43.832 Z3.500 E0.40434 F2100
G1 X9.733 Y43.905 Z3.500 E0.08565 F2100
G1 X8.154 Y44.267 Z3.500 E0.40413 F2100
G1 X7.819 Y44.345 Z3.500 E0.08584 F2100
G1 X6.211 Y44.546 Z3.500 E0.40431 F2100
G1 X5.870 Y44.587 Z3.500 E0.08566 F2100
G1 X4.265 Y44.807 Z3.500 E0.40410 F2100
G1 X3.924 Y44.856 Z3.500 E0.08585 F2100
G1 X2.305 Y44.921 Z3.500 E0.40428 F2100
G1 X1.962 Y44.931 Z3.500 E0.08567 F2100
G1 X0.344 Y45.005 Z3.500 E0.40406 F2100
G1 X-0.000 Y45.025 Z3.500 E0.08586 F2100
G1 X-1.619 Y44.954 Z3.500 E0.40425 F2100
G1 X-1.962 Y44.933 Z3.500 E0.08568 F2100
G1 X-3.580 Y44.860 Z3.500 E0.40403 F2100
G1 X-3.924 Y44.852 Z3.500 E0.08587 F2100
G1 X-5.531 Y44.646 Z3.500 E0.40422 F2100
G1 X-5.871 Y44.594 Z3.500 E0.08569 F2100
G1 X-7.475 Y44.374 Z3.500 E0.40401 F2100
G1 X-7.818 Y44.336 Z3.500 E0.08588 F2100
G1 X-9.402 Y43.997 Z3.500 E0.40419 F2100
G1 X-9.736 Y43.915 Z3.500 E0.08570 F2100
G1 X-11.314 Y43.550 Z3.500 E0.40399 F2100
G1 X-11.651 Y43.484 Z3.500 E0.08589 F2100
G1 X-13.202 Y43.014 Z3.500 E0.40417 F2100
G1 X-13.527 Y42.902 Z3.500 E0.08571 F2100
G1 X-15.065 Y42.395 Z3.500 E0.40396 F2100
G1 X-15.396 Y42.300 Z3.500 E0.08589 F2100
G1 X-16.902 Y41.703 Z3.500 E0.40416 F2100
G1 X-17.216 Y41.563 Z3.500 E0.08573 F2100
G1 X-18.701 Y40.917 Z3.500 E0.40396 F2100
G1 X-19.022 Y40.794 Z3.500 E0.08589 F2100
G1 X-20.474 Y40.074 Z3.500 E0.40414 F2100
G1 X-20.774 Y39.907 Z3.500 E0.08573 F2100
G1 X-22.194 Y39.128 Z3.500 E0.40397 F2100
G1 X-22.504 Y38.978 Z3.500 E0.08588 F2100
G1 X-23.890 Y38.140 Z3.500 E0.40413 F2100
G1 X-24.175 Y37.948 Z3.500 E0.08574 F2100
G1 X-25.518 Y37.042 Z3.500 E0.40397 F2100
G1 X-25.813 Y36.865 Z3.500 E0.08587 F2100
G1 X-27.126 Y35.915 Z3.500 E0.40414 F2100
G1 X-27.393 Y35.699 Z3.500 E0.08574 F2100
G1 X-28.647 Y34.675 Z3.500 E0.40398 F2100
G1 X-28.926 Y34.472 Z3.500 E0.08586 F2100
G1 X-30.155 Y33.417 Z3.500 E0.40414 F2100
G1 X-30.402 Y33.178 Z3.500 E0.08575 F2100
G1 X-31.559 Y32.044 Z3.500 E0.40402 F2100
G1 X-31.818 Y31.818 Z3.500 E0.08584 F2100
G1 X-32.955 Y30.663 Z3.500 E0.40414 F2100
G1 X-33.181 Y30.405 Z3.500 E0.08575 F2100
G1 X-34.229 Y29.170 Z3.500 E0.40406 F2100
G1 X-34.467 Y28.921 Z3.500 E0.08583 F2100
G1 X-35.504 Y27.676 Z3.500 E0.40415 F2100
G1 X-35.708 Y27.399 Z3.500 E0.08574 F2100
G1 X-36.639 Y26.074 Z3.500 E0.40410 F2100
G1 X-36.853 Y25.805 Z3.500 E0.08581 F2100
G1 X-37.783 Y24.478 Z3.500 E0.40417 F2100
G1 X-37.963 Y24.185 Z3.500 E0.08574 F2100
G1 X-38.770 Y22.781 Z3.500 E0.40413 F2100
G1 X-38.959 Y22.493 Z3.500 E0.08578 F2100
G1 X-39.774 Y21.093 Z3.500 E0.40420 F2100
G1 X-39.929 Y20.786 Z3.500 E0.08575 F2100
G1 X-40.607 Y19.314 Z3.500 E0.40418 F2100
G1 X-40.769 Y19.011 Z3.500 E0.08576 F2100
G1 X-41.463 Y17.546 Z3.500 E0.40421 F2100
G1 X-41.591 Y17.228 Z3.500 E0.08574 F2100
G1 X-42.134 Y15.701 Z3.500 E0.40423 F2100
G1 X-42.268 Y15.384 Z3.500 E0.08574 F2100
G1 X-42.835 Y13.866 Z3.500 E0.40423 F2100
G1 X-42.937 Y13.538 Z3.500 E0.08574 F2100
G1 X-43.341 Y11.969 Z3.500 E0.40426 F2100
G1 X-43.445 Y11.641 Z3.500 E0.08572 F2100
G1 X-43.882 Y10.080 Z3.500 E0.40426 F2100
G1 X-43.956 Y9.745 Z3.500 E0.08575 F2100
G1 X-44.219 Y8.146 Z3.500 E0.40429 F2100
G1 X-44.292 Y7.810 Z3.500 E0.08570 F2100
G1 X-44.594 Y6.218 Z3.500 E0.40427 F2100
G1 X-44.640 Y5.877 Z3.500 E0.08575 F2100
G1 X-44.760 Y4.261 Z3.500 E0.40433 F2100
G1 X-44.802 Y3.920 Z3.500 E0.08568 F2100
G1 X-44.966 Y2.307 Z3.500 E0.40427 F2100
G1 X-44.985 Y1.964 Z3.500 E0.08575 F2100
G1 X-44.961 Y0.343 Z3.500 E0.40435 F2100

; Layer 7, Z=4.000mm, Diameter=127.3mm, Points=576, Amplitude factor=0.02
G1 X-45.031 Y-0.000 Z4.000 E0.15229 F2100
G1 X-44.958 Y-1.570 Z4.000 E0.39207 F2100
G1 X-44.928 Y-1.962 Z4.000 E0.09796 F2100
G1 X-44.860 Y-3.531 Z4.000 E0.39176 F2100
G1 X-44.857 Y-3.924 Z4.000 E0.09824 F2100
G1 X-44.654 Y-5.483 Z4.000 E0.39203 F2100
G1 X-44.589 Y-5.870 Z4.000 E0.09799 F2100
G1 X-44.377 Y-7.426 Z4.000 E0.39173 F2100
G1 X-44.340 Y-7.818 Z4.000 E0.09825 F2100
G1 X-44.011 Y-9.355 Z4.000 E0.39198 F2100
G1 X-43.911 Y-9.735 Z4.000 E0.09800 F2100
G1 X-43.556 Y-11.265 Z4.000 E0.39171 F2100
G1 X-43.487 Y-11.652 Z4.000 E0.09826 F2100
G1 X-43.033 Y-13.157 Z4.000 E0.39195 F2100
G1 X-42.900 Y-13.526 Z4.000 E0.09802 F2100
G1 X-42.405 Y-15.016 Z4.000 E0.39168 F2100
G1 X-42.302 Y-15.396 Z4.000 E0.09826 F2100
G1 X-41.727 Y-16.859 Z4.000 E0.39194 F2100
G1 X-41.562 Y-17.215 Z4.000 E0.09804 F2100
G1 X-40.930 Y-18.653 Z4.000 E0.39168 F2100
G1 X-40.795 Y-19.023 Z4.000 E0.09825 F2100
G1 X-40.103 Y-20.433 Z4.000 E0.39192 F2100
G1 X-39.907 Y-20.774 Z4.000 E0.09804 F2100
G1 X-39.145 Y-22.147 Z4.000 E0.39170 F2100
G1 X-38.977 Y-22.504 Z4.000 E0.09824 F2100
G1 X-38.173 Y-23.853 Z4.000 E0.39192 F2100
G1 X-37.948 Y-24.176 Z4.000 E0.09805 F2100
G1 X-37.062 Y-25.472 Z4.000 E0.39172 F2100
G1 X-36.864 Y-25.812 Z4.000 E0.09822 F2100
G1 X-35.952 Y-27.092 Z4.000 E0.39194 F2100
G1 X-35.701 Y-27.394 Z4.000 E0.09805 F2100
G1 X-34.698 Y-28.603 Z4.000 E0.39176 F2100
G1 X-34.470 Y-28.924 Z4.000 E0.09819 F2100
G1 X-33.456 Y-30.124 Z4.000 E0.39196 F2100
G1 X-33.181 Y-30.405 Z4.000 E0.09805 F2100
G1 X-32.071 Y-31.516 Z4.000 E0.39182 F2100
G1 X-31.815 Y-31.815 Z4.000 E0.09816 F2100
G1 X-30.706 Y-32.928 Z4.000 E0.39197 F2100
G1 X-30.408 Y-33.184 Z4.000 E0.09805 F2100
G1 X-29.200 Y-34.189 Z4.000 E0.39189 F2100
G1 X-28.918 Y-34.463 Z4.000 E0.09813 F2100
G1 X-27.721 Y-35.481 Z4.000 E0.39200 F2100
G1 X-27.403 Y-35.712 Z4.000 E0.09804 F2100
G1 X-26.107 Y-36.601 Z4.000 E0.39196 F2100
G1 X-25.802 Y-36.849 Z4.000 E0.09809 F2100
G1 X-24.524 Y-37.764 Z4.000 E0.39204 F2100
G1 X-24.188 Y-37.968 Z4.000 E0.09803 F2100
G1 X-22.817 Y-38.736 Z4.000 E0.39202 F2100
G1 X-22.490 Y-38.954 Z4.000 E0.09805 F2100
G1 X-21.141 Y-39.760 Z4.000 E0.39209 F2100
G1 X-20.789 Y-39.935 Z4.000 E0.09803 F2100
G1 X-19.353 Y-40.575 Z4.000 E0.39209 F2100
G1 X-19.008 Y-40.762 Z4.000 E0.09802 F2100
G1 X-17.596 Y-41.453 Z4.000 E0.39212 F2100
G1 X-17.231 Y-41.598 Z4.000 E0.09802 F2100
G1 X-15.743 Y-42.107 Z4.000 E0.39217 F2100
G1 X-15.381 Y-42.260 Z4.000 E0.09798 F2100
G1 X-13.916 Y-42.829 Z4.000 E0.39214 F2100
G1 X-13.541 Y-42.945 Z4.000 E0.09802 F2100
G1 X-12.013 Y-43.318 Z4.000 E0.39222 F2100
G1 X-11.639 Y-43.437 Z4.000 E0.09795 F2100
G1 X-10.130 Y-43.880 Z4.000 E0.39218 F2100
G1 X-9.747 Y-43.965 Z4.000 E0.09802 F2100
G1 X-8.192 Y-44.200 Z4.000 E0.39227 F2100
G1 X-7.808 Y-44.283 Z4.000 E0.09792 F2100
G1 X-6.267 Y-44.596 Z4.000 E0.39220 F2100
G1 X-5.878 Y-44.650 Z4.000 E0.09802 F2100
G1 X-4.308 Y-44.746 Z4.000 E0.39232 F2100
G1 X-3.919 Y-44.793 Z4.000 E0.09789 F2100
G1 X-2.357 Y-44.972 Z4.000 E0.39220 F2100
G1 X-1.964 Y-44.994 Z4.000 E0.09803 F2100
G1 X-0.392 Y-44.952 Z4.000 E0.39235 F2100
G1 X0.000 Y-44.962 Z4.000 E0.09787 F2100
G1 X1.572 Y-45.005 Z4.000 E0.39220 F2100
G1 X1.965 Y-44.996 Z4.000 E0.09804 F2100
G1 X3.527 Y-44.816 Z4.000 E0.39236 F2100
G1 X3.919 Y-44.789 Z4.000 E0.09786 F2100
G1 X5.488 Y-44.695 Z4.000 E0.39218 F2100
G1 X5.879 Y-44.655 Z4.000 E0.09805 F2100
G1 X7.420 Y-44.340 Z4.000 E0.39237 F2100
G1 X7.807 Y-44.276 Z4.000 E0.09786 F2100
G1 X9.362 Y-44.044 Z4.000 E0.39215 F2100
G1 X9.749 Y-43.973 Z4.000 E0.09807 F2100
G1 X11.257 Y-43.527 Z4.000 E0.39236 F2100
G1 X11.636 Y-43.427 Z4.000 E0.09786 F2100
G1 X13.164 Y-43.058 Z4.000 E0.39212 F2100
G1 X13.544 Y-42.956 Z4.000 E0.09809 F2100
G1 X15.009 Y-42.383 Z4.000 E0.39233 F2100
G1 X15.377 Y-42.248 Z4.000 E0.09786 F2100
G1 X16.866 Y-41.744 Z4.000 E0.39208 F2100
G1 X17.236 Y-41.612 Z4.000 E0.09812 F2100
G1 X18.647 Y-40.917 Z4.000 E0.39230 F2100
G1 X19.001 Y-40.748 Z4.000 E0.09787 F2100
G1 X20.438 Y-40.112 Z4.000 E0.39202 F2100
G1 X20.797 Y-39.950 Z4.000 E0.09814 F2100
G1 X22.144 Y-39.139 Z4.000 E0.39227 F2100
G1 X22.481 Y-38.938 Z4.000 E0.09789 F2100
G1 X23.855 Y-38.175 Z4.000 E0.39196 F2100
G1 X24.199 Y-37.985 Z4.000 E0.09816 F2100
G1 X25.473 Y-37.063 Z4.000 E0.39221 F2100
G1 X25.790 Y-36.831 Z4.000 E0.09790 F2100
G1 X27.089 Y-35.948 Z4.000 E0.39191 F2100
G1 X27.416 Y-35.729 Z4.000 E0.09819 F2100
G1 X28.609 Y-34.705 Z4.000 E0.39215 F2100
G1 X28.903 Y-34.445 Z4.000 E0.09792 F2100
G1 X30.116 Y-33.447 Z4.000 E0.39186 F2100
G1 X30.424 Y-33.202 Z4.000 E0.09821 F2100
G1 X31.528 Y-32.083 Z4.000 E0.39211 F2100
G1 X31.797 Y-31.797 Z4.000 E0.09795 F2100
G1 X32.913 Y-30.692 Z4.000 E0.39179 F2100
G1 X33.200 Y-30.422 Z4.000 E0.09823 F2100
G1 X34.208 Y-29.216 Z4.000 E0.39207 F2100
G1 X34.450 Y-28.907 Z4.000 E0.09797 F2100
G1 X35.459 Y-27.703 Z4.000 E0.39174 F2100
G1 X35.723 Y-27.411 Z4.000 E0.09824 F2100
G1 X36.628 Y-26.126 Z4.000 E0.39202 F2100
G1 X36.841 Y-25.796 Z4.000 E0.09799 F2100
G1 X37.734 Y-24.505 Z4.000 E0.39171 F2100
G1 X37.973 Y-24.191 Z4.000 E0.09825 F2100
G1 X38.769 Y-22.837 Z4.000 E0.39198 F2100
G1 X38.952 Y-22.489 Z4.000 E0.09801 F2100
G1 X39.722 Y-21.121 Z4.000 E0.39170 F2100
G1 X39.933 Y-20.788 Z4.000 E0.09826 F2100
G1 X40.616 Y-19.373 Z4.000 E0.39195 F2100
G1 X40.768 Y-19.010 Z4.000 E0.09802 F2100
G1 X41.408 Y-17.577 Z4.000 E0.39168 F2100
G1 X41.589 Y-17.227 Z4.000 E0.09826 F2100
G1 X42.155 Y-15.761 Z4.000 E0.39194 F2100
G1 X42.274 Y-15.386 Z4.000 E0.09804 F2100
G1 X42.778 Y-13.899 Z4.000 E0.39168 F2100
G1 X42.928 Y-13.535 Z4.000 E0.09825 F2100
G1 X43.372 Y-12.028 Z4.000 E0.39192 F2100
G1 X43.458 Y-11.645 Z4.000 E0.09805 F2100
G1 X43.822 Y-10.117 Z4.000 E0.39171 F2100
G1 X43.939 Y-9.741 Z4.000 E0.09824 F2100
G1 X44.260 Y-8.203 Z4.000 E0.39192 F2100
G1 X44.312 Y-7.813 Z4.000 E0.09805 F2100
G1 X44.533 Y-6.259 Z4.000 E0.39174 F2100
G1 X44.617 Y-5.874 Z4.000 E0.09821 F2100
G1 X44.810 Y-4.315 Z4.000 E0.39194 F2100
G1 X44.829 Y-3.922 Z4.000 E0.09805 F2100
G1 X44.906 Y-2.353 Z4.000 E0.39178 F2100
G1 X44.954 Y-1.963 Z4.000 E0.09819 F2100
G1 X45.019 Y-0.393 Z4.000 E0.39195 F2100
G1 X45.005 Y0.000 Z4.000 E0.09805 F2100
G1 X44.936 Y1.569 Z4.000 E0.39183 F2100
G1 X44.950 Y1.963 Z4.000 E0.09816 F2100
G1 X44.885 Y3.533 Z4.000 E0.39198 F2100
G1 X44.839 Y3.923 Z4.000 E0.09805 F2100
G1 X44.625 Y5.479 Z4.000 E0.39190 F2100
G1 X44.603 Y5.872 Z4.000 E0.09812 F2100
G1 X44.409 Y7.432 Z4.000 E0.39202 F2100
G1 X44.331 Y7.817 Z4.000 E0.09804 F2100
G1 X43.976 Y9.347 Z4.000 E0.39196 F2100
G1 X43.917 Y9.736 Z4.000 E0.09808 F2100
G1 X43.595 Y11.275 Z4.000 E0.39206 F2100
G1 X43.485 Y11.652 Z4.000 E0.09803 F2100
G1 X42.992 Y13.144 Z4.000 E0.39203 F2100
G1 X42.897 Y13.526 Z4.000 E0.09805 F2100
G1 X42.448 Y15.032 Z4.000 E0.39208 F2100
G1 X42.308 Y15.399 Z4.000 E0.09802 F2100
G1 X41.681 Y16.840 Z4.000 E0.39212 F2100
G1 X41.552 Y17.211 Z4.000 E0.09801 F2100
G1 X40.978 Y18.675 Z4.000 E0.39212 F2100
G1 X40.808 Y19.029 Z4.000 E0.09802 F2100
G1 X40.053 Y20.408 Z4.000 E0.39217 F2100
G1 X39.890 Y20.766 Z4.000 E0.09797 F2100
G1 X39.195 Y22.176 Z4.000 E0.39216 F2100
G1 X38.997 Y22.515 Z4.000 E0.09802 F2100
G1 X38.122 Y23.821 Z4.000 E0.39223 F2100
G1 X37.926 Y24.162 Z4.000 E0.09794 F2100
G1 X37.114 Y25.508 Z4.000 E0.39218 F2100
G1 X36.889 Y25.830 Z4.000 E0.09802 F2100
G1 X35.901 Y27.053 Z4.000 E0.39229 F2100
G1 X35.674 Y27.373 Z4.000 E0.09791 F2100
G1 X34.749 Y28.645 Z4.000 E0.39218 F2100
G1 X34.499 Y28.948 Z4.000 E0.09802 F2100
G1 X33.406 Y30.079 Z4.000 E0.39233 F2100
G1 X33.151 Y30.377 Z4.000 E0.09789 F2100
G1 X32.120 Y31.564 Z4.000 E0.39220 F2100
G1 X31.846 Y31.846 Z4.000 E0.09803 F2100
G1 X30.658 Y32.877 Z4.000 E0.39235 F2100
G1 X30.376 Y33.149 Z4.000 E0.09787 F2100
G1 X29.246 Y34.242 Z4.000 E0.39220 F2100
G1 X28.951 Y34.502 Z4.000 E0.09804 F2100
G1 X27.677 Y35.425 Z4.000 E0.39235 F2100
G1 X27.370 Y35.669 Z4.000 E0.09786 F2100
G1 X26.149 Y36.660 Z4.000 E0.39218 F2100
G1 X25.834 Y36.895 Z4.000 E0.09806 F2100
G1 X24.485 Y37.704 Z4.000 E0.39236 F2100
G1 X24.157 Y37.918 Z4.000 E0.09785 F2100
G1 X22.853 Y38.797 Z4.000 E0.39215 F2100
G1 X22.520 Y39.006 Z4.000 E0.09807 F2100
G1 X21.107 Y39.697 Z4.000 E0.39236 F2100
G1 X20.760 Y39.879 Z4.000 E0.09786 F2100
G1 X19.384 Y40.639 Z4.000 E0.39211 F2100
G1 X19.035 Y40.821 Z4.000 E0.09809 F2100
G1 X17.568 Y41.389 Z4.000 E0.39232 F2100
G1 X17.205 Y41.537 Z4.000 E0.09786 F2100
G1 X15.767 Y42.171 Z4.000 E0.39207 F2100
G1 X15.405 Y42.324 Z4.000 E0.09812 F2100
G1 X13.895 Y42.765 Z4.000 E0.39229 F2100
G1 X13.520 Y42.879 Z4.000 E0.09787 F2100
G1 X12.031 Y43.381 Z4.000 E0.39201 F2100
G1 X11.657 Y43.504 Z4.000 E0.09814 F2100
G1 X10.116 Y43.817 Z4.000 E0.39226 F2100
G1 X9.731 Y43.896 Z4.000 E0.09789 F2100
G1 X8.203 Y44.261 Z4.000 E0.39195 F2100
G1 X7.821 Y44.353 Z4.000 E0.09817 F2100
G1 X6.259 Y44.536 Z4.000 E0.39220 F2100
G1 X5.869 Y44.579 Z4.000 E0.09791 F2100
G1 X4.314 Y44.803 Z4.000 E0.39189 F2100
G1 X3.925 Y44.864 Z4.000 E0.09819 F2100
G1 X2.354 Y44.917 Z4.000 E0.39215 F2100
G1 X1.961 Y44.923 Z4.000 E0.09793 F2100
G1 X0.393 Y45.004 Z4.000 E0.39184 F2100
G1 X-0.000 Y45.033 Z4.000 E0.09822 F2100
G1 X-1.570 Y44.955 Z4.000 E0.39210 F2100
G1 X-1.961 Y44.926 Z4.000 E0.09795 F2100
G1 X-3.531 Y44.863 Z4.000 E0.39179 F2100
G1 X-3.925 Y44.859 Z4.000 E0.09823 F2100
G1 X-5.483 Y44.652 Z4.000 E0.39205 F2100
G1 X-5.870 Y44.587 Z4.000 E0.09798 F2100
G1 X-7.427 Y44.380 Z4.000 E0.39175 F2100
G1 X-7.819 Y44.342 Z4.000 E0.09825 F2100
G1 X-9.354 Y44.009 Z4.000 E0.39200 F2100
G1 X-9.734 Y43.909 Z4.000 E0.09799 F2100
G1 X-11.265 Y43.559 Z4.000 E0.39172 F2100
G1 X-11.653 Y43.489 Z4.000 E0.09826 F2100
G1 X-13.156 Y43.030 Z4.000 E0.39197 F2100
G1 X-13.526 Y42.898 Z4.000 E0.09801 F2100
G1 X-15.017 Y42.407 Z4.000 E0.39168 F2100
G1 X-15.397 Y42.304 Z4.000 E0.09826 F2100
G1 X-16.858 Y41.724 Z4.000 E0.39195 F2100
G1 X-17.214 Y41.559 Z4.000 E0.09803 F2100
G1 X-18.654 Y40.933 Z4.000 E0.39168 F2100
G1 X-19.024 Y40.797 Z4.000 E0.09826 F2100
G1 X-20.432 Y40.100 Z4.000 E0.39193 F2100
G1 X-20.773 Y39.905 Z4.000 E0.09804 F2100
G1 X-22.148 Y39.147 Z4.000 E0.39169 F2100
G1 X-22.505 Y38.980 Z4.000 E0.09825 F2100
G1 X-23.852 Y38.171 Z4.000 E0.39192 F2100
G1 X-24.174 Y37.946 Z4.000 E0.09805 F2100
G1 X-25.474 Y37.064 Z4.000 E0.39171 F2100
G1 X-25.814 Y36.866 Z4.000 E0.09823 F2100
G1 X-27.090 Y35.950 Z4.000 E0.39193 F2100
G1 X-27.392 Y35.699 Z4.000 E0.09805 F2100
G1 X-28.604 Y34.700 Z4.000 E0.39173 F2100
G1 X-28.926 Y34.472 Z4.000 E0.09821 F2100
G1 X-30.123 Y33.455 Z4.000 E0.39195 F2100
G1 X-30.403 Y33.179 Z4.000 E0.09805 F2100
G1 X-31.517 Y32.072 Z4.000 E0.39179 F2100
G1 X-31.817 Y31.817 Z4.000 E0.09818 F2100
G1 X-32.927 Y30.705 Z4.000 E0.39196 F2100
G1 X-33.182 Y30.406 Z4.000 E0.09805 F2100
G1 X-34.190 Y29.201 Z4.000 E0.39186 F2100
G1 X-34.465 Y28.920 Z4.000 E0.09815 F2100
G1 X-35.480 Y27.720 Z4.000 E0.39198 F2100
G1 X-35.710 Y27.401 Z4.000 E0.09804 F2100
G1 X-36.603 Y26.108 Z4.000 E0.39192 F2100
G1 X-36.851 Y25.803 Z4.000 E0.09811 F2100
G1 X-37.763 Y24.524 Z4.000 E0.39202 F2100
G1 X-37.966 Y24.187 Z4.000 E0.09804 F2100
G1 X-38.737 Y22.818 Z4.000 E0.39198 F2100
G1 X-38.956 Y22.491 Z4.000 E0.09808 F2100
G1 X-39.759 Y21.140 Z4.000 E0.39207 F2100
G1 X-39.933 Y20.788 Z4.000 E0.09803 F2100
G1 X-40.576 Y19.354 Z4.000 E0.39205 F2100
G1 X-40.764 Y19.009 Z4.000 E0.09804 F2100
G1 X-41.452 Y17.595 Z4.000 E0.39210 F2100
G1 X-41.596 Y17.230 Z4.000 E0.09802 F2100
G1 X-42.107 Y15.743 Z4.000 E0.39213 F2100
G1 X-42.262 Y15.382 Z4.000 E0.09800 F2100
G1 X-42.829 Y13.916 Z4.000 E0.39213 F2100
G1 X-42.943 Y13.540 Z4.000 E0.09802 F2100
G1 X-43.318 Y12.013 Z4.000 E0.39218 F2100
G1 X-43.439 Y11.639 Z4.000 E0.09797 F2100
G1 X-43.880 Y10.130 Z4.000 E0.39217 F2100
G1 X-43.963 Y9.746 Z4.000 E0.09802 F2100
G1 X-44.200 Y8.192 Z4.000 E0.39224 F2100
G1 X-44.285 Y7.809 Z4.000 E0.09793 F2100
G1 X-44.596 Y6.267 Z4.000 E0.39219 F2100
G1 X-44.648 Y5.878 Z4.000 E0.09802 F2100
G1 X-44.746 Y4.308 Z4.000 E0.39229 F2100
G1 X-44.794 Y3.919 Z4.000 E0.09791 F2100
G1 X-44.972 Y2.357 Z4.000 E0.39220 F2100
G1 X-44.993 Y1.964 Z4.000 E0.09802 F2100
G1 X-44.951 Y0.392 Z4.000 E0.39233 F2100

; Layer 8, Z=4.500mm, Diameter=127.3mm, Points=576, Amplitude factor=0.03
G1 X-45.000 Y0.000 Z4.500 E0.15899 F2100
G1 X-45.002 Y-1.522 Z4.500 E0.37977 F2100
G1 X-44.960 Y-1.963 Z4.500 E0.11040 F2100
G1 X-44.820 Y-3.478 Z4.500 E0.37960 F2100
G1 X-44.823 Y-3.921 Z4.500 E0.11055 F2100
G1 X-44.702 Y-5.439 Z4.500 E0.37982 F2100
G1 X-44.624 Y-5.875 Z4.500 E0.11039 F2100
G1 X-44.343 Y-7.371 Z4.500 E0.37969 F2100
G1 X-44.305 Y-7.812 Z4.500 E0.11050 F2100
G1 X-44.062 Y-9.315 Z4.500 E0.37987 F2100
G1 X-43.948 Y-9.743 Z4.500 E0.11037 F2100
G1 X-43.529 Y-11.207 Z4.500 E0.37980 F2100
G1 X-43.450 Y-11.642 Z4.500 E0.11044 F2100
G1 X-43.085 Y-13.121 Z4.500 E0.37993 F2100
G1 X-42.937 Y-13.538 Z4.500 E0.11035 F2100
G1 X-42.384 Y-14.957 Z4.500 E0.37990 F2100
G1 X-42.265 Y-15.383 Z4.500 E0.11038 F2100
G1 X-41.780 Y-16.827 Z4.500 E0.38001 F2100
G1 X-41.598 Y-17.231 Z4.500 E0.11034 F2100
G1 X-40.917 Y-18.593 Z4.500 E0.38001 F2100
G1 X-40.758 Y-19.006 Z4.500 E0.11031 F2100
G1 X-40.156 Y-20.405 Z4.500 E0.38006 F2100
G1 X-39.943 Y-20.793 Z4.500 E0.11032 F2100
G1 X-39.139 Y-22.088 Z4.500 E0.38012 F2100
G1 X-38.943 Y-22.484 Z4.500 E0.11026 F2100
G1 X-38.225 Y-23.828 Z4.500 E0.38012 F2100
G1 X-37.982 Y-24.197 Z4.500 E0.11031 F2100
G1 X-37.065 Y-25.414 Z4.500 E0.38021 F2100
G1 X-36.831 Y-25.790 Z4.500 E0.11020 F2100
G1 X-36.003 Y-27.069 Z4.500 E0.38017 F2100
G1 X-35.732 Y-27.418 Z4.500 E0.11030 F2100
G1 X-34.709 Y-28.548 Z4.500 E0.38029 F2100
G1 X-34.440 Y-28.899 Z4.500 E0.11015 F2100
G1 X-33.507 Y-30.104 Z4.500 E0.38020 F2100
G1 X-33.209 Y-30.431 Z4.500 E0.11030 F2100
G1 X-32.089 Y-31.465 Z4.500 E0.38036 F2100
G1 X-31.788 Y-31.788 Z4.500 E0.11012 F2100
G1 X-30.755 Y-32.909 Z4.500 E0.38021 F2100
G1 X-30.433 Y-33.211 Z4.500 E0.11030 F2100
G1 X-29.225 Y-34.143 Z4.500 E0.38042 F2100
G1 X-28.895 Y-34.436 Z4.500 E0.11009 F2100
G1 X-27.769 Y-35.463 Z4.500 E0.38019 F2100
G1 X-27.424 Y-35.739 Z4.500 E0.11031 F2100
G1 X-26.139 Y-36.562 Z4.500 E0.38045 F2100
G1 X-25.783 Y-36.821 Z4.500 E0.11007 F2100
G1 X-24.571 Y-37.746 Z4.500 E0.38018 F2100
G1 X-24.205 Y-37.995 Z4.500 E0.11033 F2100
G1 X-22.855 Y-38.703 Z4.500 E0.38044 F2100
G1 X-22.475 Y-38.927 Z4.500 E0.11006 F2100
G1 X-21.187 Y-39.742 Z4.500 E0.38015 F2100
G1 X-20.802 Y-39.961 Z4.500 E0.11036 F2100
G1 X-19.396 Y-40.551 Z4.500 E0.38043 F2100
G1 X-18.996 Y-40.737 Z4.500 E0.11007 F2100
G1 X-17.641 Y-41.434 Z4.500 E0.38009 F2100
G1 X-17.241 Y-41.622 Z4.500 E0.11039 F2100
G1 X-15.789 Y-42.090 Z4.500 E0.38040 F2100
G1 X-15.373 Y-42.238 Z4.500 E0.11008 F2100
G1 X-13.961 Y-42.810 Z4.500 E0.38001 F2100
G1 X-13.547 Y-42.966 Z4.500 E0.11043 F2100
G1 X-12.062 Y-43.310 Z4.500 E0.38034 F2100
G1 X-11.634 Y-43.417 Z4.500 E0.11010 F2100
G1 X-10.176 Y-43.859 Z4.500 E0.37995 F2100
G1 X-9.751 Y-43.983 Z4.500 E0.11047 F2100
