; MeshVase Slicer - Klipper GCode Output
; Model: mesh
; Generated: 2025-12-02 22:47:56
; Nozzle: 1.0mm, Layer: 0.5mm
; Nozzle temp: 260°C, Bed: 65°C

; --- START GCODE ---
SET_GCODE_VARIABLE MACRO=START_PRINT VARIABLE=bed_temp VALUE=65
SET_GCODE_VARIABLE MACRO=START_PRINT VARIABLE=extruder_temp VALUE=260
START_PRINT

; Absolute positioning for X/Y/Z, relative for E
G90
M83

; --- PURGE LINE ---
; 10mm purge line to ensure good extrusion start
G1 X100.000 Y10.000 Z0.500 F2400
G1 X120.000 Y10.000 Z0.500 E4.98902 F2100

; Layer 0, Z=0.500mm, Diameter=127.3mm, Points=576, Amplitude factor=0.00
G1 X-45.000 Y0.000 Z0.500 E41.23494 F2100
G1 X-44.958 Y-1.914 Z0.500 E0.47751 F2100
G1 X-44.957 Y-1.963 Z0.500 E0.01224 F2100
G1 X-44.832 Y-3.873 Z0.500 E0.47751 F2100
G1 X-44.829 Y-3.922 Z0.500 E0.01224 F2100
G1 X-44.620 Y-5.825 Z0.500 E0.47751 F2100
G1 X-44.615 Y-5.874 Z0.500 E0.01224 F2100
G1 X-44.324 Y-7.766 Z0.500 E0.47751 F2100
G1 X-44.316 Y-7.814 Z0.500 E0.01224 F2100
G1 X-43.943 Y-9.692 Z0.500 E0.47751 F2100
G1 X-43.933 Y-9.740 Z0.500 E0.01224 F2100
G1 X-43.478 Y-11.599 Z0.500 E0.47752 F2100
G1 X-43.467 Y-11.647 Z0.500 E0.01224 F2100
G1 X-42.931 Y-13.485 Z0.500 E0.47751 F2100
G1 X-42.918 Y-13.532 Z0.500 E0.01224 F2100
G1 X-42.302 Y-15.344 Z0.500 E0.47750 F2100
G1 X-42.286 Y-15.391 Z0.500 E0.01224 F2100
G1 X-41.593 Y-17.175 Z0.500 E0.47753 F2100
G1 X-41.575 Y-17.221 Z0.500 E0.01224 F2100
G1 X-40.803 Y-18.973 Z0.500 E0.47750 F2100
G1 X-40.784 Y-19.018 Z0.500 E0.01224 F2100
G1 X-39.938 Y-20.735 Z0.500 E0.47751 F2100
G1 X-39.916 Y-20.779 Z0.500 E0.01224 F2100
G1 X-38.994 Y-22.457 Z0.500 E0.47752 F2100
G1 X-38.971 Y-22.500 Z0.500 E0.01224 F2100
G1 X-37.978 Y-24.137 Z0.500 E0.47751 F2100
G1 X-37.953 Y-24.179 Z0.500 E0.01224 F2100
G1 X-36.889 Y-25.770 Z0.500 E0.47751 F2100
G1 X-36.861 Y-25.811 Z0.500 E0.01224 F2100
G1 X-35.730 Y-27.355 Z0.500 E0.47752 F2100
G1 X-35.701 Y-27.395 Z0.500 E0.01224 F2100
G1 X-34.502 Y-28.887 Z0.500 E0.47750 F2100
G1 X-34.472 Y-28.925 Z0.500 E0.01224 F2100
G1 X-33.210 Y-30.365 Z0.500 E0.47753 F2100
G1 X-33.178 Y-30.402 Z0.500 E0.01224 F2100
G1 X-31.853 Y-31.784 Z0.500 E0.47751 F2100
G1 X-31.819 Y-31.819 Z0.500 E0.01224 F2100
G1 X-30.437 Y-33.144 Z0.500 E0.47751 F2100
G1 X-30.402 Y-33.178 Z0.500 E0.01224 F2100
G1 X-28.962 Y-34.439 Z0.500 E0.47753 F2100
G1 X-28.925 Y-34.472 Z0.500 E0.01224 F2100
G1 X-27.433 Y-35.671 Z0.500 E0.47750 F2100
G1 X-27.395 Y-35.701 Z0.500 E0.01224 F2100
G1 X-25.850 Y-36.832 Z0.500 E0.47752 F2100
G1 X-25.811 Y-36.861 Z0.500 E0.01224 F2100
G1 X-24.220 Y-37.926 Z0.500 E0.47751 F2100
G1 X-24.179 Y-37.953 Z0.500 E0.01224 F2100
G1 X-22.542 Y-38.945 Z0.500 E0.47751 F2100
G1 X-22.500 Y-38.971 Z0.500 E0.01224 F2100
G1 X-20.822 Y-39.892 Z0.500 E0.47752 F2100
G1 X-20.779 Y-39.916 Z0.500 E0.01224 F2100
G1 X-19.062 Y-40.762 Z0.500 E0.47751 F2100
G1 X-19.018 Y-40.783 Z0.500 E0.01224 F2100
G1 X-17.266 Y-41.555 Z0.500 E0.47751 F2100
G1 X-17.221 Y-41.575 Z0.500 E0.01224 F2100
G1 X-15.436 Y-42.268 Z0.500 E0.47753 F2100
G1 X-15.391 Y-42.286 Z0.500 E0.01224 F2100
G1 X-13.578 Y-42.902 Z0.500 E0.47750 F2100
G1 X-13.532 Y-42.918 Z0.500 E0.01224 F2100
G1 X-11.694 Y-43.452 Z0.500 E0.47751 F2100
G1 X-11.647 Y-43.466 Z0.500 E0.01224 F2100
G1 X-9.788 Y-43.922 Z0.500 E0.47752 F2100
G1 X-9.740 Y-43.934 Z0.500 E0.01224 F2100
G1 X-7.862 Y-44.306 Z0.500 E0.47751 F2100
G1 X-7.814 Y-44.316 Z0.500 E0.01224 F2100
G1 X-5.922 Y-44.608 Z0.500 E0.47751 F2100
G1 X-5.874 Y-44.616 Z0.500 E0.01224 F2100
G1 X-3.971 Y-44.823 Z0.500 E0.47751 F2100
G1 X-3.922 Y-44.828 Z0.500 E0.01224 F2100
G1 X-2.012 Y-44.954 Z0.500 E0.47751 F2100
G1 X-1.963 Y-44.958 Z0.500 E0.01224 F2100
G1 X-0.049 Y-44.998 Z0.500 E0.47751 F2100
G1 X0.000 Y-44.999 Z0.500 E0.01224 F2100
G1 X1.914 Y-44.959 Z0.500 E0.47751 F2100
G1 X1.963 Y-44.958 Z0.500 E0.01224 F2100
G1 X3.873 Y-44.832 Z0.500 E0.47751 F2100
G1 X3.922 Y-44.828 Z0.500 E0.01224 F2100
G1 X5.825 Y-44.621 Z0.500 E0.47751 F2100
G1 X5.874 Y-44.615 Z0.500 E0.01224 F2100
G1 X7.766 Y-44.323 Z0.500 E0.47751 F2100
G1 X7.814 Y-44.316 Z0.500 E0.01224 F2100
G1 X9.692 Y-43.943 Z0.500 E0.47751 F2100
G1 X9.740 Y-43.934 Z0.500 E0.01224 F2100
G1 X11.599 Y-43.478 Z0.500 E0.47752 F2100
G1 X11.647 Y-43.466 Z0.500 E0.01224 F2100
G1 X13.485 Y-42.931 Z0.500 E0.47751 F2100
G1 X13.532 Y-42.918 Z0.500 E0.01224 F2100
G1 X15.344 Y-42.302 Z0.500 E0.47750 F2100
G1 X15.391 Y-42.286 Z0.500 E0.01224 F2100
G1 X17.175 Y-41.593 Z0.500 E0.47753 F2100
G1 X17.221 Y-41.575 Z0.500 E0.01224 F2100
G1 X18.973 Y-40.803 Z0.500 E0.47751 F2100
G1 X19.018 Y-40.784 Z0.500 E0.01224 F2100
G1 X20.735 Y-39.937 Z0.500 E0.47751 F2100
G1 X20.779 Y-39.916 Z0.500 E0.01224 F2100
G1 X22.457 Y-38.995 Z0.500 E0.47752 F2100
G1 X22.500 Y-38.971 Z0.500 E0.01224 F2100
G1 X24.137 Y-37.978 Z0.500 E0.47751 F2100
G1 X24.179 Y-37.953 Z0.500 E0.01224 F2100
G1 X25.770 Y-36.889 Z0.500 E0.47751 F2100
G1 X25.811 Y-36.862 Z0.500 E0.01224 F2100
G1 X27.355 Y-35.730 Z0.500 E0.47752 F2100
G1 X27.394 Y-35.701 Z0.500 E0.01224 F2100
G1 X28.887 Y-34.503 Z0.500 E0.47750 F2100
G1 X28.925 Y-34.472 Z0.500 E0.01224 F2100
G1 X30.365 Y-33.210 Z0.500 E0.47752 F2100
G1 X30.402 Y-33.178 Z0.500 E0.01224 F2100
G1 X31.784 Y-31.854 Z0.500 E0.47751 F2100
G1 X31.820 Y-31.820 Z0.500 E0.01224 F2100
G1 X33.144 Y-30.437 Z0.500 E0.47751 F2100
G1 X33.177 Y-30.402 Z0.500 E0.01224 F2100
G1 X34.440 Y-28.962 Z0.500 E0.47753 F2100
G1 X34.472 Y-28.925 Z0.500 E0.01224 F2100
G1 X35.670 Y-27.433 Z0.500 E0.47750 F2100
G1 X35.701 Y-27.394 Z0.500 E0.01224 F2100
G1 X36.833 Y-25.851 Z0.500 E0.47752 F2100
G1 X36.862 Y-25.811 Z0.500 E0.01224 F2100
G1 X37.925 Y-24.219 Z0.500 E0.47750 F2100
G1 X37.952 Y-24.178 Z0.500 E0.01224 F2100
G1 X38.946 Y-22.542 Z0.500 E0.47751 F2100
G1 X38.971 Y-22.500 Z0.500 E0.01224 F2100
G1 X39.892 Y-20.822 Z0.500 E0.47752 F2100
G1 X39.915 Y-20.779 Z0.500 E0.01224 F2100
G1 X40.762 Y-19.062 Z0.500 E0.47751 F2100
G1 X40.784 Y-19.018 Z0.500 E0.01224 F2100
G1 X41.555 Y-17.266 Z0.500 E0.47750 F2100
G1 X41.574 Y-17.221 Z0.500 E0.01224 F2100
G1 X42.269 Y-15.437 Z0.500 E0.47753 F2100
G1 X42.286 Y-15.391 Z0.500 E0.01224 F2100
G1 X42.901 Y-13.578 Z0.500 E0.47750 F2100
G1 X42.917 Y-13.532 Z0.500 E0.01224 F2100
G1 X43.453 Y-11.694 Z0.500 E0.47751 F2100
G1 X43.467 Y-11.647 Z0.500 E0.01224 F2100
G1 X43.921 Y-9.787 Z0.500 E0.47752 F2100
G1 X43.933 Y-9.740 Z0.500 E0.01224 F2100
G1 X44.307 Y-7.862 Z0.500 E0.47751 F2100
G1 X44.317 Y-7.814 Z0.500 E0.01224 F2100
G1 X44.607 Y-5.922 Z0.500 E0.47751 F2100
G1 X44.615 Y-5.874 Z0.500 E0.01224 F2100
G1 X44.824 Y-3.971 Z0.500 E0.47751 F2100
G1 X44.829 Y-3.922 Z0.500 E0.01224 F2100
G1 X44.954 Y-2.012 Z0.500 E0.47751 F2100
G1 X44.957 Y-1.963 Z0.500 E0.01224 F2100
G1 X44.999 Y-0.049 Z0.500 E0.47751 F2100
G1 X45.000 Y0.000 Z0.500 E0.01224 F2100
G1 X44.958 Y1.914 Z0.500 E0.47751 F2100
G1 X44.957 Y1.963 Z0.500 E0.01224 F2100
G1 X44.833 Y3.873 Z0.500 E0.47751 F2100
G1 X44.829 Y3.922 Z0.500 E0.01224 F2100
G1 X44.620 Y5.825 Z0.500 E0.47751 F2100
G1 X44.614 Y5.874 Z0.500 E0.01224 F2100
G1 X44.324 Y7.766 Z0.500 E0.47751 F2100
G1 X44.317 Y7.814 Z0.500 E0.01224 F2100
G1 X43.942 Y9.692 Z0.500 E0.47751 F2100
G1 X43.933 Y9.740 Z0.500 E0.01224 F2100
G1 X43.479 Y11.599 Z0.500 E0.47752 F2100
G1 X43.467 Y11.647 Z0.500 E0.01224 F2100
G1 X42.930 Y13.485 Z0.500 E0.47751 F2100
G1 X42.917 Y13.532 Z0.500 E0.01224 F2100
G1 X42.303 Y15.345 Z0.500 E0.47750 F2100
G1 X42.287 Y15.391 Z0.500 E0.01224 F2100
G1 X41.592 Y17.175 Z0.500 E0.47753 F2100
G1 X41.574 Y17.221 Z0.500 E0.01224 F2100
G1 X40.804 Y18.973 Z0.500 E0.47751 F2100
G1 X40.784 Y19.018 Z0.500 E0.01224 F2100
G1 X39.937 Y20.734 Z0.500 E0.47751 F2100
G1 X39.915 Y20.778 Z0.500 E0.01224 F2100
G1 X38.995 Y22.457 Z0.500 E0.47752 F2100
G1 X38.972 Y22.500 Z0.500 E0.01224 F2100
G1 X37.978 Y24.136 Z0.500 E0.47751 F2100
G1 X37.952 Y24.178 Z0.500 E0.01224 F2100
G1 X36.890 Y25.770 Z0.500 E0.47751 F2100
G1 X36.862 Y25.811 Z0.500 E0.01224 F2100
G1 X35.729 Y27.354 Z0.500 E0.47752 F2100
G1 X35.700 Y27.394 Z0.500 E0.01224 F2100
G1 X34.503 Y28.887 Z0.500 E0.47750 F2100
G1 X34.472 Y28.926 Z0.500 E0.01224 F2100
G1 X33.209 Y30.364 Z0.500 E0.47753 F2100
G1 X33.177 Y30.401 Z0.500 E0.01224 F2100
G1 X31.854 Y31.785 Z0.500 E0.47751 F2100
G1 X31.820 Y31.820 Z0.500 E0.01224 F2100
G1 X30.437 Y33.143 Z0.500 E0.47751 F2100
G1 X30.401 Y33.177 Z0.500 E0.01224 F2100
G1 X28.963 Y34.440 Z0.500 E0.47752 F2100
G1 X28.926 Y34.472 Z0.500 E0.01224 F2100
G1 X27.432 Y35.670 Z0.500 E0.47750 F2100
G1 X27.394 Y35.701 Z0.500 E0.01224 F2100
G1 X25.851 Y36.833 Z0.500 E0.47752 F2100
G1 X25.811 Y36.862 Z0.500 E0.01224 F2100
G1 X24.219 Y37.925 Z0.500 E0.47751 F2100
G1 X24.178 Y37.952 Z0.500 E0.01224 F2100
G1 X22.542 Y38.946 Z0.500 E0.47751 F2100
G1 X22.500 Y38.971 Z0.500 E0.01224 F2100
G1 X20.822 Y39.892 Z0.500 E0.47752 F2100
G1 X20.779 Y39.915 Z0.500 E0.01224 F2100
G1 X19.062 Y40.762 Z0.500 E0.47751 F2100
G1 X19.018 Y40.784 Z0.500 E0.01224 F2100
G1 X17.266 Y41.555 Z0.500 E0.47751 F2100
G1 X17.221 Y41.574 Z0.500 E0.01224 F2100
G1 X15.437 Y42.269 Z0.500 E0.47753 F2100
G1 X15.391 Y42.286 Z0.500 E0.01224 F2100
G1 X13.578 Y42.901 Z0.500 E0.47750 F2100
G1 X13.532 Y42.917 Z0.500 E0.01224 F2100
G1 X11.694 Y43.453 Z0.500 E0.47751 F2100
G1 X11.647 Y43.467 Z0.500 E0.01224 F2100
G1 X9.787 Y43.921 Z0.500 E0.47752 F2100
G1 X9.740 Y43.933 Z0.500 E0.01224 F2100
G1 X7.862 Y44.307 Z0.500 E0.47751 F2100
G1 X7.814 Y44.316 Z0.500 E0.01224 F2100
G1 X5.922 Y44.607 Z0.500 E0.47751 F2100
G1 X5.874 Y44.615 Z0.500 E0.01224 F2100
G1 X3.971 Y44.824 Z0.500 E0.47751 F2100
G1 X3.922 Y44.829 Z0.500 E0.01224 F2100
G1 X2.012 Y44.954 Z0.500 E0.47751 F2100
G1 X1.963 Y44.957 Z0.500 E0.01224 F2100
G1 X0.049 Y44.999 Z0.500 E0.47751 F2100
G1 X-0.000 Y45.000 Z0.500 E0.01224 F2100
G1 X-1.914 Y44.958 Z0.500 E0.47751 F2100
G1 X-1.963 Y44.957 Z0.500 E0.01224 F2100
G1 X-3.873 Y44.832 Z0.500 E0.47751 F2100
G1 X-3.922 Y44.829 Z0.500 E0.01224 F2100
G1 X-5.825 Y44.620 Z0.500 E0.47751 F2100
G1 X-5.874 Y44.615 Z0.500 E0.01224 F2100
G1 X-7.766 Y44.324 Z0.500 E0.47751 F2100
G1 X-7.814 Y44.316 Z0.500 E0.01224 F2100
G1 X-9.692 Y43.943 Z0.500 E0.47751 F2100
G1 X-9.740 Y43.933 Z0.500 E0.01224 F2100
G1 X-11.599 Y43.478 Z0.500 E0.47752 F2100
G1 X-11.647 Y43.467 Z0.500 E0.01224 F2100
G1 X-13.485 Y42.931 Z0.500 E0.47751 F2100
G1 X-13.532 Y42.917 Z0.500 E0.01224 F2100
G1 X-15.344 Y42.302 Z0.500 E0.47750 F2100
G1 X-15.391 Y42.286 Z0.500 E0.01224 F2100
G1 X-17.175 Y41.593 Z0.500 E0.47753 F2100
G1 X-17.221 Y41.575 Z0.500 E0.01224 F2100
G1 X-18.973 Y40.803 Z0.500 E0.47750 F2100
G1 X-19.018 Y40.784 Z0.500 E0.01224 F2100
G1 X-20.735 Y39.938 Z0.500 E0.47751 F2100
G1 X-20.779 Y39.916 Z0.500 E0.01224 F2100
G1 X-22.457 Y38.994 Z0.500 E0.47752 F2100
G1 X-22.500 Y38.971 Z0.500 E0.01224 F2100
G1 X-24.137 Y37.978 Z0.500 E0.47751 F2100
G1 X-24.179 Y37.953 Z0.500 E0.01224 F2100
G1 X-25.770 Y36.889 Z0.500 E0.47751 F2100
G1 X-25.811 Y36.861 Z0.500 E0.01224 F2100
G1 X-27.355 Y35.730 Z0.500 E0.47752 F2100
G1 X-27.395 Y35.701 Z0.500 E0.01224 F2100
G1 X-28.887 Y34.502 Z0.500 E0.47750 F2100
G1 X-28.925 Y34.472 Z0.500 E0.01224 F2100
G1 X-30.365 Y33.210 Z0.500 E0.47753 F2100
G1 X-30.402 Y33.178 Z0.500 E0.01224 F2100
G1 X-31.784 Y31.853 Z0.500 E0.47751 F2100
G1 X-31.819 Y31.819 Z0.500 E0.01224 F2100
G1 X-33.144 Y30.437 Z0.500 E0.47751 F2100
G1 X-33.178 Y30.402 Z0.500 E0.01224 F2100
G1 X-34.439 Y28.962 Z0.500 E0.47753 F2100
G1 X-34.472 Y28.925 Z0.500 E0.01224 F2100
G1 X-35.671 Y27.433 Z0.500 E0.47750 F2100
G1 X-35.701 Y27.395 Z0.500 E0.01224 F2100
G1 X-36.832 Y25.850 Z0.500 E0.47752 F2100
G1 X-36.861 Y25.811 Z0.500 E0.01224 F2100
G1 X-37.926 Y24.220 Z0.500 E0.47751 F2100
G1 X-37.953 Y24.179 Z0.500 E0.01224 F2100
G1 X-38.945 Y22.542 Z0.500 E0.47751 F2100
G1 X-38.971 Y22.500 Z0.500 E0.01224 F2100
G1 X-39.892 Y20.822 Z0.500 E0.47752 F2100
G1 X-39.916 Y20.779 Z0.500 E0.01224 F2100
G1 X-40.762 Y19.062 Z0.500 E0.47751 F2100
G1 X-40.783 Y19.018 Z0.500 E0.01224 F2100
G1 X-41.555 Y17.266 Z0.500 E0.47751 F2100
G1 X-41.575 Y17.221 Z0.500 E0.01224 F2100
G1 X-42.268 Y15.436 Z0.500 E0.47753 F2100
G1 X-42.286 Y15.391 Z0.500 E0.01224 F2100
G1 X-42.902 Y13.578 Z0.500 E0.47750 F2100
G1 X-42.918 Y13.532 Z0.500 E0.01224 F2100
G1 X-43.452 Y11.694 Z0.500 E0.47751 F2100
G1 X-43.466 Y11.647 Z0.500 E0.01224 F2100
G1 X-43.922 Y9.788 Z0.500 E0.47752 F2100
G1 X-43.934 Y9.740 Z0.500 E0.01224 F2100
G1 X-44.306 Y7.862 Z0.500 E0.47751 F2100
G1 X-44.316 Y7.814 Z0.500 E0.01224 F2100
G1 X-44.608 Y5.922 Z0.500 E0.47751 F2100
G1 X-44.616 Y5.874 Z0.500 E0.01224 F2100
G1 X-44.823 Y3.971 Z0.500 E0.47751 F2100
G1 X-44.828 Y3.922 Z0.500 E0.01224 F2100
G1 X-44.955 Y2.012 Z0.500 E0.47751 F2100
G1 X-44.958 Y1.963 Z0.500 E0.01224 F2100
G1 X-44.998 Y0.049 Z0.500 E0.47751 F2100

; Layer 1, Z=1.000mm, Diameter=127.3mm, Points=576, Amplitude factor=0.00
G1 X-45.000 Y0.000 Z1.000 E0.12533 F2100
G1 X-44.960 Y-1.865 Z1.000 E0.46527 F2100
G1 X-44.957 Y-1.963 Z1.000 E0.02449 F2100
G1 X-44.835 Y-3.824 Z1.000 E0.46527 F2100
G1 X-44.829 Y-3.922 Z1.000 E0.02449 F2100
G1 X-44.626 Y-5.776 Z1.000 E0.46527 F2100
G1 X-44.615 Y-5.874 Z1.000 E0.02449 F2100
G1 X-44.330 Y-7.717 Z1.000 E0.46527 F2100
G1 X-44.316 Y-7.814 Z1.000 E0.02449 F2100
G1 X-43.953 Y-9.644 Z1.000 E0.46527 F2100
G1 X-43.934 Y-9.740 Z1.000 E0.02449 F2100
G1 X-43.489 Y-11.551 Z1.000 E0.46527 F2100
G1 X-43.466 Y-11.647 Z1.000 E0.02449 F2100
G1 X-42.946 Y-13.438 Z1.000 E0.46527 F2100
G1 X-42.918 Y-13.532 Z1.000 E0.02449 F2100
G1 X-42.317 Y-15.297 Z1.000 E0.46526 F2100
G1 X-42.285 Y-15.391 Z1.000 E0.02449 F2100
G1 X-41.612 Y-17.130 Z1.000 E0.46528 F2100
G1 X-41.576 Y-17.221 Z1.000 E0.02449 F2100
G1 X-40.822 Y-18.927 Z1.000 E0.46526 F2100
G1 X-40.783 Y-19.017 Z1.000 E0.02449 F2100
G1 X-39.960 Y-20.691 Z1.000 E0.46527 F2100
G1 X-39.917 Y-20.779 Z1.000 E0.02449 F2100
G1 X-39.017 Y-22.413 Z1.000 E0.46527 F2100
G1 X-38.970 Y-22.499 Z1.000 E0.02449 F2100
G1 X-38.005 Y-24.096 Z1.000 E0.46527 F2100
G1 X-37.954 Y-24.179 Z1.000 E0.02449 F2100
G1 X-36.915 Y-25.728 Z1.000 E0.46526 F2100
G1 X-36.860 Y-25.810 Z1.000 E0.02449 F2100
G1 X-35.760 Y-27.316 Z1.000 E0.46528 F2100
G1 X-35.702 Y-27.395 Z1.000 E0.02449 F2100
G1 X-34.532 Y-28.848 Z1.000 E0.46526 F2100
G1 X-34.471 Y-28.924 Z1.000 E0.02449 F2100
G1 X-33.244 Y-30.329 Z1.000 E0.46528 F2100
G1 X-33.179 Y-30.403 Z1.000 E0.02449 F2100
G1 X-31.886 Y-31.747 Z1.000 E0.46527 F2100
G1 X-31.818 Y-31.818 Z1.000 E0.02449 F2100
G1 X-30.474 Y-33.111 Z1.000 E0.46527 F2100
G1 X-30.403 Y-33.179 Z1.000 E0.02449 F2100
G1 X-28.998 Y-34.406 Z1.000 E0.46528 F2100
G1 X-28.924 Y-34.470 Z1.000 E0.02449 F2100
G1 X-27.472 Y-35.641 Z1.000 E0.46526 F2100
G1 X-27.396 Y-35.703 Z1.000 E0.02449 F2100
G1 X-25.889 Y-36.802 Z1.000 E0.46528 F2100
G1 X-25.810 Y-36.860 Z1.000 E0.02449 F2100
G1 X-24.261 Y-37.900 Z1.000 E0.46526 F2100
G1 X-24.180 Y-37.954 Z1.000 E0.02449 F2100
G1 X-22.583 Y-38.918 Z1.000 E0.46527 F2100
G1 X-22.499 Y-38.969 Z1.000 E0.02449 F2100
G1 X-20.866 Y-39.870 Z1.000 E0.46527 F2100
G1 X-20.780 Y-39.918 Z1.000 E0.02449 F2100
G1 X-19.105 Y-40.738 Z1.000 E0.46527 F2100
G1 X-19.017 Y-40.782 Z1.000 E0.02449 F2100
G1 X-17.312 Y-41.537 Z1.000 E0.46526 F2100
G1 X-17.222 Y-41.577 Z1.000 E0.02449 F2100
G1 X-15.482 Y-42.249 Z1.000 E0.46528 F2100
G1 X-15.390 Y-42.284 Z1.000 E0.02449 F2100
G1 X-13.625 Y-42.888 Z1.000 E0.46526 F2100
G1 X-13.532 Y-42.919 Z1.000 E0.02449 F2100
G1 X-11.741 Y-43.437 Z1.000 E0.46527 F2100
G1 X-11.646 Y-43.465 Z1.000 E0.02449 F2100
G1 X-9.836 Y-43.912 Z1.000 E0.46528 F2100
G1 X-9.740 Y-43.935 Z1.000 E0.02449 F2100
G1 X-7.910 Y-44.295 Z1.000 E0.46527 F2100
G1 X-7.814 Y-44.314 Z1.000 E0.02449 F2100
G1 X-5.971 Y-44.602 Z1.000 E0.46527 F2100
G1 X-5.874 Y-44.617 Z1.000 E0.02449 F2100
G1 X-4.019 Y-44.816 Z1.000 E0.46527 F2100
G1 X-3.922 Y-44.827 Z1.000 E0.02449 F2100
G1 X-2.061 Y-44.953 Z1.000 E0.46527 F2100
G1 X-1.963 Y-44.959 Z1.000 E0.02449 F2100
G1 X-0.098 Y-44.996 Z1.000 E0.46527 F2100
G1 X0.000 Y-44.998 Z1.000 E0.02449 F2100
G1 X1.865 Y-44.961 Z1.000 E0.46527 F2100
G1 X1.963 Y-44.959 Z1.000 E0.02449 F2100
G1 X3.824 Y-44.834 Z1.000 E0.46527 F2100
G1 X3.922 Y-44.827 Z1.000 E0.02449 F2100
G1 X5.776 Y-44.627 Z1.000 E0.46527 F2100
G1 X5.874 Y-44.617 Z1.000 E0.02449 F2100
G1 X7.717 Y-44.330 Z1.000 E0.46527 F2100
G1 X7.814 Y-44.315 Z1.000 E0.02449 F2100
G1 X9.644 Y-43.954 Z1.000 E0.46526 F2100
G1 X9.740 Y-43.935 Z1.000 E0.02449 F2100
G1 X11.551 Y-43.489 Z1.000 E0.46528 F2100
G1 X11.647 Y-43.465 Z1.000 E0.02449 F2100
G1 X13.438 Y-42.946 Z1.000 E0.46527 F2100
G1 X13.532 Y-42.919 Z1.000 E0.02449 F2100
G1 X15.298 Y-42.317 Z1.000 E0.46526 F2100
G1 X15.390 Y-42.285 Z1.000 E0.02449 F2100
G1 X17.130 Y-41.611 Z1.000 E0.46528 F2100
G1 X17.221 Y-41.576 Z1.000 E0.02449 F2100
G1 X18.928 Y-40.823 Z1.000 E0.46526 F2100
G1 X19.017 Y-40.783 Z1.000 E0.02449 F2100
G1 X20.691 Y-39.959 Z1.000 E0.46527 F2100
G1 X20.779 Y-39.916 Z1.000 E0.02449 F2100
G1 X22.414 Y-39.018 Z1.000 E0.46528 F2100
G1 X22.500 Y-38.970 Z1.000 E0.02449 F2100
G1 X24.095 Y-38.004 Z1.000 E0.46527 F2100
G1 X24.179 Y-37.953 Z1.000 E0.02449 F2100
G1 X25.729 Y-36.916 Z1.000 E0.46526 F2100
G1 X25.811 Y-36.861 Z1.000 E0.02449 F2100
G1 X27.315 Y-35.759 Z1.000 E0.46528 F2100
G1 X27.395 Y-35.701 Z1.000 E0.02449 F2100
G1 X28.849 Y-34.533 Z1.000 E0.46526 F2100
G1 X28.925 Y-34.472 Z1.000 E0.02449 F2100
G1 X30.328 Y-33.242 Z1.000 E0.46528 F2100
G1 X30.402 Y-33.178 Z1.000 E0.02449 F2100
G1 X31.749 Y-31.888 Z1.000 E0.46527 F2100
G1 X31.820 Y-31.820 Z1.000 E0.02449 F2100
G1 X33.109 Y-30.472 Z1.000 E0.46526 F2100
G1 X33.177 Y-30.402 Z1.000 E0.02449 F2100
G1 X34.408 Y-29.000 Z1.000 E0.46528 F2100
G1 X34.472 Y-28.926 Z1.000 E0.02449 F2100
G1 X35.639 Y-27.470 Z1.000 E0.46525 F2100
G1 X35.701 Y-27.394 Z1.000 E0.02449 F2100
G1 X36.804 Y-25.891 Z1.000 E0.46528 F2100
G1 X36.862 Y-25.811 Z1.000 E0.02449 F2100
G1 X37.897 Y-24.260 Z1.000 E0.46526 F2100
G1 X37.952 Y-24.178 Z1.000 E0.02449 F2100
G1 X38.921 Y-22.584 Z1.000 E0.46527 F2100
G1 X38.972 Y-22.500 Z1.000 E0.02449 F2100
G1 X39.867 Y-20.864 Z1.000 E0.46527 F2100
G1 X39.915 Y-20.778 Z1.000 E0.02449 F2100
G1 X40.742 Y-19.106 Z1.000 E0.46527 F2100
G1 X40.785 Y-19.018 Z1.000 E0.02449 F2100
G1 X41.534 Y-17.310 Z1.000 E0.46526 F2100
G1 X41.574 Y-17.220 Z1.000 E0.02449 F2100
G1 X42.252 Y-15.483 Z1.000 E0.46528 F2100
G1 X42.287 Y-15.391 Z1.000 E0.02449 F2100
G1 X42.884 Y-13.624 Z1.000 E0.46526 F2100
G1 X42.916 Y-13.531 Z1.000 E0.02449 F2100
G1 X43.441 Y-11.742 Z1.000 E0.46527 F2100
G1 X43.468 Y-11.647 Z1.000 E0.02449 F2100
G1 X43.908 Y-9.835 Z1.000 E0.46528 F2100
G1 X43.932 Y-9.739 Z1.000 E0.02449 F2100
G1 X44.299 Y-7.911 Z1.000 E0.46527 F2100
G1 X44.318 Y-7.814 Z1.000 E0.02449 F2100
G1 X44.598 Y-5.970 Z1.000 E0.46527 F2100
G1 X44.613 Y-5.873 Z1.000 E0.02449 F2100
G1 X44.820 Y-4.020 Z1.000 E0.46527 F2100
G1 X44.831 Y-3.922 Z1.000 E0.02449 F2100
G1 X44.949 Y-2.061 Z1.000 E0.46527 F2100
G1 X44.955 Y-1.963 Z1.000 E0.02449 F2100
G1 X45.000 Y-0.098 Z1.000 E0.46527 F2100
G1 X45.002 Y0.000 Z1.000 E0.02449 F2100
G1 X44.957 Y1.865 Z1.000 E0.46527 F2100
G1 X44.955 Y1.963 Z1.000 E0.02449 F2100
G1 X44.837 Y3.824 Z1.000 E0.46527 F2100
G1 X44.831 Y3.922 Z1.000 E0.02449 F2100
G1 X44.623 Y5.776 Z1.000 E0.46527 F2100
G1 X44.613 Y5.873 Z1.000 E0.02449 F2100
G1 X44.333 Y7.718 Z1.000 E0.46527 F2100
G1 X44.318 Y7.815 Z1.000 E0.02449 F2100
G1 X43.950 Y9.643 Z1.000 E0.46527 F2100
G1 X43.931 Y9.739 Z1.000 E0.02449 F2100
G1 X43.492 Y11.552 Z1.000 E0.46528 F2100
G1 X43.469 Y11.647 Z1.000 E0.02449 F2100
G1 X42.943 Y13.437 Z1.000 E0.46527 F2100
G1 X42.915 Y13.531 Z1.000 E0.02449 F2100
G1 X42.320 Y15.299 Z1.000 E0.46526 F2100
G1 X42.288 Y15.392 Z1.000 E0.02449 F2100
G1 X41.608 Y17.128 Z1.000 E0.46528 F2100
G1 X41.572 Y17.220 Z1.000 E0.02449 F2100
G1 X40.825 Y18.929 Z1.000 E0.46526 F2100
G1 X40.786 Y19.019 Z1.000 E0.02449 F2100
G1 X39.957 Y20.690 Z1.000 E0.46527 F2100
G1 X39.913 Y20.778 Z1.000 E0.02449 F2100
G1 X39.020 Y22.415 Z1.000 E0.46527 F2100
G1 X38.973 Y22.501 Z1.000 E0.02449 F2100
G1 X38.002 Y24.093 Z1.000 E0.46527 F2100
G1 X37.951 Y24.177 Z1.000 E0.02449 F2100
G1 X36.918 Y25.730 Z1.000 E0.46526 F2100
G1 X36.864 Y25.812 Z1.000 E0.02449 F2100
G1 X35.757 Y27.314 Z1.000 E0.46528 F2100
G1 X35.699 Y27.393 Z1.000 E0.02449 F2100
G1 X34.535 Y28.850 Z1.000 E0.46525 F2100
G1 X34.474 Y28.927 Z1.000 E0.02449 F2100
G1 X33.241 Y30.326 Z1.000 E0.46528 F2100
G1 X33.176 Y30.400 Z1.000 E0.02449 F2100
G1 X31.889 Y31.750 Z1.000 E0.46526 F2100
G1 X31.821 Y31.821 Z1.000 E0.02449 F2100
G1 X30.471 Y33.108 Z1.000 E0.46527 F2100
G1 X30.400 Y33.176 Z1.000 E0.02449 F2100
G1 X29.000 Y34.409 Z1.000 E0.46528 F2100
G1 X28.927 Y34.473 Z1.000 E0.02449 F2100
G1 X27.470 Y35.638 Z1.000 E0.46526 F2100
G1 X27.393 Y35.699 Z1.000 E0.02449 F2100
G1 X25.891 Y36.805 Z1.000 E0.46528 F2100
G1 X25.812 Y36.863 Z1.000 E0.02449 F2100
G1 X24.259 Y37.897 Z1.000 E0.46526 F2100
G1 X24.178 Y37.951 Z1.000 E0.02449 F2100
G1 X22.585 Y38.921 Z1.000 E0.46527 F2100
G1 X22.501 Y38.972 Z1.000 E0.02449 F2100
G1 X20.864 Y39.867 Z1.000 E0.46528 F2100
G1 X20.778 Y39.914 Z1.000 E0.02449 F2100
G1 X19.106 Y40.741 Z1.000 E0.46527 F2100
G1 X19.018 Y40.785 Z1.000 E0.02449 F2100
G1 X17.310 Y41.534 Z1.000 E0.46526 F2100
G1 X17.220 Y41.573 Z1.000 E0.02449 F2100
G1 X15.483 Y42.251 Z1.000 E0.46528 F2100
G1 X15.391 Y42.287 Z1.000 E0.02449 F2100
G1 X13.625 Y42.885 Z1.000 E0.46526 F2100
G1 X13.531 Y42.916 Z1.000 E0.02449 F2100
G1 X11.741 Y43.440 Z1.000 E0.46527 F2100
G1 X11.647 Y43.468 Z1.000 E0.02449 F2100
G1 X9.835 Y43.910 Z1.000 E0.46528 F2100
G1 X9.740 Y43.933 Z1.000 E0.02449 F2100
G1 X7.911 Y44.297 Z1.000 E0.46526 F2100
G1 X7.814 Y44.317 Z1.000 E0.02449 F2100
G1 X5.971 Y44.600 Z1.000 E0.46527 F2100
G1 X5.874 Y44.614 Z1.000 E0.02449 F2100
G1 X4.020 Y44.818 Z1.000 E0.46527 F2100
G1 X3.922 Y44.829 Z1.000 E0.02449 F2100
G1 X2.061 Y44.951 Z1.000 E0.46527 F2100
G1 X1.963 Y44.957 Z1.000 E0.02449 F2100
G1 X0.098 Y44.998 Z1.000 E0.46527 F2100
G1 X-0.000 Y45.000 Z1.000 E0.02449 F2100
G1 X-1.865 Y44.960 Z1.000 E0.46527 F2100
G1 X-1.963 Y44.957 Z1.000 E0.02449 F2100
G1 X-3.824 Y44.835 Z1.000 E0.46527 F2100
G1 X-3.922 Y44.829 Z1.000 E0.02449 F2100
G1 X-5.776 Y44.626 Z1.000 E0.46527 F2100
G1 X-5.874 Y44.615 Z1.000 E0.02449 F2100
G1 X-7.717 Y44.331 Z1.000 E0.46527 F2100
G1 X-7.814 Y44.316 Z1.000 E0.02449 F2100
G1 X-9.644 Y43.953 Z1.000 E0.46527 F2100
G1 X-9.740 Y43.934 Z1.000 E0.02449 F2100
G1 X-11.551 Y43.489 Z1.000 E0.46527 F2100
G1 X-11.647 Y43.466 Z1.000 E0.02449 F2100
G1 X-13.438 Y42.946 Z1.000 E0.46527 F2100
G1 X-13.532 Y42.918 Z1.000 E0.02449 F2100
G1 X-15.298 Y42.317 Z1.000 E0.46526 F2100
G1 X-15.391 Y42.285 Z1.000 E0.02449 F2100
G1 X-17.130 Y41.611 Z1.000 E0.46528 F2100
G1 X-17.221 Y41.576 Z1.000 E0.02449 F2100
G1 X-18.927 Y40.822 Z1.000 E0.46526 F2100
G1 X-19.017 Y40.783 Z1.000 E0.02449 F2100
G1 X-20.691 Y39.960 Z1.000 E0.46527 F2100
G1 X-20.779 Y39.917 Z1.000 E0.02449 F2100
G1 X-22.413 Y39.017 Z1.000 E0.46527 F2100
G1 X-22.499 Y38.970 Z1.000 E0.02449 F2100
G1 X-24.095 Y38.005 Z1.000 E0.46527 F2100
G1 X-24.179 Y37.954 Z1.000 E0.02449 F2100
G1 X-25.728 Y36.915 Z1.000 E0.46526 F2100
G1 X-25.810 Y36.861 Z1.000 E0.02449 F2100
G1 X-27.316 Y35.760 Z1.000 E0.46528 F2100
G1 X-27.395 Y35.702 Z1.000 E0.02449 F2100
G1 X-28.848 Y34.532 Z1.000 E0.46526 F2100
G1 X-28.924 Y34.471 Z1.000 E0.02449 F2100
G1 X-30.329 Y33.244 Z1.000 E0.46528 F2100
G1 X-30.403 Y33.179 Z1.000 E0.02449 F2100
G1 X-31.747 Y31.886 Z1.000 E0.46527 F2100
G1 X-31.818 Y31.818 Z1.000 E0.02449 F2100
G1 X-33.111 Y30.474 Z1.000 E0.46527 F2100
G1 X-33.179 Y30.403 Z1.000 E0.02449 F2100
G1 X-34.406 Y28.998 Z1.000 E0.46528 F2100
G1 X-34.470 Y28.924 Z1.000 E0.02449 F2100
G1 X-35.641 Y27.472 Z1.000 E0.46526 F2100
G1 X-35.703 Y27.396 Z1.000 E0.02449 F2100
G1 X-36.802 Y25.889 Z1.000 E0.46528 F2100
G1 X-36.860 Y25.810 Z1.000 E0.02449 F2100
G1 X-37.900 Y24.261 Z1.000 E0.46526 F2100
G1 X-37.954 Y24.180 Z1.000 E0.02449 F2100
G1 X-38.918 Y22.583 Z1.000 E0.46527 F2100
G1 X-38.969 Y22.499 Z1.000 E0.02449 F2100
G1 X-39.870 Y20.866 Z1.000 E0.46527 F2100
G1 X-39.917 Y20.780 Z1.000 E0.02449 F2100
G1 X-40.738 Y19.105 Z1.000 E0.46527 F2100
G1 X-40.782 Y19.017 Z1.000 E0.02449 F2100
G1 X-41.537 Y17.312 Z1.000 E0.46526 F2100
G1 X-41.577 Y17.222 Z1.000 E0.02449 F2100
G1 X-42.248 Y15.482 Z1.000 E0.46528 F2100
G1 X-42.284 Y15.390 Z1.000 E0.02449 F2100
G1 X-42.888 Y13.625 Z1.000 E0.46526 F2100
G1 X-42.919 Y13.532 Z1.000 E0.02449 F2100
G1 X-43.437 Y11.741 Z1.000 E0.46527 F2100
G1 X-43.464 Y11.646 Z1.000 E0.02449 F2100
G1 X-43.912 Y9.836 Z1.000 E0.46528 F2100
G1 X-43.936 Y9.740 Z1.000 E0.02449 F2100
G1 X-44.295 Y7.910 Z1.000 E0.46527 F2100
G1 X-44.314 Y7.814 Z1.000 E0.02449 F2100
G1 X-44.602 Y5.971 Z1.000 E0.46527 F2100
G1 X-44.617 Y5.874 Z1.000 E0.02449 F2100
G1 X-44.816 Y4.019 Z1.000 E0.46527 F2100
G1 X-44.827 Y3.922 Z1.000 E0.02449 F2100
G1 X-44.953 Y2.061 Z1.000 E0.46527 F2100
G1 X-44.959 Y1.963 Z1.000 E0.02449 F2100
G1 X-44.996 Y0.098 Z1.000 E0.46527 F2100

; Layer 2, Z=1.500mm, Diameter=127.3mm, Points=576, Amplitude factor=0.00
G1 X-45.004 Y-0.000 Z1.500 E0.12712 F2100
G1 X-44.958 Y-1.816 Z1.500 E0.45304 F2100
G1 X-44.953 Y-1.963 Z1.500 E0.03673 F2100
G1 X-44.841 Y-3.775 Z1.500 E0.45302 F2100
G1 X-44.832 Y-3.922 Z1.500 E0.03674 F2100
G1 X-44.629 Y-5.727 Z1.500 E0.45304 F2100
G1 X-44.612 Y-5.873 Z1.500 E0.03673 F2100
G1 X-44.341 Y-7.669 Z1.500 E0.45302 F2100
G1 X-44.319 Y-7.815 Z1.500 E0.03674 F2100
G1 X-43.960 Y-9.595 Z1.500 E0.45303 F2100
G1 X-43.931 Y-9.739 Z1.500 E0.03673 F2100
G1 X-43.503 Y-11.504 Z1.500 E0.45303 F2100
G1 X-43.469 Y-11.648 Z1.500 E0.03674 F2100
G1 X-42.957 Y-13.390 Z1.500 E0.45303 F2100
G1 X-42.915 Y-13.531 Z1.500 E0.03673 F2100
G1 X-42.334 Y-15.252 Z1.500 E0.45301 F2100
G1 X-42.288 Y-15.392 Z1.500 E0.03674 F2100
G1 X-41.627 Y-17.083 Z1.500 E0.45305 F2100
G1 X-41.573 Y-17.220 Z1.500 E0.03673 F2100
G1 X-40.843 Y-18.883 Z1.500 E0.45301 F2100
G1 X-40.785 Y-19.018 Z1.500 E0.03674 F2100
G1 X-39.981 Y-20.647 Z1.500 E0.45303 F2100
G1 X-39.914 Y-20.778 Z1.500 E0.03673 F2100
G1 X-39.042 Y-22.371 Z1.500 E0.45302 F2100
G1 X-38.972 Y-22.500 Z1.500 E0.03674 F2100
G1 X-38.029 Y-24.053 Z1.500 E0.45303 F2100
G1 X-37.952 Y-24.178 Z1.500 E0.03673 F2100
G1 X-36.943 Y-25.688 Z1.500 E0.45301 F2100
G1 X-36.862 Y-25.811 Z1.500 E0.03674 F2100
G1 X-35.789 Y-27.276 Z1.500 E0.45304 F2100
G1 X-35.701 Y-27.394 Z1.500 E0.03673 F2100
G1 X-34.563 Y-28.810 Z1.500 E0.45300 F2100
G1 X-34.472 Y-28.925 Z1.500 E0.03674 F2100
G1 X-33.276 Y-30.292 Z1.500 E0.45304 F2100
G1 X-33.178 Y-30.402 Z1.500 E0.03673 F2100
G1 X-31.920 Y-31.712 Z1.500 E0.45302 F2100
G1 X-31.819 Y-31.819 Z1.500 E0.03674 F2100
G1 X-30.509 Y-33.077 Z1.500 E0.45303 F2100
G1 X-30.402 Y-33.178 Z1.500 E0.03673 F2100
G1 X-29.034 Y-34.373 Z1.500 E0.45303 F2100
G1 X-28.924 Y-34.471 Z1.500 E0.03674 F2100
G1 X-27.511 Y-35.611 Z1.500 E0.45302 F2100
G1 X-27.395 Y-35.702 Z1.500 E0.03673 F2100
G1 X-25.928 Y-36.772 Z1.500 E0.45303 F2100
G1 X-25.810 Y-36.860 Z1.500 E0.03674 F2100
G1 X-24.303 Y-37.874 Z1.500 E0.45302 F2100
G1 X-24.180 Y-37.955 Z1.500 E0.03673 F2100
G1 X-22.624 Y-38.892 Z1.500 E0.45302 F2100
G1 X-22.499 Y-38.969 Z1.500 E0.03673 F2100
G1 X-20.910 Y-39.848 Z1.500 E0.45304 F2100
G1 X-20.780 Y-39.918 Z1.500 E0.03673 F2100
G1 X-19.148 Y-40.715 Z1.500 E0.45303 F2100
G1 X-19.017 Y-40.781 Z1.500 E0.03673 F2100
G1 X-17.357 Y-41.519 Z1.500 E0.45302 F2100
G1 X-17.222 Y-41.578 Z1.500 E0.03673 F2100
G1 X-15.527 Y-42.229 Z1.500 E0.45304 F2100
G1 X-15.390 Y-42.283 Z1.500 E0.03673 F2100
G1 X-13.673 Y-42.874 Z1.500 E0.45302 F2100
G1 X-13.533 Y-42.921 Z1.500 E0.03673 F2100
G1 X-11.787 Y-43.421 Z1.500 E0.45303 F2100
G1 X-11.646 Y-43.463 Z1.500 E0.03673 F2100
G1 X-9.884 Y-43.903 Z1.500 E0.45304 F2100
G1 X-9.741 Y-43.937 Z1.500 E0.03673 F2100
G1 X-7.958 Y-44.283 Z1.500 E0.45303 F2100
G1 X-7.813 Y-44.312 Z1.500 E0.03673 F2100
G1 X-6.020 Y-44.597 Z1.500 E0.45303 F2100
G1 X-5.874 Y-44.619 Z1.500 E0.03673 F2100
G1 X-4.068 Y-44.808 Z1.500 E0.45303 F2100
G1 X-3.922 Y-44.824 Z1.500 E0.03673 F2100
G1 X-2.110 Y-44.953 Z1.500 E0.45303 F2100
G1 X-1.963 Y-44.962 Z1.500 E0.03673 F2100
G1 X-0.147 Y-44.992 Z1.500 E0.45303 F2100
G1 X0.000 Y-44.995 Z1.500 E0.03673 F2100
G1 X1.816 Y-44.966 Z1.500 E0.45303 F2100
G1 X1.963 Y-44.962 Z1.500 E0.03673 F2100
G1 X3.775 Y-44.833 Z1.500 E0.45304 F2100
G1 X3.922 Y-44.824 Z1.500 E0.03673 F2100
G1 X5.728 Y-44.636 Z1.500 E0.45303 F2100
G1 X5.874 Y-44.620 Z1.500 E0.03674 F2100
G1 X7.668 Y-44.334 Z1.500 E0.45304 F2100
G1 X7.813 Y-44.311 Z1.500 E0.03673 F2100
G1 X9.596 Y-43.967 Z1.500 E0.45303 F2100
G1 X9.741 Y-43.938 Z1.500 E0.03674 F2100
G1 X11.503 Y-43.497 Z1.500 E0.45304 F2100
G1 X11.646 Y-43.462 Z1.500 E0.03673 F2100
G1 X13.392 Y-42.963 Z1.500 E0.45303 F2100
G1 X13.533 Y-42.922 Z1.500 E0.03674 F2100
G1 X15.250 Y-42.329 Z1.500 E0.45303 F2100
G1 X15.389 Y-42.281 Z1.500 E0.03673 F2100
G1 X17.085 Y-41.632 Z1.500 E0.45304 F2100
G1 X17.223 Y-41.579 Z1.500 E0.03674 F2100
G1 X18.881 Y-40.839 Z1.500 E0.45303 F2100
G1 X19.016 Y-40.779 Z1.500 E0.03673 F2100
G1 X20.649 Y-39.985 Z1.500 E0.45303 F2100
G1 X20.781 Y-39.920 Z1.500 E0.03674 F2100
G1 X22.369 Y-39.038 Z1.500 E0.45304 F2100
G1 X22.498 Y-38.967 Z1.500 E0.03673 F2100
G1 X24.055 Y-38.033 Z1.500 E0.45302 F2100
G1 X24.181 Y-37.957 Z1.500 E0.03674 F2100
G1 X25.686 Y-36.940 Z1.500 E0.45303 F2100
G1 X25.808 Y-36.858 Z1.500 E0.03672 F2100
G1 X27.278 Y-35.791 Z1.500 E0.45303 F2100
G1 X27.397 Y-35.705 Z1.500 E0.03674 F2100
G1 X28.808 Y-34.561 Z1.500 E0.45302 F2100
G1 X28.923 Y-34.469 Z1.500 E0.03672 F2100
G1 X30.293 Y-33.277 Z1.500 E0.45303 F2100
G1 X30.404 Y-33.181 Z1.500 E0.03674 F2100
G1 X31.711 Y-31.919 Z1.500 E0.45303 F2100
G1 X31.817 Y-31.817 Z1.500 E0.03672 F2100
G1 X33.078 Y-30.510 Z1.500 E0.45302 F2100
G1 X33.180 Y-30.404 Z1.500 E0.03674 F2100
G1 X34.373 Y-29.034 Z1.500 E0.45305 F2100
G1 X34.469 Y-28.923 Z1.500 E0.03673 F2100
G1 X35.611 Y-27.511 Z1.500 E0.45301 F2100
G1 X35.704 Y-27.396 Z1.500 E0.03674 F2100
G1 X36.773 Y-25.928 Z1.500 E0.45304 F2100
G1 X36.859 Y-25.809 Z1.500 E0.03673 F2100
G1 X37.872 Y-24.302 Z1.500 E0.45301 F2100
G1 X37.955 Y-24.180 Z1.500 E0.03674 F2100
G1 X38.893 Y-22.625 Z1.500 E0.45304 F2100
G1 X38.969 Y-22.499 Z1.500 E0.03673 F2100
G1 X39.846 Y-20.908 Z1.500 E0.45302 F2100
G1 X39.918 Y-20.780 Z1.500 E0.03674 F2100
G1 X40.718 Y-19.149 Z1.500 E0.45304 F2100
G1 X40.782 Y-19.017 Z1.500 E0.03673 F2100
G1 X41.516 Y-17.356 Z1.500 E0.45301 F2100
G1 X41.576 Y-17.222 Z1.500 E0.03674 F2100
G1 X42.232 Y-15.528 Z1.500 E0.45305 F2100
G1 X42.285 Y-15.390 Z1.500 E0.03673 F2100
G1 X42.870 Y-13.671 Z1.500 E0.45301 F2100
G1 X42.919 Y-13.532 Z1.500 E0.03674 F2100
G1 X43.426 Y-11.788 Z1.500 E0.45303 F2100
G1 X43.466 Y-11.647 Z1.500 E0.03673 F2100
G1 X43.898 Y-9.883 Z1.500 E0.45302 F2100
G1 X43.934 Y-9.740 Z1.500 E0.03674 F2100
G1 X44.288 Y-7.959 Z1.500 E0.45303 F2100
G1 X44.316 Y-7.814 Z1.500 E0.03673 F2100
G1 X44.592 Y-6.019 Z1.500 E0.45302 F2100
G1 X44.615 Y-5.874 Z1.500 E0.03674 F2100
G1 X44.814 Y-4.068 Z1.500 E0.45303 F2100
G1 X44.829 Y-3.922 Z1.500 E0.03673 F2100
G1 X44.946 Y-2.110 Z1.500 E0.45302 F2100
G1 X44.957 Y-1.963 Z1.500 E0.03674 F2100
G1 X44.999 Y-0.147 Z1.500 E0.45303 F2100
G1 X45.001 Y0.000 Z1.500 E0.03673 F2100
G1 X44.958 Y1.816 Z1.500 E0.45302 F2100
G1 X44.956 Y1.963 Z1.500 E0.03674 F2100
G1 X44.841 Y3.775 Z1.500 E0.45303 F2100
G1 X44.830 Y3.922 Z1.500 E0.03673 F2100
G1 X44.628 Y5.727 Z1.500 E0.45302 F2100
G1 X44.613 Y5.873 Z1.500 E0.03674 F2100
G1 X44.342 Y7.669 Z1.500 E0.45303 F2100
G1 X44.318 Y7.814 Z1.500 E0.03673 F2100
G1 X43.959 Y9.595 Z1.500 E0.45302 F2100
G1 X43.931 Y9.739 Z1.500 E0.03674 F2100
G1 X43.505 Y11.505 Z1.500 E0.45304 F2100
G1 X43.469 Y11.648 Z1.500 E0.03673 F2100
G1 X42.955 Y13.389 Z1.500 E0.45302 F2100
G1 X42.915 Y13.531 Z1.500 E0.03673 F2100
G1 X42.337 Y15.253 Z1.500 E0.45302 F2100
G1 X42.289 Y15.392 Z1.500 E0.03673 F2100
G1 X41.624 Y17.082 Z1.500 E0.45304 F2100
G1 X41.572 Y17.220 Z1.500 E0.03673 F2100
G1 X40.847 Y18.885 Z1.500 E0.45302 F2100
G1 X40.787 Y19.019 Z1.500 E0.03673 F2100
G1 X39.977 Y20.645 Z1.500 E0.45303 F2100
G1 X39.912 Y20.777 Z1.500 E0.03673 F2100
G1 X39.046 Y22.373 Z1.500 E0.45303 F2100
G1 X38.974 Y22.502 Z1.500 E0.03673 F2100
G1 X38.025 Y24.050 Z1.500 E0.45303 F2100
G1 X37.949 Y24.176 Z1.500 E0.03673 F2100
G1 X36.948 Y25.691 Z1.500 E0.45302 F2100
G1 X36.865 Y25.813 Z1.500 E0.03673 F2100
G1 X35.784 Y27.273 Z1.500 E0.45304 F2100
G1 X35.697 Y27.392 Z1.500 E0.03673 F2100
G1 X34.568 Y28.814 Z1.500 E0.45302 F2100
G1 X34.475 Y28.928 Z1.500 E0.03673 F2100
G1 X33.271 Y30.287 Z1.500 E0.45304 F2100
G1 X33.174 Y30.398 Z1.500 E0.03673 F2100
G1 X31.925 Y31.717 Z1.500 E0.45303 F2100
G1 X31.823 Y31.823 Z1.500 E0.03673 F2100
G1 X30.504 Y33.072 Z1.500 E0.45303 F2100
G1 X30.398 Y33.174 Z1.500 E0.03673 F2100
G1 X29.039 Y34.379 Z1.500 E0.45304 F2100
G1 X28.929 Y34.476 Z1.500 E0.03674 F2100
G1 X27.506 Y35.605 Z1.500 E0.45302 F2100
G1 X27.391 Y35.697 Z1.500 E0.03673 F2100
G1 X25.933 Y36.779 Z1.500 E0.45304 F2100
G1 X25.814 Y36.866 Z1.500 E0.03674 F2100
G1 X24.298 Y37.866 Z1.500 E0.45303 F2100
G1 X24.176 Y37.948 Z1.500 E0.03673 F2100
G1 X22.628 Y38.899 Z1.500 E0.45303 F2100
G1 X22.503 Y38.976 Z1.500 E0.03674 F2100
G1 X20.905 Y39.840 Z1.500 E0.45304 F2100
G1 X20.776 Y39.911 Z1.500 E0.03673 F2100
G1 X19.152 Y40.723 Z1.500 E0.45303 F2100
G1 X19.020 Y40.788 Z1.500 E0.03674 F2100
G1 X17.354 Y41.511 Z1.500 E0.45303 F2100
G1 X17.219 Y41.570 Z1.500 E0.03673 F2100
G1 X15.530 Y42.237 Z1.500 E0.45304 F2100
G1 X15.393 Y42.291 Z1.500 E0.03674 F2100
G1 X13.670 Y42.866 Z1.500 E0.45303 F2100
G1 X13.530 Y42.913 Z1.500 E0.03673 F2100
G1 X11.789 Y43.430 Z1.500 E0.45302 F2100
G1 X11.648 Y43.471 Z1.500 E0.03674 F2100
G1 X9.882 Y43.894 Z1.500 E0.45305 F2100
G1 X9.739 Y43.929 Z1.500 E0.03673 F2100
G1 X7.959 Y44.292 Z1.500 E0.45302 F2100
G1 X7.815 Y44.321 Z1.500 E0.03674 F2100
G1 X6.019 Y44.589 Z1.500 E0.45304 F2100
G1 X5.873 Y44.610 Z1.500 E0.03673 F2100
G1 X4.069 Y44.817 Z1.500 E0.45302 F2100
G1 X3.922 Y44.833 Z1.500 E0.03674 F2100
G1 X2.110 Y44.944 Z1.500 E0.45304 F2100
G1 X1.963 Y44.953 Z1.500 E0.03673 F2100
G1 X0.147 Y45.000 Z1.500 E0.45302 F2100
G1 X-0.000 Y45.004 Z1.500 E0.03674 F2100
G1 X-1.816 Y44.957 Z1.500 E0.45304 F2100
G1 X-1.963 Y44.953 Z1.500 E0.03673 F2100
G1 X-3.775 Y44.841 Z1.500 E0.45302 F2100
G1 X-3.922 Y44.833 Z1.500 E0.03674 F2100
G1 X-5.727 Y44.628 Z1.500 E0.45304 F2100
G1 X-5.873 Y44.611 Z1.500 E0.03673 F2100
G1 X-7.669 Y44.341 Z1.500 E0.45302 F2100
G1 X-7.815 Y44.320 Z1.500 E0.03674 F2100
G1 X-9.595 Y43.960 Z1.500 E0.45303 F2100
G1 X-9.739 Y43.930 Z1.500 E0.03673 F2100
G1 X-11.504 Y43.503 Z1.500 E0.45303 F2100
G1 X-11.648 Y43.469 Z1.500 E0.03674 F2100
G1 X-13.390 Y42.957 Z1.500 E0.45303 F2100
G1 X-13.531 Y42.915 Z1.500 E0.03673 F2100
G1 X-15.252 Y42.335 Z1.500 E0.45301 F2100
G1 X-15.392 Y42.288 Z1.500 E0.03674 F2100
G1 X-17.083 Y41.627 Z1.500 E0.45305 F2100
G1 X-17.220 Y41.573 Z1.500 E0.03673 F2100
G1 X-18.883 Y40.844 Z1.500 E0.45301 F2100
G1 X-19.019 Y40.785 Z1.500 E0.03674 F2100
G1 X-20.646 Y39.980 Z1.500 E0.45303 F2100
G1 X-20.778 Y39.914 Z1.500 E0.03673 F2100
G1 X-22.371 Y39.042 Z1.500 E0.45302 F2100
G1 X-22.501 Y38.972 Z1.500 E0.03674 F2100
G1 X-24.053 Y38.029 Z1.500 E0.45303 F2100
G1 X-24.178 Y37.952 Z1.500 E0.03673 F2100
G1 X-25.688 Y36.943 Z1.500 E0.45301 F2100
G1 X-25.811 Y36.862 Z1.500 E0.03674 F2100
G1 X-27.276 Y35.789 Z1.500 E0.45304 F2100
G1 X-27.394 Y35.701 Z1.500 E0.03673 F2100
G1 X-28.810 Y34.563 Z1.500 E0.45300 F2100
G1 X-28.925 Y34.472 Z1.500 E0.03674 F2100
G1 X-30.292 Y33.276 Z1.500 E0.45304 F2100
G1 X-30.402 Y33.178 Z1.500 E0.03673 F2100
G1 X-31.712 Y31.920 Z1.500 E0.45302 F2100
G1 X-31.819 Y31.819 Z1.500 E0.03674 F2100
G1 X-33.077 Y30.509 Z1.500 E0.45303 F2100
G1 X-33.178 Y30.402 Z1.500 E0.03673 F2100
G1 X-34.373 Y29.035 Z1.500 E0.45303 F2100
G1 X-34.471 Y28.925 Z1.500 E0.03674 F2100
G1 X-35.611 Y27.511 Z1.500 E0.45302 F2100
G1 X-35.702 Y27.395 Z1.500 E0.03673 F2100
G1 X-36.772 Y25.928 Z1.500 E0.45303 F2100
G1 X-36.860 Y25.810 Z1.500 E0.03674 F2100
G1 X-37.873 Y24.303 Z1.500 E0.45302 F2100
G1 X-37.954 Y24.180 Z1.500 E0.03673 F2100
G1 X-38.892 Y22.624 Z1.500 E0.45302 F2100
G1 X-38.969 Y22.499 Z1.500 E0.03674 F2100
G1 X-39.848 Y20.909 Z1.500 E0.45304 F2100
G1 X-39.918 Y20.780 Z1.500 E0.03673 F2100
G1 X-40.715 Y19.148 Z1.500 E0.45303 F2100
G1 X-40.781 Y19.017 Z1.500 E0.03673 F2100
G1 X-41.519 Y17.357 Z1.500 E0.45302 F2100
G1 X-41.577 Y17.222 Z1.500 E0.03673 F2100
G1 X-42.229 Y15.527 Z1.500 E0.45304 F2100
G1 X-42.283 Y15.390 Z1.500 E0.03673 F2100
G1 X-42.874 Y13.673 Z1.500 E0.45302 F2100
G1 X-42.921 Y13.533 Z1.500 E0.03673 F2100
G1 X-43.421 Y11.787 Z1.500 E0.45303 F2100
G1 X-43.463 Y11.646 Z1.500 E0.03673 F2100
G1 X-43.903 Y9.884 Z1.500 E0.45304 F2100
G1 X-43.937 Y9.741 Z1.500 E0.03673 F2100
G1 X-44.283 Y7.958 Z1.500 E0.45303 F2100
G1 X-44.312 Y7.813 Z1.500 E0.03673 F2100
G1 X-44.597 Y6.020 Z1.500 E0.45303 F2100
G1 X-44.619 Y5.874 Z1.500 E0.03673 F2100
G1 X-44.808 Y4.068 Z1.500 E0.45303 F2100
G1 X-44.824 Y3.922 Z1.500 E0.03673 F2100
G1 X-44.953 Y2.110 Z1.500 E0.45303 F2100
G1 X-44.962 Y1.963 Z1.500 E0.03673 F2100
G1 X-44.992 Y0.147 Z1.500 E0.45303 F2100

; Layer 3, Z=2.000mm, Diameter=127.3mm, Points=576, Amplitude factor=0.01
G1 X-45.007 Y-0.000 Z2.000 E0.13007 F2100
G1 X-44.957 Y-1.766 Z2.000 E0.44081 F2100
G1 X-44.951 Y-1.963 Z2.000 E0.04896 F2100
G1 X-44.846 Y-3.726 Z2.000 E0.44077 F2100
G1 X-44.835 Y-3.923 Z2.000 E0.04900 F2100
G1 X-44.633 Y-5.678 Z2.000 E0.44081 F2100
G1 X-44.609 Y-5.873 Z2.000 E0.04896 F2100
G1 X-44.349 Y-7.621 Z2.000 E0.44077 F2100
G1 X-44.322 Y-7.815 Z2.000 E0.04900 F2100
G1 X-43.969 Y-9.547 Z2.000 E0.44080 F2100
G1 X-43.928 Y-9.739 Z2.000 E0.04896 F2100
G1 X-43.515 Y-11.457 Z2.000 E0.44077 F2100
G1 X-43.471 Y-11.648 Z2.000 E0.04900 F2100
G1 X-42.971 Y-13.343 Z2.000 E0.44080 F2100
G1 X-42.913 Y-13.531 Z2.000 E0.04896 F2100
G1 X-42.350 Y-15.205 Z2.000 E0.44076 F2100
G1 X-42.290 Y-15.392 Z2.000 E0.04900 F2100
G1 X-41.645 Y-17.038 Z2.000 E0.44081 F2100
G1 X-41.572 Y-17.220 Z2.000 E0.04897 F2100
G1 X-40.863 Y-18.838 Z2.000 E0.44076 F2100
G1 X-40.786 Y-19.019 Z2.000 E0.04899 F2100
G1 X-40.003 Y-20.603 Z2.000 E0.44080 F2100
G1 X-39.914 Y-20.778 Z2.000 E0.04897 F2100
G1 X-39.065 Y-22.327 Z2.000 E0.44077 F2100
G1 X-38.973 Y-22.501 Z2.000 E0.04900 F2100
G1 X-38.056 Y-24.012 Z2.000 E0.44080 F2100
G1 X-37.952 Y-24.178 Z2.000 E0.04897 F2100
G1 X-36.969 Y-25.646 Z2.000 E0.44076 F2100
G1 X-36.862 Y-25.811 Z2.000 E0.04899 F2100
G1 X-35.819 Y-27.238 Z2.000 E0.44080 F2100
G1 X-35.701 Y-27.394 Z2.000 E0.04897 F2100
G1 X-34.592 Y-28.770 Z2.000 E0.44075 F2100
G1 X-34.472 Y-28.925 Z2.000 E0.04899 F2100
G1 X-33.310 Y-30.256 Z2.000 E0.44081 F2100
G1 X-33.178 Y-30.402 Z2.000 E0.04897 F2100
G1 X-31.953 Y-31.675 Z2.000 E0.44077 F2100
G1 X-31.819 Y-31.819 Z2.000 E0.04899 F2100
G1 X-30.547 Y-33.045 Z2.000 E0.44079 F2100
G1 X-30.403 Y-33.179 Z2.000 E0.04897 F2100
G1 X-29.070 Y-34.339 Z2.000 E0.44078 F2100
G1 X-28.924 Y-34.470 Z2.000 E0.04899 F2100
G1 X-27.551 Y-35.582 Z2.000 E0.44078 F2100
G1 X-27.396 Y-35.703 Z2.000 E0.04897 F2100
G1 X-25.966 Y-36.741 Z2.000 E0.44079 F2100
G1 X-25.809 Y-36.859 Z2.000 E0.04899 F2100
G1 X-24.345 Y-37.849 Z2.000 E0.44079 F2100
G1 X-24.181 Y-37.956 Z2.000 E0.04897 F2100
G1 X-22.664 Y-38.863 Z2.000 E0.44078 F2100
G1 X-22.498 Y-38.967 Z2.000 E0.04898 F2100
G1 X-20.954 Y-39.827 Z2.000 E0.44080 F2100
G1 X-20.781 Y-39.920 Z2.000 E0.04898 F2100
G1 X-19.191 Y-40.690 Z2.000 E0.44079 F2100
G1 X-19.016 Y-40.779 Z2.000 E0.04898 F2100
G1 X-17.403 Y-41.503 Z2.000 E0.44079 F2100
G1 X-17.223 Y-41.580 Z2.000 E0.04898 F2100
G1 X-15.571 Y-42.208 Z2.000 E0.44080 F2100
G1 X-15.389 Y-42.280 Z2.000 E0.04898 F2100
G1 X-13.720 Y-42.862 Z2.000 E0.44079 F2100
G1 X-13.534 Y-42.924 Z2.000 E0.04898 F2100
G1 X-11.833 Y-43.404 Z2.000 E0.44080 F2100
G1 X-11.645 Y-43.460 Z2.000 E0.04898 F2100
G1 X-9.932 Y-43.895 Z2.000 E0.44080 F2100
G1 X-9.741 Y-43.940 Z2.000 E0.04898 F2100
G1 X-8.005 Y-44.269 Z2.000 E0.44080 F2100
G1 X-7.813 Y-44.309 Z2.000 E0.04897 F2100
G1 X-6.069 Y-44.594 Z2.000 E0.44080 F2100
G1 X-5.875 Y-44.623 Z2.000 E0.04898 F2100
G1 X-4.116 Y-44.798 Z2.000 E0.44081 F2100
G1 X-3.921 Y-44.821 Z2.000 E0.04897 F2100
G1 X-2.159 Y-44.953 Z2.000 E0.44080 F2100
G1 X-1.963 Y-44.966 Z2.000 E0.04898 F2100
G1 X-0.196 Y-44.987 Z2.000 E0.44081 F2100
G1 X0.000 Y-44.991 Z2.000 E0.04897 F2100
G1 X1.767 Y-44.971 Z2.000 E0.44080 F2100
G1 X1.963 Y-44.966 Z2.000 E0.04898 F2100
G1 X3.725 Y-44.833 Z2.000 E0.44081 F2100
G1 X3.921 Y-44.820 Z2.000 E0.04897 F2100
G1 X5.680 Y-44.645 Z2.000 E0.44080 F2100
G1 X5.875 Y-44.624 Z2.000 E0.04899 F2100
G1 X7.619 Y-44.337 Z2.000 E0.44082 F2100
G1 X7.813 Y-44.307 Z2.000 E0.04897 F2100
G1 X9.549 Y-43.980 Z2.000 E0.44079 F2100
G1 X9.742 Y-43.942 Z2.000 E0.04899 F2100
G1 X11.454 Y-43.505 Z2.000 E0.44082 F2100
G1 X11.645 Y-43.458 Z2.000 E0.04896 F2100
G1 X13.346 Y-42.981 Z2.000 E0.44079 F2100
G1 X13.535 Y-42.926 Z2.000 E0.04899 F2100
G1 X15.202 Y-42.341 Z2.000 E0.44081 F2100
G1 X15.388 Y-42.278 Z2.000 E0.04896 F2100
G1 X17.041 Y-41.653 Z2.000 E0.44080 F2100
G1 X17.224 Y-41.583 Z2.000 E0.04899 F2100
G1 X18.835 Y-40.856 Z2.000 E0.44081 F2100
G1 X19.014 Y-40.776 Z2.000 E0.04896 F2100
G1 X20.606 Y-40.009 Z2.000 E0.44079 F2100
G1 X20.783 Y-39.923 Z2.000 E0.04899 F2100
G1 X22.324 Y-39.059 Z2.000 E0.44082 F2100
G1 X22.496 Y-38.964 Z2.000 E0.04896 F2100
G1 X24.014 Y-38.060 Z2.000 E0.44078 F2100
G1 X24.183 Y-37.960 Z2.000 E0.04899 F2100
G1 X25.644 Y-36.965 Z2.000 E0.44081 F2100
G1 X25.806 Y-36.855 Z2.000 E0.04896 F2100
G1 X27.240 Y-35.822 Z2.000 E0.44079 F2100
G1 X27.399 Y-35.707 Z2.000 E0.04899 F2100
G1 X28.768 Y-34.590 Z2.000 E0.44080 F2100
G1 X28.920 Y-34.466 Z2.000 E0.04896 F2100
G1 X30.258 Y-33.311 Z2.000 E0.44079 F2100
G1 X30.407 Y-33.183 Z2.000 E0.04900 F2100
G1 X31.674 Y-31.952 Z2.000 E0.44081 F2100
G1 X31.815 Y-31.815 Z2.000 E0.04896 F2100
G1 X33.045 Y-30.547 Z2.000 E0.44077 F2100
G1 X33.183 Y-30.406 Z2.000 E0.04900 F2100
G1 X34.339 Y-29.070 Z2.000 E0.44082 F2100
G1 X34.467 Y-28.921 Z2.000 E0.04896 F2100
G1 X35.581 Y-27.550 Z2.000 E0.44076 F2100
G1 X35.706 Y-27.398 Z2.000 E0.04899 F2100
G1 X36.743 Y-25.967 Z2.000 E0.44081 F2100
G1 X36.857 Y-25.808 Z2.000 E0.04896 F2100
G1 X37.846 Y-24.343 Z2.000 E0.44076 F2100
G1 X37.957 Y-24.181 Z2.000 E0.04900 F2100
G1 X38.867 Y-22.667 Z2.000 E0.44080 F2100
G1 X38.967 Y-22.498 Z2.000 E0.04896 F2100
G1 X39.823 Y-20.952 Z2.000 E0.44077 F2100
G1 X39.919 Y-20.781 Z2.000 E0.04900 F2100
G1 X40.696 Y-19.193 Z2.000 E0.44080 F2100
G1 X40.780 Y-19.016 Z2.000 E0.04896 F2100
G1 X41.496 Y-17.401 Z2.000 E0.44076 F2100
G1 X41.578 Y-17.222 Z2.000 E0.04900 F2100
G1 X42.215 Y-15.574 Z2.000 E0.44081 F2100
G1 X42.283 Y-15.390 Z2.000 E0.04897 F2100
G1 X42.854 Y-13.718 Z2.000 E0.44075 F2100
G1 X42.920 Y-13.533 Z2.000 E0.04899 F2100
G1 X43.413 Y-11.836 Z2.000 E0.44080 F2100
G1 X43.465 Y-11.646 Z2.000 E0.04897 F2100
G1 X43.885 Y-9.930 Z2.000 E0.44077 F2100
G1 X43.935 Y-9.740 Z2.000 E0.04900 F2100
G1 X44.280 Y-8.007 Z2.000 E0.44080 F2100
G1 X44.315 Y-7.814 Z2.000 E0.04897 F2100
G1 X44.583 Y-6.067 Z2.000 E0.44077 F2100
G1 X44.615 Y-5.874 Z2.000 E0.04899 F2100
G1 X44.810 Y-4.117 Z2.000 E0.44080 F2100
G1 X44.829 Y-3.922 Z2.000 E0.04897 F2100
G1 X44.941 Y-2.159 Z2.000 E0.44077 F2100
G1 X44.957 Y-1.963 Z2.000 E0.04899 F2100
G1 X45.000 Y-0.196 Z2.000 E0.44080 F2100
G1 X45.001 Y0.000 Z2.000 E0.04897 F2100
G1 X44.957 Y1.766 Z2.000 E0.44077 F2100
G1 X44.955 Y1.963 Z2.000 E0.04899 F2100
G1 X44.846 Y3.726 Z2.000 E0.44080 F2100
G1 X44.831 Y3.922 Z2.000 E0.04897 F2100
G1 X44.631 Y5.678 Z2.000 E0.44078 F2100
G1 X44.612 Y5.873 Z2.000 E0.04899 F2100
G1 X44.352 Y7.621 Z2.000 E0.44080 F2100
G1 X44.320 Y7.815 Z2.000 E0.04897 F2100
G1 X43.966 Y9.546 Z2.000 E0.44078 F2100
G1 X43.930 Y9.739 Z2.000 E0.04899 F2100
G1 X43.520 Y11.458 Z2.000 E0.44080 F2100
G1 X43.471 Y11.648 Z2.000 E0.04897 F2100
G1 X42.966 Y13.341 Z2.000 E0.44078 F2100
G1 X42.913 Y13.530 Z2.000 E0.04898 F2100
G1 X42.356 Y15.207 Z2.000 E0.44079 F2100
G1 X42.291 Y15.393 Z2.000 E0.04897 F2100
G1 X41.639 Y17.035 Z2.000 E0.44080 F2100
G1 X41.569 Y17.219 Z2.000 E0.04898 F2100
G1 X40.870 Y18.841 Z2.000 E0.44079 F2100
G1 X40.789 Y19.020 Z2.000 E0.04898 F2100
G1 X39.995 Y20.599 Z2.000 E0.44079 F2100
G1 X39.910 Y20.776 Z2.000 E0.04898 F2100
G1 X39.073 Y22.332 Z2.000 E0.44080 F2100
G1 X38.977 Y22.503 Z2.000 E0.04898 F2100
G1 X38.047 Y24.006 Z2.000 E0.44080 F2100
G1 X37.947 Y24.175 Z2.000 E0.04898 F2100
G1 X36.978 Y25.653 Z2.000 E0.44079 F2100
G1 X36.868 Y25.815 Z2.000 E0.04898 F2100
G1 X35.810 Y27.231 Z2.000 E0.44081 F2100
G1 X35.695 Y27.390 Z2.000 E0.04897 F2100
G1 X34.602 Y28.778 Z2.000 E0.44078 F2100
G1 X34.478 Y28.931 Z2.000 E0.04898 F2100
G1 X33.300 Y30.248 Z2.000 E0.44082 F2100
G1 X33.171 Y30.396 Z2.000 E0.04897 F2100
G1 X31.962 Y31.684 Z2.000 E0.44079 F2100
G1 X31.826 Y31.826 Z2.000 E0.04898 F2100
G1 X30.537 Y33.035 Z2.000 E0.44081 F2100
G1 X30.396 Y33.171 Z2.000 E0.04897 F2100
G1 X29.079 Y34.350 Z2.000 E0.44081 F2100
G1 X28.931 Y34.479 Z2.000 E0.04898 F2100
G1 X27.542 Y35.571 Z2.000 E0.44080 F2100
G1 X27.389 Y35.694 Z2.000 E0.04897 F2100
G1 X25.974 Y36.753 Z2.000 E0.44080 F2100
G1 X25.816 Y36.869 Z2.000 E0.04899 F2100
G1 X24.337 Y37.836 Z2.000 E0.44081 F2100
G1 X24.174 Y37.945 Z2.000 E0.04896 F2100
G1 X22.672 Y38.877 Z2.000 E0.44079 F2100
G1 X22.505 Y38.979 Z2.000 E0.04899 F2100
G1 X20.947 Y39.813 Z2.000 E0.44082 F2100
G1 X20.774 Y39.907 Z2.000 E0.04896 F2100
G1 X19.198 Y40.705 Z2.000 E0.44079 F2100
G1 X19.022 Y40.792 Z2.000 E0.04899 F2100
G1 X17.397 Y41.488 Z2.000 E0.44081 F2100
G1 X17.217 Y41.566 Z2.000 E0.04896 F2100
G1 X15.577 Y42.223 Z2.000 E0.44080 F2100
G1 X15.394 Y42.295 Z2.000 E0.04899 F2100
G1 X13.715 Y42.847 Z2.000 E0.44081 F2100
G1 X13.529 Y42.909 Z2.000 E0.04896 F2100
G1 X11.837 Y43.419 Z2.000 E0.44078 F2100
G1 X11.649 Y43.475 Z2.000 E0.04899 F2100
G1 X9.929 Y43.880 Z2.000 E0.44082 F2100
G1 X9.738 Y43.925 Z2.000 E0.04896 F2100
G1 X8.008 Y44.285 Z2.000 E0.44078 F2100
G1 X7.816 Y44.325 Z2.000 E0.04899 F2100
G1 X6.067 Y44.579 Z2.000 E0.44082 F2100
G1 X5.873 Y44.607 Z2.000 E0.04896 F2100
G1 X4.118 Y44.814 Z2.000 E0.44078 F2100
G1 X3.923 Y44.837 Z2.000 E0.04899 F2100
G1 X2.159 Y44.939 Z2.000 E0.44081 F2100
G1 X1.963 Y44.950 Z2.000 E0.04896 F2100
G1 X0.196 Y45.001 Z2.000 E0.44077 F2100
G1 X-0.000 Y45.007 Z2.000 E0.04899 F2100
G1 X-1.766 Y44.957 Z2.000 E0.44081 F2100
G1 X-1.963 Y44.950 Z2.000 E0.04896 F2100
G1 X-3.726 Y44.846 Z2.000 E0.44077 F2100
G1 X-3.923 Y44.835 Z2.000 E0.04900 F2100
G1 X-5.678 Y44.632 Z2.000 E0.44081 F2100
G1 X-5.873 Y44.609 Z2.000 E0.04896 F2100
G1 X-7.621 Y44.350 Z2.000 E0.44077 F2100
G1 X-7.815 Y44.322 Z2.000 E0.04900 F2100
G1 X-9.547 Y43.969 Z2.000 E0.44080 F2100
G1 X-9.739 Y43.928 Z2.000 E0.04896 F2100
G1 X-11.457 Y43.516 Z2.000 E0.44077 F2100
G1 X-11.648 Y43.472 Z2.000 E0.04900 F2100
G1 X-13.343 Y42.970 Z2.000 E0.44080 F2100
G1 X-13.530 Y42.913 Z2.000 E0.04896 F2100
G1 X-15.206 Y42.351 Z2.000 E0.44076 F2100
G1 X-15.392 Y42.290 Z2.000 E0.04900 F2100
G1 X-17.037 Y41.645 Z2.000 E0.44081 F2100
G1 X-17.219 Y41.571 Z2.000 E0.04897 F2100
G1 X-18.838 Y40.863 Z2.000 E0.44076 F2100
G1 X-19.019 Y40.787 Z2.000 E0.04900 F2100
G1 X-20.603 Y40.002 Z2.000 E0.44080 F2100
G1 X-20.777 Y39.913 Z2.000 E0.04897 F2100
G1 X-22.328 Y39.065 Z2.000 E0.44077 F2100
G1 X-22.501 Y38.973 Z2.000 E0.04900 F2100
G1 X-24.011 Y38.055 Z2.000 E0.44080 F2100
G1 X-24.178 Y37.951 Z2.000 E0.04897 F2100
G1 X-25.647 Y36.970 Z2.000 E0.44076 F2100
G1 X-25.812 Y36.863 Z2.000 E0.04899 F2100
G1 X-27.237 Y35.819 Z2.000 E0.44081 F2100
G1 X-27.394 Y35.700 Z2.000 E0.04897 F2100
G1 X-28.771 Y34.593 Z2.000 E0.44075 F2100
G1 X-28.925 Y34.472 Z2.000 E0.04899 F2100
G1 X-30.256 Y33.309 Z2.000 E0.44081 F2100
G1 X-30.402 Y33.178 Z2.000 E0.04897 F2100
G1 X-31.675 Y31.953 Z2.000 E0.44077 F2100
G1 X-31.819 Y31.819 Z2.000 E0.04899 F2100
G1 X-33.045 Y30.546 Z2.000 E0.44079 F2100
G1 X-33.179 Y30.403 Z2.000 E0.04897 F2100
G1 X-34.339 Y29.070 Z2.000 E0.44078 F2100
G1 X-34.470 Y28.924 Z2.000 E0.04899 F2100
G1 X-35.582 Y27.550 Z2.000 E0.44078 F2100
G1 X-35.703 Y27.396 Z2.000 E0.04897 F2100
G1 X-36.741 Y25.966 Z2.000 E0.44078 F2100
G1 X-36.859 Y25.809 Z2.000 E0.04899 F2100
G1 X-37.848 Y24.345 Z2.000 E0.44079 F2100
G1 X-37.956 Y24.180 Z2.000 E0.04897 F2100
G1 X-38.864 Y22.665 Z2.000 E0.44078 F2100
G1 X-38.968 Y22.498 Z2.000 E0.04898 F2100
G1 X-39.827 Y20.954 Z2.000 E0.44080 F2100
G1 X-39.919 Y20.781 Z2.000 E0.04897 F2100
G1 X-40.691 Y19.191 Z2.000 E0.44078 F2100
G1 X-40.779 Y19.016 Z2.000 E0.04898 F2100
G1 X-41.502 Y17.403 Z2.000 E0.44079 F2100
G1 X-41.580 Y17.223 Z2.000 E0.04897 F2100
G1 X-42.208 Y15.571 Z2.000 E0.44080 F2100
G1 X-42.281 Y15.389 Z2.000 E0.04898 F2100
G1 X-42.862 Y13.720 Z2.000 E0.44079 F2100
G1 X-42.923 Y13.534 Z2.000 E0.04898 F2100
G1 X-43.404 Y11.833 Z2.000 E0.44079 F2100
G1 X-43.460 Y11.645 Z2.000 E0.04898 F2100
G1 X-43.895 Y9.932 Z2.000 E0.44080 F2100
G1 X-43.940 Y9.741 Z2.000 E0.04898 F2100
G1 X-44.270 Y8.005 Z2.000 E0.44080 F2100
G1 X-44.309 Y7.813 Z2.000 E0.04897 F2100
G1 X-44.594 Y6.069 Z2.000 E0.44080 F2100
G1 X-44.622 Y5.875 Z2.000 E0.04898 F2100
G1 X-44.799 Y4.116 Z2.000 E0.44080 F2100
G1 X-44.821 Y3.921 Z2.000 E0.04897 F2100
G1 X-44.953 Y2.159 Z2.000 E0.44080 F2100
G1 X-44.965 Y1.963 Z2.000 E0.04898 F2100
G1 X-44.987 Y0.196 Z2.000 E0.44081 F2100

; Layer 4, Z=2.500mm, Diameter=127.3mm, Points=576, Amplitude factor=0.01
G1 X-45.000 Y0.000 Z2.500 E0.13403 F2100
G1 X-44.969 Y-1.718 Z2.500 E0.42856 F2100
G1 X-44.958 Y-1.963 Z2.500 E0.06121 F2100
G1 X-44.838 Y-3.677 Z2.500 E0.42852 F2100
G1 X-44.827 Y-3.922 Z2.500 E0.06125 F2100
G1 X-44.649 Y-5.631 Z2.500 E0.42857 F2100
G1 X-44.617 Y-5.874 Z2.500 E0.06122 F2100
G1 X-44.345 Y-7.570 Z2.500 E0.42853 F2100
G1 X-44.313 Y-7.814 Z2.500 E0.06125 F2100
G1 X-43.990 Y-9.501 Z2.500 E0.42856 F2100
G1 X-43.937 Y-9.741 Z2.500 E0.06122 F2100
G1 X-43.516 Y-11.406 Z2.500 E0.42854 F2100
G1 X-43.462 Y-11.646 Z2.500 E0.06124 F2100
G1 X-42.996 Y-13.299 Z2.500 E0.42857 F2100
G1 X-42.923 Y-13.533 Z2.500 E0.06122 F2100
G1 X-42.355 Y-15.155 Z2.500 E0.42853 F2100
G1 X-42.280 Y-15.389 Z2.500 E0.06124 F2100
G1 X-41.674 Y-16.996 Z2.500 E0.42858 F2100
G1 X-41.581 Y-17.224 Z2.500 E0.06122 F2100
G1 X-40.872 Y-18.788 Z2.500 E0.42855 F2100
G1 X-40.777 Y-19.014 Z2.500 E0.06123 F2100
G1 X-40.035 Y-20.564 Z2.500 E0.42857 F2100
G1 X-39.923 Y-20.783 Z2.500 E0.06122 F2100
G1 X-39.078 Y-22.279 Z2.500 E0.42857 F2100
G1 X-38.963 Y-22.495 Z2.500 E0.06123 F2100
G1 X-38.091 Y-23.976 Z2.500 E0.42858 F2100
G1 X-37.961 Y-24.184 Z2.500 E0.06123 F2100
G1 X-36.987 Y-25.599 Z2.500 E0.42857 F2100
G1 X-36.853 Y-25.805 Z2.500 E0.06122 F2100
G1 X-35.857 Y-27.205 Z2.500 E0.42859 F2100
G1 X-35.710 Y-27.401 Z2.500 E0.06123 F2100
G1 X-34.615 Y-28.725 Z2.500 E0.42857 F2100
G1 X-34.463 Y-28.918 Z2.500 E0.06122 F2100
G1 X-33.350 Y-30.227 Z2.500 E0.42859 F2100
G1 X-33.186 Y-30.410 Z2.500 E0.06123 F2100
G1 X-31.979 Y-31.633 Z2.500 E0.42859 F2100
G1 X-31.811 Y-31.811 Z2.500 E0.06121 F2100
G1 X-30.589 Y-33.018 Z2.500 E0.42858 F2100
G1 X-30.410 Y-33.187 Z2.500 E0.06123 F2100
G1 X-29.101 Y-34.299 Z2.500 E0.42861 F2100
G1 X-28.917 Y-34.462 Z2.500 E0.06121 F2100
G1 X-27.594 Y-35.559 Z2.500 E0.42857 F2100
G1 X-27.402 Y-35.712 Z2.500 E0.06123 F2100
G1 X-26.001 Y-36.705 Z2.500 E0.42862 F2100
G1 X-25.803 Y-36.851 Z2.500 E0.06120 F2100
G1 X-24.390 Y-37.828 Z2.500 E0.42857 F2100
G1 X-24.186 Y-37.964 Z2.500 E0.06124 F2100
G1 X-22.703 Y-38.832 Z2.500 E0.42861 F2100
G1 X-22.493 Y-38.959 Z2.500 E0.06120 F2100
G1 X-21.000 Y-39.810 Z2.500 E0.42858 F2100
G1 X-20.785 Y-39.928 Z2.500 E0.06124 F2100
G1 X-19.232 Y-40.663 Z2.500 E0.42862 F2100
G1 X-19.012 Y-40.771 Z2.500 E0.06120 F2100
G1 X-17.451 Y-41.488 Z2.500 E0.42856 F2100
G1 X-17.226 Y-41.588 Z2.500 E0.06124 F2100
G1 X-15.615 Y-42.185 Z2.500 E0.42863 F2100
G1 X-15.386 Y-42.273 Z2.500 E0.06120 F2100
G1 X-13.768 Y-42.851 Z2.500 E0.42856 F2100
G1 X-13.536 Y-42.931 Z2.500 E0.06125 F2100
G1 X-11.879 Y-43.386 Z2.500 E0.42862 F2100
G1 X-11.643 Y-43.453 Z2.500 E0.06119 F2100
G1 X-9.981 Y-43.887 Z2.500 E0.42856 F2100
G1 X-9.743 Y-43.947 Z2.500 E0.06125 F2100
G1 X-8.053 Y-44.257 Z2.500 E0.42861 F2100
G1 X-7.812 Y-44.303 Z2.500 E0.06119 F2100
G1 X-6.118 Y-44.588 Z2.500 E0.42855 F2100
G1 X-5.875 Y-44.628 Z2.500 E0.06125 F2100
G1 X-4.165 Y-44.792 Z2.500 E0.42861 F2100
G1 X-3.921 Y-44.816 Z2.500 E0.06119 F2100
G1 X-2.208 Y-44.951 Z2.500 E0.42854 F2100
G1 X-1.963 Y-44.970 Z2.500 E0.06126 F2100
G1 X-0.245 Y-44.986 Z2.500 E0.42861 F2100
G1 X0.000 Y-44.987 Z2.500 E0.06119 F2100
G1 X1.718 Y-44.971 Z2.500 E0.42853 F2100
G1 X1.963 Y-44.969 Z2.500 E0.06126 F2100
G1 X3.676 Y-44.837 Z2.500 E0.42860 F2100
G1 X3.921 Y-44.817 Z2.500 E0.06120 F2100
G1 X5.631 Y-44.649 Z2.500 E0.42853 F2100
G1 X5.875 Y-44.626 Z2.500 E0.06126 F2100
G1 X7.571 Y-44.347 Z2.500 E0.42860 F2100
G1 X7.812 Y-44.306 Z2.500 E0.06120 F2100
G1 X9.500 Y-43.987 Z2.500 E0.42852 F2100
G1 X9.742 Y-43.943 Z2.500 E0.06126 F2100
G1 X11.407 Y-43.520 Z2.500 E0.42860 F2100
G1 X11.644 Y-43.458 Z2.500 E0.06120 F2100
G1 X13.297 Y-42.990 Z2.500 E0.42851 F2100
G1 X13.534 Y-42.926 Z2.500 E0.06126 F2100
G1 X15.157 Y-42.362 Z2.500 E0.42857 F2100
G1 X15.388 Y-42.278 Z2.500 E0.06120 F2100
G1 X16.993 Y-41.666 Z2.500 E0.42852 F2100
G1 X17.224 Y-41.582 Z2.500 E0.06127 F2100
G1 X18.793 Y-40.881 Z2.500 E0.42857 F2100
G1 X19.015 Y-40.778 Z2.500 E0.06120 F2100
G1 X20.559 Y-40.025 Z2.500 E0.42851 F2100
G1 X20.781 Y-39.921 Z2.500 E0.06126 F2100
G1 X22.285 Y-39.089 Z2.500 E0.42858 F2100
G1 X22.497 Y-38.967 Z2.500 E0.06121 F2100
G1 X23.968 Y-38.079 Z2.500 E0.42851 F2100
G1 X24.181 Y-37.956 Z2.500 E0.06126 F2100
G1 X25.608 Y-37.000 Z2.500 E0.42856 F2100
G1 X25.809 Y-36.859 Z2.500 E0.06121 F2100
G1 X27.195 Y-35.844 Z2.500 E0.42851 F2100
G1 X27.396 Y-35.703 Z2.500 E0.06126 F2100
G1 X28.736 Y-34.628 Z2.500 E0.42855 F2100
G1 X28.924 Y-34.470 Z2.500 E0.06121 F2100
G1 X30.214 Y-33.336 Z2.500 E0.42852 F2100
G1 X30.402 Y-33.178 Z2.500 E0.06126 F2100
G1 X31.646 Y-31.993 Z2.500 E0.42856 F2100
G1 X31.819 Y-31.819 Z2.500 E0.06121 F2100
G1 X33.004 Y-30.575 Z2.500 E0.42851 F2100
G1 X33.177 Y-30.401 Z2.500 E0.06126 F2100
G1 X34.315 Y-29.114 Z2.500 E0.42858 F2100
G1 X34.473 Y-28.926 Z2.500 E0.06122 F2100
G1 X35.542 Y-27.581 Z2.500 E0.42851 F2100
G1 X35.699 Y-27.393 Z2.500 E0.06125 F2100
G1 X36.723 Y-26.013 Z2.500 E0.42857 F2100
G1 X36.864 Y-25.813 Z2.500 E0.06122 F2100
G1 X37.809 Y-24.378 Z2.500 E0.42852 F2100
G1 X37.950 Y-24.177 Z2.500 E0.06125 F2100
G1 X38.852 Y-22.714 Z2.500 E0.42857 F2100
G1 X38.975 Y-22.502 Z2.500 E0.06122 F2100
G1 X39.789 Y-20.989 Z2.500 E0.42854 F2100
G1 X39.911 Y-20.776 Z2.500 E0.06124 F2100
G1 X40.685 Y-19.242 Z2.500 E0.42857 F2100
G1 X40.789 Y-19.020 Z2.500 E0.06122 F2100
G1 X41.466 Y-17.441 Z2.500 E0.42854 F2100
G1 X41.568 Y-17.218 Z2.500 E0.06124 F2100
G1 X42.208 Y-15.624 Z2.500 E0.42858 F2100
G1 X42.293 Y-15.393 Z2.500 E0.06122 F2100
G1 X42.827 Y-13.761 Z2.500 E0.42855 F2100
G1 X42.910 Y-13.529 Z2.500 E0.06123 F2100
G1 X43.410 Y-11.886 Z2.500 E0.42857 F2100
G1 X43.475 Y-11.649 Z2.500 E0.06122 F2100
G1 X43.862 Y-9.975 Z2.500 E0.42857 F2100
G1 X43.924 Y-9.738 Z2.500 E0.06123 F2100
G1 X44.281 Y-8.057 Z2.500 E0.42857 F2100
G1 X44.326 Y-7.816 Z2.500 E0.06123 F2100
G1 X44.564 Y-6.114 Z2.500 E0.42858 F2100
G1 X44.604 Y-5.872 Z2.500 E0.06122 F2100
G1 X44.816 Y-4.167 Z2.500 E0.42858 F2100
G1 X44.840 Y-3.923 Z2.500 E0.06123 F2100
G1 X44.927 Y-2.207 Z2.500 E0.42859 F2100
G1 X44.946 Y-1.962 Z2.500 E0.06122 F2100
G1 X45.009 Y-0.245 Z2.500 E0.42858 F2100
G1 X45.012 Y0.000 Z2.500 E0.06123 F2100
G1 X44.948 Y1.717 Z2.500 E0.42859 F2100
G1 X44.945 Y1.962 Z2.500 E0.06121 F2100
G1 X44.859 Y3.678 Z2.500 E0.42858 F2100
G1 X44.842 Y3.923 Z2.500 E0.06123 F2100
G1 X44.627 Y5.628 Z2.500 E0.42860 F2100
G1 X44.602 Y5.872 Z2.500 E0.06121 F2100
G1 X44.368 Y7.574 Z2.500 E0.42858 F2100
G1 X44.330 Y7.817 Z2.500 E0.06124 F2100
G1 X43.967 Y9.496 Z2.500 E0.42861 F2100
G1 X43.920 Y9.737 Z2.500 E0.06120 F2100
G1 X43.539 Y11.412 Z2.500 E0.42858 F2100
G1 X43.480 Y11.651 Z2.500 E0.06124 F2100
G1 X42.973 Y13.292 Z2.500 E0.42861 F2100
G1 X42.904 Y13.528 Z2.500 E0.06120 F2100
G1 X42.378 Y15.163 Z2.500 E0.42856 F2100
G1 X42.300 Y15.396 Z2.500 E0.06124 F2100
G1 X41.651 Y16.987 Z2.500 E0.42863 F2100
G1 X41.561 Y17.215 Z2.500 E0.06120 F2100
G1 X40.895 Y18.799 Z2.500 E0.42856 F2100
G1 X40.797 Y19.024 Z2.500 E0.06124 F2100
G1 X40.013 Y20.553 Z2.500 E0.42862 F2100
G1 X39.903 Y20.772 Z2.500 E0.06120 F2100
G1 X39.100 Y22.291 Z2.500 E0.42857 F2100
G1 X38.983 Y22.507 Z2.500 E0.06125 F2100
G1 X38.070 Y23.962 Z2.500 E0.42862 F2100
G1 X37.941 Y24.171 Z2.500 E0.06119 F2100
G1 X37.008 Y25.613 Z2.500 E0.42855 F2100
G1 X36.873 Y25.819 Z2.500 E0.06125 F2100
G1 X35.837 Y27.190 Z2.500 E0.42862 F2100
G1 X35.690 Y27.386 Z2.500 E0.06119 F2100
G1 X34.634 Y28.741 Z2.500 E0.42854 F2100
G1 X34.482 Y28.934 Z2.500 E0.06125 F2100
G1 X33.332 Y30.210 Z2.500 E0.42862 F2100
G1 X33.168 Y30.393 Z2.500 E0.06120 F2100
G1 X31.996 Y31.649 Z2.500 E0.42854 F2100
G1 X31.829 Y31.829 Z2.500 E0.06126 F2100
G1 X30.573 Y33.001 Z2.500 E0.42860 F2100
G1 X30.393 Y33.168 Z2.500 E0.06119 F2100
G1 X29.115 Y34.316 Z2.500 E0.42854 F2100
G1 X28.933 Y34.481 Z2.500 E0.06126 F2100
G1 X27.581 Y35.541 Z2.500 E0.42859 F2100
G1 X27.387 Y35.692 Z2.500 E0.06119 F2100
G1 X26.013 Y36.722 Z2.500 E0.42853 F2100
G1 X25.817 Y36.871 Z2.500 E0.06126 F2100
G1 X24.379 Y37.811 Z2.500 E0.42859 F2100
G1 X24.173 Y37.944 Z2.500 E0.06120 F2100
G1 X22.712 Y38.848 Z2.500 E0.42852 F2100
G1 X22.505 Y38.980 Z2.500 E0.06126 F2100
G1 X20.992 Y39.794 Z2.500 E0.42859 F2100
G1 X20.774 Y39.907 Z2.500 E0.06120 F2100
G1 X19.239 Y40.679 Z2.500 E0.42851 F2100
G1 X19.021 Y40.792 Z2.500 E0.06126 F2100
G1 X17.444 Y41.473 Z2.500 E0.42857 F2100
G1 X17.218 Y41.567 Z2.500 E0.06120 F2100
G1 X15.620 Y42.199 Z2.500 E0.42852 F2100
G1 X15.393 Y42.293 Z2.500 E0.06127 F2100
G1 X13.764 Y42.837 Z2.500 E0.42857 F2100
G1 X13.530 Y42.911 Z2.500 E0.06120 F2100
G1 X11.883 Y43.398 Z2.500 E0.42851 F2100
G1 X11.648 Y43.472 Z2.500 E0.06126 F2100
G1 X9.978 Y43.875 Z2.500 E0.42858 F2100
G1 X9.739 Y43.928 Z2.500 E0.06121 F2100
G1 X8.055 Y44.267 Z2.500 E0.42850 F2100
G1 X7.815 Y44.320 Z2.500 E0.06126 F2100
G1 X6.117 Y44.580 Z2.500 E0.42857 F2100
G1 X5.873 Y44.612 Z2.500 E0.06121 F2100
G1 X4.166 Y44.799 Z2.500 E0.42851 F2100
G1 X3.922 Y44.831 Z2.500 E0.06126 F2100
G1 X2.208 Y44.945 Z2.500 E0.42857 F2100
G1 X1.963 Y44.955 Z2.500 E0.06121 F2100
G1 X0.245 Y44.990 Z2.500 E0.42851 F2100
G1 X-0.000 Y45.001 Z2.500 E0.06126 F2100
G1 X-1.718 Y44.968 Z2.500 E0.42856 F2100
G1 X-1.963 Y44.957 Z2.500 E0.06121 F2100
G1 X-3.677 Y44.839 Z2.500 E0.42852 F2100
G1 X-3.922 Y44.828 Z2.500 E0.06125 F2100
G1 X-5.631 Y44.648 Z2.500 E0.42857 F2100
G1 X-5.874 Y44.617 Z2.500 E0.06121 F2100
G1 X-7.570 Y44.346 Z2.500 E0.42852 F2100
G1 X-7.814 Y44.314 Z2.500 E0.06125 F2100
G1 X-9.501 Y43.989 Z2.500 E0.42856 F2100
G1 X-9.740 Y43.936 Z2.500 E0.06122 F2100
G1 X-11.406 Y43.516 Z2.500 E0.42854 F2100
G1 X-11.646 Y43.463 Z2.500 E0.06125 F2100
G1 X-13.299 Y42.995 Z2.500 E0.42857 F2100
G1 X-13.533 Y42.922 Z2.500 E0.06122 F2100
G1 X-15.155 Y42.356 Z2.500 E0.42853 F2100
G1 X-15.389 Y42.281 Z2.500 E0.06124 F2100
G1 X-16.996 Y41.673 Z2.500 E0.42858 F2100
G1 X-17.223 Y41.580 Z2.500 E0.06122 F2100
G1 X-18.788 Y40.872 Z2.500 E0.42854 F2100
G1 X-19.015 Y40.777 Z2.500 E0.06124 F2100
G1 X-20.564 Y40.034 Z2.500 E0.42857 F2100
G1 X-20.782 Y39.922 Z2.500 E0.06122 F2100
G1 X-22.279 Y39.079 Z2.500 E0.42856 F2100
G1 X-22.496 Y38.964 Z2.500 E0.06123 F2100
G1 X-23.975 Y38.091 Z2.500 E0.42858 F2100
G1 X-24.183 Y37.960 Z2.500 E0.06122 F2100
G1 X-25.599 Y36.987 Z2.500 E0.42856 F2100
G1 X-25.805 Y36.854 Z2.500 E0.06122 F2100
G1 X-27.204 Y35.857 Z2.500 E0.42859 F2100
G1 X-27.401 Y35.709 Z2.500 E0.06123 F2100
G1 X-28.725 Y34.615 Z2.500 E0.42857 F2100
G1 X-28.918 Y34.464 Z2.500 E0.06122 F2100
G1 X-30.226 Y33.350 Z2.500 E0.42859 F2100
G1 X-30.409 Y33.186 Z2.500 E0.06123 F2100
G1 X-31.633 Y31.980 Z2.500 E0.42859 F2100
G1 X-31.811 Y31.811 Z2.500 E0.06121 F2100
G1 X-33.018 Y30.589 Z2.500 E0.42858 F2100
G1 X-33.187 Y30.410 Z2.500 E0.06123 F2100
G1 X-34.299 Y29.101 Z2.500 E0.42861 F2100
G1 X-34.462 Y28.917 Z2.500 E0.06121 F2100
G1 X-35.559 Y27.594 Z2.500 E0.42857 F2100
G1 X-35.711 Y27.402 Z2.500 E0.06123 F2100
G1 X-36.705 Y26.001 Z2.500 E0.42861 F2100
G1 X-36.851 Y25.803 Z2.500 E0.06121 F2100
G1 X-37.828 Y24.390 Z2.500 E0.42857 F2100
G1 X-37.964 Y24.186 Z2.500 E0.06123 F2100
G1 X-38.832 Y22.703 Z2.500 E0.42861 F2100
G1 X-38.959 Y22.493 Z2.500 E0.06120 F2100
G1 X-39.810 Y21.000 Z2.500 E0.42858 F2100
G1 X-39.928 Y20.785 Z2.500 E0.06124 F2100
G1 X-40.663 Y19.232 Z2.500 E0.42861 F2100
G1 X-40.771 Y19.012 Z2.500 E0.06120 F2100
G1 X-41.488 Y17.451 Z2.500 E0.42857 F2100
G1 X-41.588 Y17.226 Z2.500 E0.06124 F2100
G1 X-42.185 Y15.615 Z2.500 E0.42863 F2100
G1 X-42.273 Y15.386 Z2.500 E0.06120 F2100
G1 X-42.851 Y13.768 Z2.500 E0.42856 F2100
G1 X-42.931 Y13.536 Z2.500 E0.06124 F2100
G1 X-43.386 Y11.879 Z2.500 E0.42862 F2100
G1 X-43.453 Y11.643 Z2.500 E0.06119 F2100
G1 X-43.887 Y9.981 Z2.500 E0.42857 F2100
G1 X-43.947 Y9.743 Z2.500 E0.06125 F2100
G1 X-44.257 Y8.053 Z2.500 E0.42861 F2100
G1 X-44.302 Y7.812 Z2.500 E0.06119 F2100
G1 X-44.589 Y6.118 Z2.500 E0.42856 F2100
G1 X-44.629 Y5.875 Z2.500 E0.06125 F2100
G1 X-44.791 Y4.165 Z2.500 E0.42861 F2100
G1 X-44.815 Y3.921 Z2.500 E0.06119 F2100
G1 X-44.951 Y2.208 Z2.500 E0.42855 F2100
G1 X-44.971 Y1.963 Z2.500 E0.06125 F2100
G1 X-44.985 Y0.245 Z2.500 E0.42861 F2100

; Layer 5, Z=3.000mm, Diameter=127.3mm, Points=576, Amplitude factor=0.01
G1 X-45.000 Y0.000 Z3.000 E0.13898 F2100
G1 X-44.974 Y-1.669 Z3.000 E0.41634 F2100
G1 X-44.958 Y-1.963 Z3.000 E0.07347 F2100
G1 X-44.837 Y-3.627 Z3.000 E0.41627 F2100
G1 X-44.826 Y-3.922 Z3.000 E0.07353 F2100
G1 X-44.659 Y-5.582 Z3.000 E0.41634 F2100
G1 X-44.619 Y-5.874 Z3.000 E0.07347 F2100
G1 X-44.348 Y-7.521 Z3.000 E0.41628 F2100
G1 X-44.312 Y-7.813 Z3.000 E0.07352 F2100
G1 X-44.005 Y-9.454 Z3.000 E0.41635 F2100
G1 X-43.939 Y-9.741 Z3.000 E0.07347 F2100
G1 X-43.522 Y-11.357 Z3.000 E0.41631 F2100
G1 X-43.460 Y-11.645 Z3.000 E0.07351 F2100
G1 X-43.015 Y-13.254 Z3.000 E0.41635 F2100
G1 X-42.925 Y-13.534 Z3.000 E0.07347 F2100
G1 X-42.365 Y-15.106 Z3.000 E0.41631 F2100
G1 X-42.278 Y-15.388 Z3.000 E0.07350 F2100
G1 X-41.697 Y-16.953 Z3.000 E0.41637 F2100
G1 X-41.584 Y-17.225 Z3.000 E0.07348 F2100
G1 X-40.886 Y-18.741 Z3.000 E0.41633 F2100
G1 X-40.774 Y-19.013 Z3.000 E0.07349 F2100
G1 X-40.062 Y-20.523 Z3.000 E0.41637 F2100
G1 X-39.926 Y-20.784 Z3.000 E0.07348 F2100
G1 X-39.096 Y-22.232 Z3.000 E0.41636 F2100
G1 X-38.960 Y-22.493 Z3.000 E0.07348 F2100
G1 X-38.122 Y-23.937 Z3.000 E0.41637 F2100
G1 X-37.964 Y-24.186 Z3.000 E0.07348 F2100
G1 X-37.009 Y-25.555 Z3.000 E0.41637 F2100
G1 X-36.850 Y-25.802 Z3.000 E0.07347 F2100
G1 X-35.891 Y-27.169 Z3.000 E0.41639 F2100
G1 X-35.713 Y-27.404 Z3.000 E0.07348 F2100
G1 X-34.641 Y-28.683 Z3.000 E0.41639 F2100
G1 X-34.459 Y-28.915 Z3.000 E0.07346 F2100
G1 X-33.387 Y-30.194 Z3.000 E0.41639 F2100
G1 X-33.190 Y-30.413 Z3.000 E0.07349 F2100
G1 X-32.009 Y-31.593 Z3.000 E0.41641 F2100
G1 X-31.807 Y-31.807 Z3.000 E0.07345 F2100
G1 X-30.628 Y-32.989 Z3.000 E0.41638 F2100
G1 X-30.414 Y-33.191 Z3.000 E0.07349 F2100
G1 X-29.133 Y-34.262 Z3.000 E0.41644 F2100
G1 X-28.913 Y-34.458 Z3.000 E0.07344 F2100
G1 X-27.637 Y-35.533 Z3.000 E0.41637 F2100
G1 X-27.406 Y-35.716 Z3.000 E0.07349 F2100
G1 X-26.037 Y-36.671 Z3.000 E0.41645 F2100
G1 X-25.800 Y-36.846 Z3.000 E0.07344 F2100
G1 X-24.434 Y-37.806 Z3.000 E0.41638 F2100
G1 X-24.189 Y-37.970 Z3.000 E0.07349 F2100
G1 X-22.742 Y-38.801 Z3.000 E0.41645 F2100
G1 X-22.490 Y-38.954 Z3.000 E0.07343 F2100
G1 X-21.046 Y-39.791 Z3.000 E0.41638 F2100
G1 X-20.788 Y-39.934 Z3.000 E0.07350 F2100
G1 X-19.274 Y-40.636 Z3.000 E0.41645 F2100
G1 X-19.009 Y-40.765 Z3.000 E0.07343 F2100
G1 X-17.498 Y-41.473 Z3.000 E0.41636 F2100
G1 X-17.229 Y-41.594 Z3.000 E0.07351 F2100
G1 X-15.659 Y-42.162 Z3.000 E0.41646 F2100
G1 X-15.384 Y-42.267 Z3.000 E0.07342 F2100
G1 X-13.816 Y-42.839 Z3.000 E0.41635 F2100
G1 X-13.538 Y-42.937 Z3.000 E0.07351 F2100
G1 X-11.925 Y-43.368 Z3.000 E0.41644 F2100
G1 X-11.642 Y-43.447 Z3.000 E0.07342 F2100
G1 X-10.029 Y-43.879 Z3.000 E0.41635 F2100
G1 X-9.744 Y-43.953 Z3.000 E0.07352 F2100
G1 X-8.100 Y-44.244 Z3.000 E0.41644 F2100
G1 X-7.811 Y-44.297 Z3.000 E0.07342 F2100
G1 X-6.167 Y-44.585 Z3.000 E0.41633 F2100
G1 X-5.876 Y-44.634 Z3.000 E0.07353 F2100
G1 X-4.213 Y-44.783 Z3.000 E0.41643 F2100
G1 X-3.920 Y-44.810 Z3.000 E0.07342 F2100
G1 X-2.257 Y-44.951 Z3.000 E0.41631 F2100
G1 X-1.964 Y-44.976 Z3.000 E0.07353 F2100
G1 X-0.294 Y-44.982 Z3.000 E0.41642 F2100
G1 X0.000 Y-44.982 Z3.000 E0.07343 F2100
G1 X1.669 Y-44.974 Z3.000 E0.41630 F2100
G1 X1.964 Y-44.975 Z3.000 E0.07354 F2100
G1 X3.627 Y-44.838 Z3.000 E0.41641 F2100
G1 X3.921 Y-44.812 Z3.000 E0.07343 F2100
G1 X5.582 Y-44.656 Z3.000 E0.41628 F2100
G1 X5.876 Y-44.631 Z3.000 E0.07354 F2100
G1 X7.522 Y-44.354 Z3.000 E0.41640 F2100
G1 X7.812 Y-44.301 Z3.000 E0.07343 F2100
G1 X9.452 Y-43.997 Z3.000 E0.41627 F2100
G1 X9.743 Y-43.947 Z3.000 E0.07355 F2100
G1 X11.359 Y-43.532 Z3.000 E0.41639 F2100
G1 X11.643 Y-43.453 Z3.000 E0.07344 F2100
G1 X13.250 Y-43.004 Z3.000 E0.41626 F2100
G1 X13.536 Y-42.929 Z3.000 E0.07355 F2100
G1 X15.111 Y-42.378 Z3.000 E0.41636 F2100
G1 X15.387 Y-42.275 Z3.000 E0.07344 F2100
G1 X16.947 Y-41.683 Z3.000 E0.41626 F2100
G1 X17.225 Y-41.585 Z3.000 E0.07355 F2100
G1 X18.748 Y-40.902 Z3.000 E0.41635 F2100
G1 X19.014 Y-40.775 Z3.000 E0.07345 F2100
G1 X20.514 Y-40.045 Z3.000 E0.41625 F2100
G1 X20.783 Y-39.923 Z3.000 E0.07355 F2100
G1 X22.243 Y-39.114 Z3.000 E0.41635 F2100
G1 X22.496 Y-38.965 Z3.000 E0.07345 F2100
G1 X23.925 Y-38.103 Z3.000 E0.41624 F2100
G1 X24.182 Y-37.958 Z3.000 E0.07355 F2100
G1 X25.568 Y-37.029 Z3.000 E0.41634 F2100
G1 X25.808 Y-36.857 Z3.000 E0.07346 F2100
G1 X27.154 Y-35.871 Z3.000 E0.41625 F2100
G1 X27.397 Y-35.704 Z3.000 E0.07355 F2100
G1 X28.700 Y-34.661 Z3.000 E0.41633 F2100
G1 X28.923 Y-34.470 Z3.000 E0.07346 F2100
G1 X30.175 Y-33.366 Z3.000 E0.41626 F2100
G1 X30.403 Y-33.179 Z3.000 E0.07354 F2100
G1 X31.613 Y-32.030 Z3.000 E0.41634 F2100
G1 X31.819 Y-31.819 Z3.000 E0.07346 F2100
G1 X32.967 Y-30.608 Z3.000 E0.41626 F2100
G1 X33.177 Y-30.401 Z3.000 E0.07353 F2100
G1 X34.286 Y-29.154 Z3.000 E0.41635 F2100
G1 X34.473 Y-28.927 Z3.000 E0.07347 F2100
G1 X35.507 Y-27.617 Z3.000 E0.41626 F2100
G1 X35.699 Y-27.393 Z3.000 E0.07352 F2100
G1 X36.698 Y-26.056 Z3.000 E0.41635 F2100
G1 X36.865 Y-25.813 Z3.000 E0.07347 F2100
G1 X37.778 Y-24.416 Z3.000 E0.41628 F2100
G1 X37.948 Y-24.176 Z3.000 E0.07352 F2100
G1 X38.831 Y-22.759 Z3.000 E0.41635 F2100
G1 X38.977 Y-22.503 Z3.000 E0.07347 F2100
G1 X39.760 Y-21.030 Z3.000 E0.41631 F2100
G1 X39.909 Y-20.775 Z3.000 E0.07351 F2100
G1 X40.668 Y-19.289 Z3.000 E0.41636 F2100
G1 X40.792 Y-19.021 Z3.000 E0.07347 F2100
G1 X41.441 Y-17.484 Z3.000 E0.41632 F2100
G1 X41.566 Y-17.217 Z3.000 E0.07350 F2100
G1 X42.196 Y-15.671 Z3.000 E0.41637 F2100
G1 X42.296 Y-15.395 Z3.000 E0.07348 F2100
G1 X42.805 Y-13.805 Z3.000 E0.41634 F2100
G1 X42.906 Y-13.528 Z3.000 E0.07348 F2100
G1 X43.402 Y-11.935 Z3.000 E0.41637 F2100
G1 X43.479 Y-11.650 Z3.000 E0.07348 F2100
G1 X43.845 Y-10.022 Z3.000 E0.41637 F2100
G1 X43.920 Y-9.737 Z3.000 E0.07348 F2100
G1 X44.278 Y-8.107 Z3.000 E0.41637 F2100
G1 X44.331 Y-7.817 Z3.000 E0.07348 F2100
G1 X44.551 Y-6.162 Z3.000 E0.41639 F2100
G1 X44.600 Y-5.872 Z3.000 E0.07347 F2100
G1 X44.817 Y-4.217 Z3.000 E0.41638 F2100
G1 X44.845 Y-3.923 Z3.000 E0.07348 F2100
G1 X44.918 Y-2.256 Z3.000 E0.41640 F2100
G1 X44.940 Y-1.962 Z3.000 E0.07346 F2100
G1 X45.014 Y-0.295 Z3.000 E0.41638 F2100
G1 X45.017 Y0.000 Z3.000 E0.07348 F2100
G1 X44.943 Y1.668 Z3.000 E0.41642 F2100
G1 X44.939 Y1.962 Z3.000 E0.07345 F2100
G1 X44.869 Y3.630 Z3.000 E0.41639 F2100
G1 X44.847 Y3.924 Z3.000 E0.07349 F2100
G1 X44.627 Y5.578 Z3.000 E0.41643 F2100
G1 X44.596 Y5.871 Z3.000 E0.07344 F2100
G1 X44.381 Y7.527 Z3.000 E0.41639 F2100
G1 X44.336 Y7.818 Z3.000 E0.07349 F2100
G1 X43.971 Y9.447 Z3.000 E0.41644 F2100
G1 X43.914 Y9.735 Z3.000 E0.07343 F2100
G1 X43.556 Y11.366 Z3.000 E0.41639 F2100
G1 X43.486 Y11.652 Z3.000 E0.07350 F2100
G1 X42.981 Y13.243 Z3.000 E0.41645 F2100
G1 X42.898 Y13.526 Z3.000 E0.07343 F2100
G1 X42.399 Y15.119 Z3.000 E0.41637 F2100
G1 X42.306 Y15.398 Z3.000 E0.07350 F2100
G1 X41.664 Y16.939 Z3.000 E0.41646 F2100
G1 X41.556 Y17.213 Z3.000 E0.07343 F2100
G1 X40.919 Y18.756 Z3.000 E0.41636 F2100
G1 X40.803 Y19.027 Z3.000 E0.07351 F2100
G1 X40.030 Y20.506 Z3.000 E0.41645 F2100
G1 X39.897 Y20.769 Z3.000 E0.07342 F2100
G1 X39.128 Y22.250 Z3.000 E0.41636 F2100
G1 X38.989 Y22.510 Z3.000 E0.07351 F2100
G1 X38.091 Y23.918 Z3.000 E0.41644 F2100
G1 X37.935 Y24.168 Z3.000 E0.07342 F2100
G1 X37.038 Y25.575 Z3.000 E0.41633 F2100
G1 X36.878 Y25.822 Z3.000 E0.07352 F2100
G1 X35.863 Y27.148 Z3.000 E0.41644 F2100
G1 X35.685 Y27.382 Z3.000 E0.07342 F2100
G1 X34.667 Y28.705 Z3.000 E0.41631 F2100
G1 X34.487 Y28.938 Z3.000 E0.07352 F2100
G1 X33.362 Y30.171 Z3.000 E0.41644 F2100
G1 X33.164 Y30.389 Z3.000 E0.07343 F2100
G1 X32.032 Y31.616 Z3.000 E0.41631 F2100
G1 X31.833 Y31.833 Z3.000 E0.07353 F2100
G1 X30.607 Y32.966 Z3.000 E0.41641 F2100
G1 X30.390 Y33.164 Z3.000 E0.07343 F2100
G1 X29.154 Y34.286 Z3.000 E0.41631 F2100
G1 X28.936 Y34.485 Z3.000 E0.07354 F2100
G1 X27.618 Y35.509 Z3.000 E0.41639 F2100
G1 X27.384 Y35.688 Z3.000 E0.07343 F2100
G1 X26.053 Y36.694 Z3.000 E0.41629 F2100
G1 X25.820 Y36.875 Z3.000 E0.07354 F2100
G1 X24.420 Y37.783 Z3.000 E0.41638 F2100
G1 X24.170 Y37.940 Z3.000 E0.07343 F2100
G1 X22.755 Y38.823 Z3.000 E0.41627 F2100
G1 X22.507 Y38.983 Z3.000 E0.07355 F2100
G1 X21.035 Y39.770 Z3.000 E0.41638 F2100
G1 X20.773 Y39.904 Z3.000 E0.07344 F2100
G1 X19.283 Y40.657 Z3.000 E0.41626 F2100
G1 X19.023 Y40.795 Z3.000 E0.07355 F2100
G1 X17.489 Y41.454 Z3.000 E0.41636 F2100
G1 X17.216 Y41.564 Z3.000 E0.07344 F2100
G1 X15.666 Y42.181 Z3.000 E0.41626 F2100
G1 X15.394 Y42.296 Z3.000 E0.07355 F2100
G1 X13.811 Y42.823 Z3.000 E0.41635 F2100
G1 X13.529 Y42.908 Z3.000 E0.07345 F2100
G1 X11.929 Y43.383 Z3.000 E0.41624 F2100
G1 X11.649 Y43.475 Z3.000 E0.07355 F2100
G1 X10.026 Y43.866 Z3.000 E0.41636 F2100
G1 X9.738 Y43.926 Z3.000 E0.07345 F2100
G1 X8.102 Y44.255 Z3.000 E0.41624 F2100
G1 X7.815 Y44.322 Z3.000 E0.07355 F2100
G1 X6.165 Y44.575 Z3.000 E0.41634 F2100
G1 X5.873 Y44.610 Z3.000 E0.07346 F2100
G1 X4.214 Y44.791 Z3.000 E0.41625 F2100
G1 X3.922 Y44.832 Z3.000 E0.07354 F2100
G1 X2.257 Y44.945 Z3.000 E0.41634 F2100
G1 X1.963 Y44.955 Z3.000 E0.07346 F2100
G1 X0.294 Y44.986 Z3.000 E0.41625 F2100
G1 X-0.000 Y45.001 Z3.000 E0.07354 F2100
G1 X-1.669 Y44.973 Z3.000 E0.41634 F2100
G1 X-1.963 Y44.957 Z3.000 E0.07346 F2100
G1 X-3.627 Y44.838 Z3.000 E0.41626 F2100
G1 X-3.922 Y44.828 Z3.000 E0.07353 F2100
G1 X-5.582 Y44.658 Z3.000 E0.41634 F2100
G1 X-5.874 Y44.617 Z3.000 E0.07347 F2100
G1 X-7.521 Y44.349 Z3.000 E0.41628 F2100
G1 X-7.814 Y44.313 Z3.000 E0.07352 F2100
G1 X-9.454 Y44.004 Z3.000 E0.41634 F2100
G1 X-9.741 Y43.938 Z3.000 E0.07347 F2100
G1 X-11.357 Y43.523 Z3.000 E0.41630 F2100
G1 X-11.645 Y43.461 Z3.000 E0.07352 F2100
G1 X-13.253 Y43.014 Z3.000 E0.41635 F2100
G1 X-13.534 Y42.924 Z3.000 E0.07347 F2100
G1 X-15.107 Y42.366 Z3.000 E0.41630 F2100
G1 X-15.388 Y42.279 Z3.000 E0.07350 F2100
G1 X-16.952 Y41.697 Z3.000 E0.41637 F2100
G1 X-17.224 Y41.583 Z3.000 E0.07348 F2100
G1 X-18.741 Y40.887 Z3.000 E0.41632 F2100
G1 X-19.014 Y40.775 Z3.000 E0.07349 F2100
G1 X-20.523 Y40.062 Z3.000 E0.41636 F2100
G1 X-20.784 Y39.925 Z3.000 E0.07348 F2100
G1 X-22.233 Y39.097 Z3.000 E0.41635 F2100
G1 X-22.494 Y38.961 Z3.000 E0.07348 F2100
G1 X-23.937 Y38.121 Z3.000 E0.41637 F2100
G1 X-24.186 Y37.964 Z3.000 E0.07348 F2100
G1 X-25.555 Y37.010 Z3.000 E0.41636 F2100
G1 X-25.803 Y36.850 Z3.000 E0.07347 F2100
G1 X-27.169 Y35.891 Z3.000 E0.41639 F2100
G1 X-27.403 Y35.713 Z3.000 E0.07348 F2100
G1 X-28.683 Y34.641 Z3.000 E0.41638 F2100
G1 X-28.915 Y34.460 Z3.000 E0.07346 F2100
G1 X-30.194 Y33.387 Z3.000 E0.41639 F2100
G1 X-30.413 Y33.190 Z3.000 E0.07348 F2100
G1 X-31.593 Y32.009 Z3.000 E0.41640 F2100
G1 X-31.808 Y31.808 Z3.000 E0.07345 F2100
G1 X-32.989 Y30.628 Z3.000 E0.41638 F2100
G1 X-33.191 Y30.414 Z3.000 E0.07348 F2100
G1 X-34.262 Y29.133 Z3.000 E0.41643 F2100
G1 X-34.458 Y28.914 Z3.000 E0.07345 F2100
G1 X-35.533 Y27.637 Z3.000 E0.41637 F2100
G1 X-35.716 Y27.406 Z3.000 E0.07349 F2100
G1 X-36.671 Y26.037 Z3.000 E0.41644 F2100
G1 X-36.846 Y25.800 Z3.000 E0.07344 F2100
G1 X-37.806 Y24.434 Z3.000 E0.41638 F2100
G1 X-37.969 Y24.189 Z3.000 E0.07349 F2100
G1 X-38.801 Y22.742 Z3.000 E0.41644 F2100
G1 X-38.954 Y22.490 Z3.000 E0.07343 F2100
G1 X-39.791 Y21.046 Z3.000 E0.41638 F2100
G1 X-39.933 Y20.788 Z3.000 E0.07350 F2100
G1 X-40.636 Y19.274 Z3.000 E0.41645 F2100
G1 X-40.765 Y19.009 Z3.000 E0.07343 F2100
G1 X-41.474 Y17.498 Z3.000 E0.41637 F2100
G1 X-41.594 Y17.229 Z3.000 E0.07350 F2100
G1 X-42.162 Y15.659 Z3.000 E0.41646 F2100
G1 X-42.267 Y15.384 Z3.000 E0.07343 F2100
G1 X-42.840 Y13.816 Z3.000 E0.41635 F2100
G1 X-42.937 Y13.538 Z3.000 E0.07351 F2100
G1 X-43.367 Y11.925 Z3.000 E0.41645 F2100
G1 X-43.447 Y11.642 Z3.000 E0.07342 F2100
G1 X-43.880 Y10.030 Z3.000 E0.41636 F2100
G1 X-43.953 Y9.744 Z3.000 E0.07352 F2100
G1 X-44.243 Y8.100 Z3.000 E0.41644 F2100
G1 X-44.296 Y7.811 Z3.000 E0.07342 F2100
G1 X-44.585 Y6.167 Z3.000 E0.41634 F2100
G1 X-44.635 Y5.876 Z3.000 E0.07352 F2100
G1 X-44.782 Y4.213 Z3.000 E0.41644 F2100
G1 X-44.809 Y3.920 Z3.000 E0.07342 F2100
G1 X-44.952 Y2.257 Z3.000 E0.41632 F2100
G1 X-44.976 Y1.964 Z3.000 E0.07353 F2100
G1 X-44.981 Y0.294 Z3.000 E0.41643 F2100

; Layer 6, Z=3.500mm, Diameter=127.3mm, Points=576, Amplitude factor=0.02
G1 X-45.022 Y-0.000 Z3.500 E0.14509 F2100
G1 X-44.957 Y-1.619 Z3.500 E0.40420 F2100
G1 X-44.937 Y-1.962 Z3.500 E0.08568 F2100
G1 X-44.857 Y-3.580 Z3.500 E0.40401 F2100
G1 X-44.848 Y-3.924 Z3.500 E0.08585 F2100
G1 X-44.648 Y-5.532 Z3.500 E0.40418 F2100
G1 X-44.597 Y-5.871 Z3.500 E0.08569 F2100
G1 X-44.371 Y-7.475 Z3.500 E0.40400 F2100
G1 X-44.333 Y-7.817 Z3.500 E0.08586 F2100
G1 X-43.999 Y-9.403 Z3.500 E0.40416 F2100
G1 X-43.918 Y-9.736 Z3.500 E0.08570 F2100
G1 X-43.548 Y-11.313 Z3.500 E0.40399 F2100
G1 X-43.480 Y-11.651 Z3.500 E0.08586 F2100
G1 X-43.015 Y-13.203 Z3.500 E0.40414 F2100
G1 X-42.905 Y-13.528 Z3.500 E0.08571 F2100
G1 X-42.393 Y-15.064 Z3.500 E0.40397 F2100
G1 X-42.297 Y-15.395 Z3.500 E0.08586 F2100
G1 X-41.704 Y-16.903 Z3.500 E0.40414 F2100
G1 X-41.566 Y-17.217 Z3.500 E0.08572 F2100
G1 X-40.916 Y-18.701 Z3.500 E0.40397 F2100
G1 X-40.791 Y-19.021 Z3.500 E0.08586 F2100
G1 X-40.075 Y-20.474 Z3.500 E0.40412 F2100
G1 X-39.910 Y-20.776 Z3.500 E0.08572 F2100
G1 X-39.128 Y-22.194 Z3.500 E0.40398 F2100
G1 X-38.976 Y-22.503 Z3.500 E0.08585 F2100
G1 X-38.140 Y-23.891 Z3.500 E0.40412 F2100
G1 X-37.950 Y-24.177 Z3.500 E0.08573 F2100
G1 X-37.042 Y-25.518 Z3.500 E0.40399 F2100
G1 X-36.863 Y-25.812 Z3.500 E0.08584 F2100
G1 X-35.915 Y-27.126 Z3.500 E0.40413 F2100
G1 X-35.701 Y-27.394 Z3.500 E0.08573 F2100
G1 X-34.675 Y-28.648 Z3.500 E0.40400 F2100
G1 X-34.471 Y-28.925 Z3.500 E0.08583 F2100
G1 X-33.417 Y-30.155 Z3.500 E0.40414 F2100
G1 X-33.180 Y-30.404 Z3.500 E0.08574 F2100
G1 X-32.044 Y-31.559 Z3.500 E0.40403 F2100
G1 X-31.817 Y-31.817 Z3.500 E0.08581 F2100
G1 X-30.663 Y-32.954 Z3.500 E0.40413 F2100
G1 X-30.406 Y-33.182 Z3.500 E0.08574 F2100
G1 X-29.170 Y-34.230 Z3.500 E0.40408 F2100
G1 X-28.920 Y-34.466 Z3.500 E0.08580 F2100
G1 X-27.676 Y-35.503 Z3.500 E0.40414 F2100
G1 X-27.400 Y-35.708 Z3.500 E0.08573 F2100
G1 X-26.075 Y-36.640 Z3.500 E0.40411 F2100
G1 X-25.805 Y-36.853 Z3.500 E0.08578 F2100
G1 X-24.477 Y-37.781 Z3.500 E0.40416 F2100
G1 X-24.185 Y-37.963 Z3.500 E0.08574 F2100
G1 X-22.781 Y-38.772 Z3.500 E0.40413 F2100
G1 X-22.493 Y-38.959 Z3.500 E0.08576 F2100
G1 X-21.092 Y-39.772 Z3.500 E0.40418 F2100
G1 X-20.786 Y-39.929 Z3.500 E0.08574 F2100
G1 X-19.315 Y-40.609 Z3.500 E0.40417 F2100
G1 X-19.011 Y-40.769 Z3.500 E0.08574 F2100
G1 X-17.546 Y-41.461 Z3.500 E0.40419 F2100
G1 X-17.228 Y-41.591 Z3.500 E0.08574 F2100
G1 X-15.702 Y-42.136 Z3.500 E0.40422 F2100
G1 X-15.384 Y-42.268 Z3.500 E0.08573 F2100
G1 X-13.866 Y-42.833 Z3.500 E0.40420 F2100
G1 X-13.538 Y-42.936 Z3.500 E0.08574 F2100
G1 X-11.969 Y-43.344 Z3.500 E0.40424 F2100
G1 X-11.641 Y-43.446 Z3.500 E0.08571 F2100
G1 X-10.080 Y-43.879 Z3.500 E0.40422 F2100
G1 X-9.745 Y-43.955 Z3.500 E0.08574 F2100
G1 X-8.146 Y-44.222 Z3.500 E0.40426 F2100
G1 X-7.810 Y-44.293 Z3.500 E0.08569 F2100
G1 X-6.217 Y-44.591 Z3.500 E0.40423 F2100
G1 X-5.877 Y-44.639 Z3.500 E0.08575 F2100
G1 X-4.261 Y-44.763 Z3.500 E0.40429 F2100
G1 X-3.920 Y-44.804 Z3.500 E0.08568 F2100
G1 X-2.307 Y-44.963 Z3.500 E0.40423 F2100
G1 X-1.964 Y-44.983 Z3.500 E0.08575 F2100
G1 X-0.343 Y-44.965 Z3.500 E0.40431 F2100
G1 X0.000 Y-44.974 Z3.500 E0.08566 F2100
G1 X1.620 Y-44.992 Z3.500 E0.40422 F2100
G1 X1.964 Y-44.984 Z3.500 E0.08576 F2100
G1 X3.577 Y-44.824 Z3.500 E0.40432 F2100
G1 X3.920 Y-44.802 Z3.500 E0.08566 F2100
G1 X5.535 Y-44.679 Z3.500 E0.40422 F2100
G1 X5.877 Y-44.642 Z3.500 E0.08576 F2100
G1 X7.470 Y-44.343 Z3.500 E0.40433 F2100
G1 X7.809 Y-44.289 Z3.500 E0.08565 F2100
G1 X9.408 Y-44.025 Z3.500 E0.40420 F2100
G1 X9.746 Y-43.961 Z3.500 E0.08577 F2100
G1 X11.307 Y-43.525 Z3.500 E0.40433 F2100
G1 X11.640 Y-43.440 Z3.500 E0.08565 F2100
G1 X13.209 Y-43.036 Z3.500 E0.40419 F2100
G1 X13.540 Y-42.944 Z3.500 E0.08578 F2100
G1 X15.058 Y-42.375 Z3.500 E0.40431 F2100
G1 X15.381 Y-42.260 Z3.500 E0.08564 F2100
G1 X16.909 Y-41.719 Z3.500 E0.40418 F2100
G1 X17.231 Y-41.600 Z3.500 E0.08580 F2100
G1 X18.695 Y-40.903 Z3.500 E0.40430 F2100
G1 X19.006 Y-40.759 Z3.500 E0.08565 F2100
G1 X20.479 Y-40.085 Z3.500 E0.40414 F2100
G1 X20.791 Y-39.940 Z3.500 E0.08581 F2100
G1 X22.190 Y-39.120 Z3.500 E0.40430 F2100
G1 X22.487 Y-38.948 Z3.500 E0.08565 F2100
G1 X23.894 Y-38.145 Z3.500 E0.40411 F2100
G1 X24.193 Y-37.975 Z3.500 E0.08582 F2100
G1 X25.516 Y-37.040 Z3.500 E0.40426 F2100
G1 X25.796 Y-36.841 Z3.500 E0.08566 F2100
G1 X27.126 Y-35.916 Z3.500 E0.40409 F2100
G1 X27.409 Y-35.721 Z3.500 E0.08583 F2100
G1 X28.649 Y-34.677 Z3.500 E0.40424 F2100
G1 X28.910 Y-34.454 Z3.500 E0.08566 F2100
G1 X30.151 Y-33.413 Z3.500 E0.40407 F2100
G1 X30.417 Y-33.195 Z3.500 E0.08584 F2100
G1 X31.565 Y-32.050 Z3.500 E0.40422 F2100
G1 X31.804 Y-31.804 Z3.500 E0.08567 F2100
G1 X32.946 Y-30.656 Z3.500 E0.40403 F2100
G1 X33.193 Y-30.416 Z3.500 E0.08585 F2100
G1 X34.240 Y-29.179 Z3.500 E0.40421 F2100
G1 X34.457 Y-28.913 Z3.500 E0.08569 F2100
G1 X35.490 Y-27.666 Z3.500 E0.40400 F2100
G1 X35.716 Y-27.406 Z3.500 E0.08585 F2100
G1 X36.656 Y-26.086 Z3.500 E0.40419 F2100
G1 X36.847 Y-25.801 Z3.500 E0.08570 F2100
G1 X37.764 Y-24.465 Z3.500 E0.40399 F2100
G1 X37.966 Y-24.187 Z3.500 E0.08586 F2100
G1 X38.792 Y-22.793 Z3.500 E0.40416 F2100
G1 X38.958 Y-22.493 Z3.500 E0.08570 F2100
G1 X39.749 Y-21.079 Z3.500 E0.40398 F2100
G1 X39.927 Y-20.785 Z3.500 E0.08586 F2100
G1 X40.634 Y-19.327 Z3.500 E0.40414 F2100
G1 X40.773 Y-19.013 Z3.500 E0.08571 F2100
G1 X41.432 Y-17.534 Z3.500 E0.40397 F2100
G1 X41.584 Y-17.225 Z3.500 E0.08586 F2100
G1 X42.167 Y-15.713 Z3.500 E0.40414 F2100
G1 X42.278 Y-15.388 Z3.500 E0.08572 F2100
G1 X42.800 Y-13.855 Z3.500 E0.40397 F2100
G1 X42.924 Y-13.534 Z3.500 E0.08585 F2100
G1 X43.379 Y-11.979 Z3.500 E0.40412 F2100
G1 X43.461 Y-11.645 Z3.500 E0.08572 F2100
G1 X43.841 Y-10.071 Z3.500 E0.40399 F2100
G1 X43.938 Y-9.741 Z3.500 E0.08585 F2100
G1 X44.261 Y-8.153 Z3.500 E0.40412 F2100
G1 X44.314 Y-7.814 Z3.500 E0.08573 F2100
G1 X44.549 Y-6.211 Z3.500 E0.40400 F2100
G1 X44.616 Y-5.874 Z3.500 E0.08584 F2100
G1 X44.806 Y-4.265 Z3.500 E0.40412 F2100
G1 X44.829 Y-3.922 Z3.500 E0.08573 F2100
G1 X44.919 Y-2.305 Z3.500 E0.40402 F2100
G1 X44.955 Y-1.963 Z3.500 E0.08583 F2100
G1 X45.010 Y-0.344 Z3.500 E0.40413 F2100
G1 X45.004 Y0.000 Z3.500 E0.08573 F2100
G1 X44.946 Y1.619 Z3.500 E0.40404 F2100
G1 X44.952 Y1.963 Z3.500 E0.08581 F2100
G1 X44.871 Y3.581 Z3.500 E0.40414 F2100
G1 X44.836 Y3.923 Z3.500 E0.08574 F2100
G1 X44.632 Y5.530 Z3.500 E0.40407 F2100
G1 X44.607 Y5.873 Z3.500 E0.08579 F2100
G1 X44.390 Y7.478 Z3.500 E0.40415 F2100
G1 X44.326 Y7.816 Z3.500 E0.08574 F2100
G1 X43.978 Y9.398 Z3.500 E0.40410 F2100
G1 X43.922 Y9.737 Z3.500 E0.08577 F2100
G1 X43.572 Y11.319 Z3.500 E0.40417 F2100
G1 X43.479 Y11.650 Z3.500 E0.08574 F2100
G1 X42.990 Y13.195 Z3.500 E0.40414 F2100
G1 X42.904 Y13.527 Z3.500 E0.08576 F2100
G1 X42.421 Y15.074 Z3.500 E0.40417 F2100
G1 X42.301 Y15.396 Z3.500 E0.08574 F2100
G1 X41.675 Y16.891 Z3.500 E0.40419 F2100
G1 X41.559 Y17.214 Z3.500 E0.08574 F2100
G1 X40.946 Y18.714 Z3.500 E0.40419 F2100
G1 X40.800 Y19.026 Z3.500 E0.08574 F2100
G1 X40.043 Y20.458 Z3.500 E0.40421 F2100
G1 X39.898 Y20.770 Z3.500 E0.08572 F2100
G1 X39.160 Y22.212 Z3.500 E0.40421 F2100
G1 X38.989 Y22.510 Z3.500 E0.08574 F2100
G1 X38.107 Y23.870 Z3.500 E0.40424 F2100
G1 X37.934 Y24.167 Z3.500 E0.08570 F2100
G1 X37.076 Y25.541 Z3.500 E0.40421 F2100
G1 X36.880 Y25.824 Z3.500 E0.08574 F2100
G1 X35.882 Y27.100 Z3.500 E0.40428 F2100
G1 X35.682 Y27.380 Z3.500 E0.08569 F2100
G1 X34.709 Y28.675 Z3.500 E0.40421 F2100
G1 X34.491 Y28.941 Z3.500 E0.08574 F2100
G1 X33.383 Y30.124 Z3.500 E0.40431 F2100
G1 X33.159 Y30.385 Z3.500 E0.08567 F2100
G1 X32.077 Y31.591 Z3.500 E0.40422 F2100
G1 X31.838 Y31.838 Z3.500 E0.08575 F2100
G1 X30.631 Y32.920 Z3.500 E0.40431 F2100
G1 X30.384 Y33.158 Z3.500 E0.08566 F2100
G1 X29.201 Y34.266 Z3.500 E0.40423 F2100
G1 X28.943 Y34.493 Z3.500 E0.08576 F2100
G1 X27.646 Y35.465 Z3.500 E0.40431 F2100
G1 X27.378 Y35.679 Z3.500 E0.08565 F2100
G1 X26.103 Y36.680 Z3.500 E0.40422 F2100
G1 X25.827 Y36.884 Z3.500 E0.08577 F2100
G1 X24.450 Y37.740 Z3.500 E0.40432 F2100
G1 X24.163 Y37.929 Z3.500 E0.08565 F2100
G1 X22.806 Y38.814 Z3.500 E0.40420 F2100
G1 X22.514 Y38.995 Z3.500 E0.08578 F2100
G1 X21.069 Y39.729 Z3.500 E0.40433 F2100
G1 X20.766 Y39.891 Z3.500 E0.08565 F2100
G1 X19.336 Y40.653 Z3.500 E0.40418 F2100
G1 X19.030 Y40.809 Z3.500 E0.08579 F2100
G1 X17.527 Y41.416 Z3.500 E0.40431 F2100
G1 X17.210 Y41.549 Z3.500 E0.08564 F2100
G1 X15.719 Y42.182 Z3.500 E0.40417 F2100
G1 X15.400 Y42.312 Z3.500 E0.08580 F2100
G1 X13.851 Y42.788 Z3.500 E0.40430 F2100
G1 X13.524 Y42.891 Z3.500 E0.08565 F2100
G1 X11.982 Y43.389 Z3.500 E0.40413 F2100
G1 X11.654 Y43.493 Z3.500 E0.08581 F2100
G1 X10.070 Y43.834 Z3.500 E0.40429 F2100
G1 X9.734 Y43.907 Z3.500 E0.08566 F2100
G1 X8.154 Y44.266 Z3.500 E0.40410 F2100
G1 X7.819 Y44.342 Z3.500 E0.08582 F2100
G1 X6.211 Y44.548 Z3.500 E0.40427 F2100
G1 X5.870 Y44.590 Z3.500 E0.08566 F2100
G1 X4.265 Y44.805 Z3.500 E0.40408 F2100
G1 X3.924 Y44.853 Z3.500 E0.08583 F2100
G1 X2.305 Y44.922 Z3.500 E0.40424 F2100
G1 X1.962 Y44.934 Z3.500 E0.08567 F2100
G1 X0.344 Y45.003 Z3.500 E0.40405 F2100
G1 X-0.000 Y45.023 Z3.500 E0.08584 F2100
G1 X-1.619 Y44.955 Z3.500 E0.40422 F2100
G1 X-1.962 Y44.936 Z3.500 E0.08568 F2100
G1 X-3.580 Y44.859 Z3.500 E0.40403 F2100
G1 X-3.924 Y44.849 Z3.500 E0.08585 F2100
G1 X-5.531 Y44.646 Z3.500 E0.40420 F2100
G1 X-5.871 Y44.596 Z3.500 E0.08569 F2100
G1 X-7.475 Y44.373 Z3.500 E0.40401 F2100
G1 X-7.817 Y44.334 Z3.500 E0.08586 F2100
G1 X-9.402 Y43.997 Z3.500 E0.40417 F2100
G1 X-9.736 Y43.917 Z3.500 E0.08570 F2100
G1 X-11.314 Y43.550 Z3.500 E0.40399 F2100
G1 X-11.651 Y43.482 Z3.500 E0.08586 F2100
G1 X-13.202 Y43.014 Z3.500 E0.40415 F2100
G1 X-13.527 Y42.904 Z3.500 E0.08570 F2100
G1 X-15.065 Y42.395 Z3.500 E0.40397 F2100
G1 X-15.395 Y42.298 Z3.500 E0.08586 F2100
G1 X-16.902 Y41.702 Z3.500 E0.40415 F2100
G1 X-17.216 Y41.564 Z3.500 E0.08572 F2100
G1 X-18.701 Y40.918 Z3.500 E0.40397 F2100
G1 X-19.022 Y40.793 Z3.500 E0.08586 F2100
G1 X-20.474 Y40.073 Z3.500 E0.40413 F2100
G1 X-20.775 Y39.908 Z3.500 E0.08572 F2100
G1 X-22.195 Y39.129 Z3.500 E0.40398 F2100
G1 X-22.503 Y38.977 Z3.500 E0.08586 F2100
G1 X-23.890 Y38.139 Z3.500 E0.40412 F2100
G1 X-24.176 Y37.948 Z3.500 E0.08573 F2100
G1 X-25.519 Y37.043 Z3.500 E0.40398 F2100
G1 X-25.813 Y36.865 Z3.500 E0.08585 F2100
G1 X-27.125 Y35.914 Z3.500 E0.40413 F2100
G1 X-27.393 Y35.699 Z3.500 E0.08573 F2100
G1 X-28.648 Y34.676 Z3.500 E0.40399 F2100
G1 X-28.926 Y34.472 Z3.500 E0.08583 F2100
G1 X-30.154 Y33.416 Z3.500 E0.40413 F2100
G1 X-30.402 Y33.178 Z3.500 E0.08574 F2100
G1 X-31.560 Y32.045 Z3.500 E0.40402 F2100
G1 X-31.818 Y31.818 Z3.500 E0.08582 F2100
G1 X-32.953 Y30.662 Z3.500 E0.40413 F2100
G1 X-33.181 Y30.405 Z3.500 E0.08573 F2100
G1 X-34.231 Y29.171 Z3.500 E0.40406 F2100
G1 X-34.467 Y28.922 Z3.500 E0.08581 F2100
G1 X-35.502 Y27.675 Z3.500 E0.40413 F2100
G1 X-35.707 Y27.399 Z3.500 E0.08573 F2100
G1 X-36.641 Y26.076 Z3.500 E0.40409 F2100
G1 X-36.854 Y25.806 Z3.500 E0.08579 F2100
G1 X-37.781 Y24.476 Z3.500 E0.40415 F2100
G1 X-37.962 Y24.184 Z3.500 E0.08574 F2100
G1 X-38.773 Y22.782 Z3.500 E0.40411 F2100
G1 X-38.961 Y22.494 Z3.500 E0.08577 F2100
G1 X-39.772 Y21.091 Z3.500 E0.40418 F2100
G1 X-39.928 Y20.785 Z3.500 E0.08574 F2100
G1 X-40.609 Y19.315 Z3.500 E0.40415 F2100
G1 X-40.770 Y19.011 Z3.500 E0.08575 F2100
G1 X-41.460 Y17.545 Z3.500 E0.40418 F2100
G1 X-41.590 Y17.227 Z3.500 E0.08574 F2100
G1 X-42.137 Y15.702 Z3.500 E0.40420 F2100
G1 X-42.270 Y15.385 Z3.500 E0.08574 F2100
G1 X-42.832 Y13.865 Z3.500 E0.40419 F2100
G1 X-42.935 Y13.537 Z3.500 E0.08574 F2100
G1 X-43.344 Y11.969 Z3.500 E0.40422 F2100
G1 X-43.447 Y11.642 Z3.500 E0.08571 F2100
G1 X-43.879 Y10.080 Z3.500 E0.40422 F2100
G1 X-43.954 Y9.744 Z3.500 E0.08574 F2100
G1 X-44.222 Y8.146 Z3.500 E0.40425 F2100
G1 X-44.294 Y7.810 Z3.500 E0.08570 F2100
G1 X-44.591 Y6.217 Z3.500 E0.40422 F2100
G1 X-44.638 Y5.877 Z3.500 E0.08574 F2100
G1 X-44.763 Y4.261 Z3.500 E0.40428 F2100
G1 X-44.805 Y3.920 Z3.500 E0.08568 F2100
G1 X-44.963 Y2.307 Z3.500 E0.40423 F2100
G1 X-44.982 Y1.964 Z3.500 E0.08575 F2100
G1 X-44.965 Y0.343 Z3.500 E0.40430 F2100

; Layer 7, Z=4.000mm, Diameter=127.3mm, Points=576, Amplitude factor=0.02
G1 X-45.028 Y-0.000 Z4.000 E0.15212 F2100
G1 X-44.959 Y-1.570 Z4.000 E0.39203 F2100
G1 X-44.930 Y-1.962 Z4.000 E0.09795 F2100
G1 X-44.860 Y-3.531 Z4.000 E0.39176 F2100
G1 X-44.854 Y-3.924 Z4.000 E0.09820 F2100
G1 X-44.655 Y-5.483 Z4.000 E0.39200 F2100
G1 X-44.592 Y-5.871 Z4.000 E0.09797 F2100
G1 X-44.377 Y-7.426 Z4.000 E0.39173 F2100
G1 X-44.338 Y-7.818 Z4.000 E0.09821 F2100
G1 X-44.011 Y-9.355 Z4.000 E0.39196 F2100
G1 X-43.914 Y-9.735 Z4.000 E0.09798 F2100
G1 X-43.557 Y-11.265 Z4.000 E0.39171 F2100
G1 X-43.485 Y-11.652 Z4.000 E0.09821 F2100
G1 X-43.032 Y-13.156 Z4.000 E0.39194 F2100
G1 X-42.901 Y-13.527 Z4.000 E0.09800 F2100
G1 X-42.405 Y-15.017 Z4.000 E0.39169 F2100
G1 X-42.300 Y-15.396 Z4.000 E0.09821 F2100
G1 X-41.726 Y-16.858 Z4.000 E0.39193 F2100
G1 X-41.563 Y-17.216 Z4.000 E0.09801 F2100
G1 X-40.931 Y-18.654 Z4.000 E0.39169 F2100
G1 X-40.794 Y-19.022 Z4.000 E0.09820 F2100
G1 X-40.101 Y-20.433 Z4.000 E0.39191 F2100
G1 X-39.908 Y-20.775 Z4.000 E0.09802 F2100
G1 X-39.147 Y-22.148 Z4.000 E0.39171 F2100
G1 X-38.977 Y-22.503 Z4.000 E0.09819 F2100
G1 X-38.171 Y-23.852 Z4.000 E0.39191 F2100
G1 X-37.949 Y-24.176 Z4.000 E0.09802 F2100
G1 X-37.064 Y-25.474 Z4.000 E0.39173 F2100
G1 X-36.864 Y-25.812 Z4.000 E0.09817 F2100
G1 X-35.950 Y-27.090 Z4.000 E0.39192 F2100
G1 X-35.701 Y-27.394 Z4.000 E0.09803 F2100
G1 X-34.700 Y-28.605 Z4.000 E0.39176 F2100
G1 X-34.471 Y-28.924 Z4.000 E0.09815 F2100
G1 X-33.454 Y-30.123 Z4.000 E0.39194 F2100
G1 X-33.180 Y-30.404 Z4.000 E0.09803 F2100
G1 X-32.073 Y-31.518 Z4.000 E0.39181 F2100
G1 X-31.816 Y-31.816 Z4.000 E0.09813 F2100
G1 X-30.704 Y-32.926 Z4.000 E0.39195 F2100
G1 X-30.407 Y-33.183 Z4.000 E0.09802 F2100
G1 X-29.202 Y-34.191 Z4.000 E0.39187 F2100
G1 X-28.919 Y-34.464 Z4.000 E0.09810 F2100
G1 X-27.719 Y-35.479 Z4.000 E0.39196 F2100
G1 X-27.402 Y-35.711 Z4.000 E0.09802 F2100
G1 X-26.110 Y-36.604 Z4.000 E0.39193 F2100
G1 X-25.803 Y-36.850 Z4.000 E0.09807 F2100
G1 X-24.523 Y-37.761 Z4.000 E0.39200 F2100
G1 X-24.187 Y-37.966 Z4.000 E0.09801 F2100
G1 X-22.819 Y-38.739 Z4.000 E0.39198 F2100
G1 X-22.491 Y-38.956 Z4.000 E0.09804 F2100
G1 X-21.139 Y-39.757 Z4.000 E0.39204 F2100
G1 X-20.788 Y-39.933 Z4.000 E0.09801 F2100
G1 X-19.355 Y-40.579 Z4.000 E0.39204 F2100
G1 X-19.009 Y-40.764 Z4.000 E0.09800 F2100
G1 X-17.594 Y-41.449 Z4.000 E0.39206 F2100
G1 X-17.230 Y-41.596 Z4.000 E0.09801 F2100
G1 X-15.744 Y-42.110 Z4.000 E0.39210 F2100
G1 X-15.382 Y-42.263 Z4.000 E0.09798 F2100
G1 X-13.915 Y-42.826 Z4.000 E0.39208 F2100
G1 X-13.540 Y-42.942 Z4.000 E0.09801 F2100
G1 X-12.014 Y-43.322 Z4.000 E0.39214 F2100
G1 X-11.640 Y-43.440 Z4.000 E0.09794 F2100
G1 X-10.129 Y-43.876 Z4.000 E0.39211 F2100
G1 X-9.746 Y-43.962 Z4.000 E0.09801 F2100
G1 X-8.193 Y-44.204 Z4.000 E0.39219 F2100
G1 X-7.809 Y-44.286 Z4.000 E0.09792 F2100
G1 X-6.267 Y-44.592 Z4.000 E0.39212 F2100
G1 X-5.878 Y-44.646 Z4.000 E0.09801 F2100
G1 X-4.309 Y-44.750 Z4.000 E0.39222 F2100
G1 X-3.919 Y-44.796 Z4.000 E0.09790 F2100
G1 X-2.357 Y-44.968 Z4.000 E0.39212 F2100
G1 X-1.964 Y-44.991 Z4.000 E0.09802 F2100
G1 X-0.392 Y-44.956 Z4.000 E0.39225 F2100
G1 X0.000 Y-44.966 Z4.000 E0.09788 F2100
G1 X1.572 Y-45.001 Z4.000 E0.39211 F2100
G1 X1.964 Y-44.992 Z4.000 E0.09803 F2100
G1 X3.527 Y-44.820 Z4.000 E0.39227 F2100
G1 X3.919 Y-44.793 Z4.000 E0.09787 F2100
G1 X5.487 Y-44.691 Z4.000 E0.39210 F2100
G1 X5.878 Y-44.651 Z4.000 E0.09804 F2100
G1 X7.421 Y-44.344 Z4.000 E0.39227 F2100
G1 X7.808 Y-44.280 Z4.000 E0.09786 F2100
G1 X9.361 Y-44.041 Z4.000 E0.39208 F2100
G1 X9.748 Y-43.969 Z4.000 E0.09805 F2100
G1 X11.258 Y-43.531 Z4.000 E0.39227 F2100
G1 X11.637 Y-43.431 Z4.000 E0.09786 F2100
G1 X13.163 Y-43.055 Z4.000 E0.39205 F2100
G1 X13.543 Y-42.952 Z4.000 E0.09807 F2100
G1 X15.010 Y-42.386 Z4.000 E0.39224 F2100
G1 X15.378 Y-42.252 Z4.000 E0.09787 F2100
G1 X16.865 Y-41.741 Z4.000 E0.39202 F2100
G1 X17.235 Y-41.608 Z4.000 E0.09810 F2100
G1 X18.648 Y-40.919 Z4.000 E0.39221 F2100
G1 X19.003 Y-40.751 Z4.000 E0.09787 F2100
G1 X20.437 Y-40.110 Z4.000 E0.39197 F2100
G1 X20.795 Y-39.947 Z4.000 E0.09811 F2100
G1 X22.145 Y-39.141 Z4.000 E0.39219 F2100
G1 X22.483 Y-38.941 Z4.000 E0.09789 F2100
G1 X23.853 Y-38.173 Z4.000 E0.39192 F2100
G1 X24.197 Y-37.981 Z4.000 E0.09814 F2100
G1 X25.474 Y-37.065 Z4.000 E0.39214 F2100
G1 X25.792 Y-36.835 Z4.000 E0.09790 F2100
G1 X27.087 Y-35.946 Z4.000 E0.39188 F2100
G1 X27.414 Y-35.727 Z4.000 E0.09816 F2100
G1 X28.610 Y-34.707 Z4.000 E0.39210 F2100
G1 X28.905 Y-34.448 Z4.000 E0.09792 F2100
G1 X30.115 Y-33.446 Z4.000 E0.39184 F2100
G1 X30.422 Y-33.200 Z4.000 E0.09818 F2100
G1 X31.529 Y-32.084 Z4.000 E0.39206 F2100
G1 X31.799 Y-31.799 Z4.000 E0.09794 F2100
G1 X32.912 Y-30.691 Z4.000 E0.39178 F2100
G1 X33.198 Y-30.420 Z4.000 E0.09819 F2100
G1 X34.208 Y-29.217 Z4.000 E0.39204 F2100
G1 X34.452 Y-28.909 Z4.000 E0.09796 F2100
G1 X35.458 Y-27.703 Z4.000 E0.39174 F2100
G1 X35.720 Y-27.409 Z4.000 E0.09820 F2100
G1 X36.628 Y-26.126 Z4.000 E0.39200 F2100
G1 X36.843 Y-25.798 Z4.000 E0.09797 F2100
G1 X37.734 Y-24.505 Z4.000 E0.39172 F2100
G1 X37.971 Y-24.190 Z4.000 E0.09821 F2100
G1 X38.769 Y-22.837 Z4.000 E0.39196 F2100
G1 X38.954 Y-22.490 Z4.000 E0.09799 F2100
G1 X39.723 Y-21.121 Z4.000 E0.39171 F2100
G1 X39.931 Y-20.787 Z4.000 E0.09821 F2100
G1 X40.616 Y-19.373 Z4.000 E0.39193 F2100
G1 X40.770 Y-19.011 Z4.000 E0.09800 F2100
G1 X41.409 Y-17.577 Z4.000 E0.39169 F2100
G1 X41.587 Y-17.226 Z4.000 E0.09821 F2100
G1 X42.154 Y-15.761 Z4.000 E0.39193 F2100
G1 X42.275 Y-15.387 Z4.000 E0.09801 F2100
G1 X42.779 Y-13.900 Z4.000 E0.39169 F2100
G1 X42.927 Y-13.535 Z4.000 E0.09820 F2100
G1 X43.371 Y-12.028 Z4.000 E0.39191 F2100
G1 X43.459 Y-11.645 Z4.000 E0.09802 F2100
G1 X43.824 Y-10.118 Z4.000 E0.39172 F2100
G1 X43.939 Y-9.741 Z4.000 E0.09819 F2100
G1 X44.258 Y-8.203 Z4.000 E0.39191 F2100
G1 X44.313 Y-7.814 Z4.000 E0.09802 F2100
G1 X44.535 Y-6.259 Z4.000 E0.39174 F2100
G1 X44.616 Y-5.874 Z4.000 E0.09817 F2100
G1 X44.808 Y-4.314 Z4.000 E0.39192 F2100
G1 X44.829 Y-3.922 Z4.000 E0.09803 F2100
G1 X44.908 Y-2.353 Z4.000 E0.39178 F2100
G1 X44.954 Y-1.963 Z4.000 E0.09815 F2100
G1 X45.016 Y-0.393 Z4.000 E0.39193 F2100
G1 X45.005 Y0.000 Z4.000 E0.09803 F2100
G1 X44.939 Y1.569 Z4.000 E0.39182 F2100
G1 X44.950 Y1.963 Z4.000 E0.09812 F2100
G1 X44.882 Y3.532 Z4.000 E0.39196 F2100
G1 X44.838 Y3.923 Z4.000 E0.09802 F2100
G1 X44.629 Y5.480 Z4.000 E0.39188 F2100
G1 X44.604 Y5.872 Z4.000 E0.09809 F2100
G1 X44.406 Y7.431 Z4.000 E0.39198 F2100
G1 X44.329 Y7.816 Z4.000 E0.09802 F2100
G1 X43.979 Y9.348 Z4.000 E0.39193 F2100
G1 X43.919 Y9.737 Z4.000 E0.09806 F2100
G1 X43.592 Y11.274 Z4.000 E0.39202 F2100
G1 X43.483 Y11.651 Z4.000 E0.09802 F2100
G1 X42.995 Y13.145 Z4.000 E0.39199 F2100
G1 X42.899 Y13.526 Z4.000 E0.09803 F2100
G1 X42.445 Y15.031 Z4.000 E0.39203 F2100
G1 X42.305 Y15.398 Z4.000 E0.09801 F2100
G1 X41.684 Y16.842 Z4.000 E0.39206 F2100
G1 X41.554 Y17.212 Z4.000 E0.09800 F2100
G1 X40.974 Y18.673 Z4.000 E0.39206 F2100
G1 X40.805 Y19.028 Z4.000 E0.09801 F2100
G1 X40.057 Y20.410 Z4.000 E0.39210 F2100
G1 X39.893 Y20.767 Z4.000 E0.09797 F2100
G1 X39.192 Y22.174 Z4.000 E0.39209 F2100
G1 X38.994 Y22.513 Z4.000 E0.09801 F2100
G1 X38.125 Y23.823 Z4.000 E0.39215 F2100
G1 X37.929 Y24.163 Z4.000 E0.09794 F2100
G1 X37.110 Y25.505 Z4.000 E0.39210 F2100
G1 X36.886 Y25.828 Z4.000 E0.09801 F2100
G1 X35.904 Y27.056 Z4.000 E0.39220 F2100
G1 X35.676 Y27.376 Z4.000 E0.09792 F2100
G1 X34.746 Y28.642 Z4.000 E0.39210 F2100
G1 X34.496 Y28.946 Z4.000 E0.09801 F2100
G1 X33.409 Y30.082 Z4.000 E0.39224 F2100
G1 X33.153 Y30.379 Z4.000 E0.09790 F2100
G1 X32.117 Y31.561 Z4.000 E0.39212 F2100
G1 X31.844 Y31.844 Z4.000 E0.09802 F2100
G1 X30.661 Y32.880 Z4.000 E0.39225 F2100
G1 X30.378 Y33.152 Z4.000 E0.09788 F2100
G1 X29.243 Y34.240 Z4.000 E0.39212 F2100
G1 X28.948 Y34.499 Z4.000 E0.09803 F2100
G1 X27.680 Y35.428 Z4.000 E0.39225 F2100
G1 X27.373 Y35.673 Z4.000 E0.09787 F2100
G1 X26.147 Y36.657 Z4.000 E0.39210 F2100
G1 X25.832 Y36.891 Z4.000 E0.09804 F2100
G1 X24.487 Y37.707 Z4.000 E0.39226 F2100
G1 X24.159 Y37.922 Z4.000 E0.09786 F2100
G1 X22.851 Y38.794 Z4.000 E0.39207 F2100
G1 X22.518 Y39.003 Z4.000 E0.09806 F2100
G1 X21.109 Y39.700 Z4.000 E0.39226 F2100
G1 X20.762 Y39.883 Z4.000 E0.09786 F2100
G1 X19.382 Y40.636 Z4.000 E0.39204 F2100
G1 X19.033 Y40.817 Z4.000 E0.09808 F2100
G1 X17.570 Y41.391 Z4.000 E0.39223 F2100
G1 X17.207 Y41.541 Z4.000 E0.09787 F2100
G1 X15.766 Y42.168 Z4.000 E0.39201 F2100
G1 X15.403 Y42.320 Z4.000 E0.09810 F2100
G1 X13.896 Y42.768 Z4.000 E0.39220 F2100
G1 X13.521 Y42.883 Z4.000 E0.09788 F2100
G1 X12.030 Y43.379 Z4.000 E0.39196 F2100
G1 X11.656 Y43.501 Z4.000 E0.09812 F2100
G1 X10.116 Y43.820 Z4.000 E0.39219 F2100
G1 X9.732 Y43.900 Z4.000 E0.09789 F2100
G1 X8.203 Y44.259 Z4.000 E0.39191 F2100
G1 X7.820 Y44.350 Z4.000 E0.09814 F2100
G1 X6.259 Y44.538 Z4.000 E0.39214 F2100
G1 X5.869 Y44.582 Z4.000 E0.09791 F2100
G1 X4.314 Y44.801 Z4.000 E0.39186 F2100
G1 X3.925 Y44.861 Z4.000 E0.09816 F2100
G1 X2.354 Y44.918 Z4.000 E0.39210 F2100
G1 X1.962 Y44.926 Z4.000 E0.09792 F2100
G1 X0.393 Y45.003 Z4.000 E0.39182 F2100
G1 X-0.000 Y45.030 Z4.000 E0.09818 F2100
G1 X-1.570 Y44.956 Z4.000 E0.39206 F2100
G1 X-1.962 Y44.929 Z4.000 E0.09794 F2100
G1 X-3.531 Y44.862 Z4.000 E0.39178 F2100
G1 X-3.924 Y44.856 Z4.000 E0.09819 F2100
G1 X-5.483 Y44.652 Z4.000 E0.39202 F2100
G1 X-5.870 Y44.590 Z4.000 E0.09796 F2100
G1 X-7.427 Y44.379 Z4.000 E0.39174 F2100
G1 X-7.818 Y44.340 Z4.000 E0.09820 F2100
G1 X-9.354 Y44.009 Z4.000 E0.39198 F2100
G1 X-9.735 Y43.912 Z4.000 E0.09797 F2100
G1 X-11.265 Y43.559 Z4.000 E0.39172 F2100
G1 X-11.652 Y43.486 Z4.000 E0.09821 F2100
G1 X-13.156 Y43.030 Z4.000 E0.39195 F2100
G1 X-13.526 Y42.899 Z4.000 E0.09799 F2100
G1 X-15.017 Y42.408 Z4.000 E0.39169 F2100
G1 X-15.397 Y42.302 Z4.000 E0.09821 F2100
G1 X-16.858 Y41.724 Z4.000 E0.39194 F2100
G1 X-17.215 Y41.561 Z4.000 E0.09801 F2100
G1 X-18.655 Y40.933 Z4.000 E0.39169 F2100
G1 X-19.023 Y40.796 Z4.000 E0.09821 F2100
G1 X-20.432 Y40.099 Z4.000 E0.39191 F2100
G1 X-20.774 Y39.906 Z4.000 E0.09801 F2100
G1 X-22.149 Y39.148 Z4.000 E0.39171 F2100
G1 X-22.504 Y38.979 Z4.000 E0.09820 F2100
G1 X-23.851 Y38.169 Z4.000 E0.39191 F2100
G1 X-24.175 Y37.947 Z4.000 E0.09802 F2100
G1 X-25.475 Y37.066 Z4.000 E0.39171 F2100
G1 X-25.814 Y36.866 Z4.000 E0.09818 F2100
G1 X-27.089 Y35.948 Z4.000 E0.39192 F2100
G1 X-27.393 Y35.699 Z4.000 E0.09803 F2100
G1 X-28.606 Y34.702 Z4.000 E0.39174 F2100
G1 X-28.926 Y34.472 Z4.000 E0.09816 F2100
G1 X-30.121 Y33.453 Z4.000 E0.39193 F2100
G1 X-30.403 Y33.179 Z4.000 E0.09803 F2100
G1 X-31.519 Y32.074 Z4.000 E0.39178 F2100
G1 X-31.817 Y31.817 Z4.000 E0.09814 F2100
G1 X-32.925 Y30.703 Z4.000 E0.39194 F2100
G1 X-33.182 Y30.405 Z4.000 E0.09802 F2100
G1 X-34.192 Y29.203 Z4.000 E0.39184 F2100
G1 X-34.466 Y28.920 Z4.000 E0.09812 F2100
G1 X-35.478 Y27.718 Z4.000 E0.39195 F2100
G1 X-35.709 Y27.400 Z4.000 E0.09802 F2100
G1 X-36.605 Y26.110 Z4.000 E0.39189 F2100
G1 X-36.852 Y25.804 Z4.000 E0.09809 F2100
G1 X-37.760 Y24.522 Z4.000 E0.39198 F2100
G1 X-37.964 Y24.186 Z4.000 E0.09802 F2100
G1 X-38.740 Y22.819 Z4.000 E0.39194 F2100
G1 X-38.957 Y22.492 Z4.000 E0.09805 F2100
G1 X-39.756 Y21.138 Z4.000 E0.39202 F2100
G1 X-39.931 Y20.787 Z4.000 E0.09802 F2100
G1 X-40.580 Y19.355 Z4.000 E0.39200 F2100
G1 X-40.766 Y19.010 Z4.000 E0.09802 F2100
G1 X-41.448 Y17.594 Z4.000 E0.39204 F2100
G1 X-41.594 Y17.229 Z4.000 E0.09801 F2100
G1 X-42.111 Y15.745 Z4.000 E0.39207 F2100
G1 X-42.265 Y15.383 Z4.000 E0.09799 F2100
G1 X-42.825 Y13.915 Z4.000 E0.39206 F2100
G1 X-42.941 Y13.539 Z4.000 E0.09801 F2100
G1 X-43.322 Y12.014 Z4.000 E0.39211 F2100
G1 X-43.441 Y11.640 Z4.000 E0.09796 F2100
G1 X-43.876 Y10.129 Z4.000 E0.39210 F2100
G1 X-43.960 Y9.746 Z4.000 E0.09801 F2100
G1 X-44.204 Y8.193 Z4.000 E0.39216 F2100
G1 X-44.288 Y7.809 Z4.000 E0.09793 F2100
G1 X-44.592 Y6.267 Z4.000 E0.39211 F2100
G1 X-44.645 Y5.878 Z4.000 E0.09801 F2100
G1 X-44.750 Y4.309 Z4.000 E0.39221 F2100
G1 X-44.798 Y3.919 Z4.000 E0.09791 F2100
G1 X-44.968 Y2.357 Z4.000 E0.39212 F2100
G1 X-44.990 Y1.964 Z4.000 E0.09801 F2100
G1 X-44.955 Y0.392 Z4.000 E0.39224 F2100

; Layer 8, Z=4.500mm, Diameter=127.3mm, Points=576, Amplitude factor=0.03
G1 X-45.000 Y0.000 Z4.500 E0.15892 F2100
G1 X-44.999 Y-1.522 Z4.500 E0.37974 F2100
G1 X-44.960 Y-1.963 Z4.500 E0.11035 F2100
G1 X-44.824 Y-3.479 Z4.500 E0.37958 F2100
G1 X-44.823 Y-3.922 Z4.500 E0.11049 F2100
G1 X-44.698 Y-5.439 Z4.500 E0.37978 F2100
G1 X-44.623 Y-5.875 Z4.500 E0.11035 F2100
G1 X-44.347 Y-7.371 Z4.500 E0.37966 F2100
G1 X-44.306 Y-7.812 Z4.500 E0.11045 F2100
G1 X-44.057 Y-9.315 Z4.500 E0.37982 F2100
G1 X-43.946 Y-9.743 Z4.500 E0.11033 F2100
G1 X-43.533 Y-11.208 Z4.500 E0.37975 F2100
G1 X-43.451 Y-11.643 Z4.500 E0.11040 F2100
G1 X-43.080 Y-13.120 Z4.500 E0.37987 F2100
G1 X-42.935 Y-13.537 Z4.500 E0.11032 F2100
G1 X-42.388 Y-14.958 Z4.500 E0.37983 F2100
G1 X-42.267 Y-15.384 Z4.500 E0.11034 F2100
G1 X-41.775 Y-16.825 Z4.500 E0.37993 F2100
G1 X-41.596 Y-17.230 Z4.500 E0.11031 F2100
G1 X-40.921 Y-18.595 Z4.500 E0.37992 F2100
G1 X-40.761 Y-19.007 Z4.500 E0.11029 F2100
G1 X-40.151 Y-20.403 Z4.500 E0.37997 F2100
G1 X-39.940 Y-20.791 Z4.500 E0.11030 F2100
G1 X-39.144 Y-22.090 Z4.500 E0.38002 F2100
G1 X-38.945 Y-22.485 Z4.500 E0.11024 F2100
G1 X-38.221 Y-23.825 Z4.500 E0.38001 F2100
G1 X-37.979 Y-24.196 Z4.500 E0.11029 F2100
G1 X-37.069 Y-25.417 Z4.500 E0.38009 F2100
G1 X-36.834 Y-25.792 Z4.500 E0.11020 F2100
G1 X-35.999 Y-27.066 Z4.500 E0.38005 F2100
G1 X-35.729 Y-27.416 Z4.500 E0.11029 F2100
G1 X-34.713 Y-28.551 Z4.500 E0.38015 F2100
G1 X-34.444 Y-28.902 Z4.500 E0.11015 F2100
G1 X-33.503 Y-30.100 Z4.500 E0.38008 F2100
G1 X-33.206 Y-30.428 Z4.500 E0.11029 F2100
G1 X-32.093 Y-31.469 Z4.500 E0.38022 F2100
G1 X-31.792 Y-31.792 Z4.500 E0.11012 F2100
G1 X-30.752 Y-32.905 Z4.500 E0.38007 F2100
G1 X-30.430 Y-33.208 Z4.500 E0.11029 F2100
G1 X-29.228 Y-34.147 Z4.500 E0.38027 F2100
G1 X-28.898 Y-34.439 Z4.500 E0.11010 F2100
G1 X-27.766 Y-35.459 Z4.500 E0.38006 F2100
G1 X-27.421 Y-35.735 Z4.500 E0.11030 F2100
G1 X-26.142 Y-36.566 Z4.500 E0.38029 F2100
G1 X-25.785 Y-36.825 Z4.500 E0.11009 F2100
G1 X-24.569 Y-37.742 Z4.500 E0.38005 F2100
G1 X-24.203 Y-37.991 Z4.500 E0.11032 F2100
G1 X-22.857 Y-38.707 Z4.500 E0.38029 F2100
G1 X-22.477 Y-38.932 Z4.500 E0.11008 F2100
G1 X-21.184 Y-39.738 Z4.500 E0.38003 F2100
G1 X-20.800 Y-39.956 Z4.500 E0.11034 F2100
G1 X-19.398 Y-40.554 Z4.500 E0.38028 F2100
G1 X-18.998 Y-40.742 Z4.500 E0.11008 F2100
G1 X-17.639 Y-41.430 Z4.500 E0.37997 F2100
G1 X-17.239 Y-41.618 Z4.500 E0.11037 F2100
G1 X-15.791 Y-42.094 Z4.500 E0.38026 F2100
G1 X-15.375 Y-42.243 Z4.500 E0.11009 F2100
G1 X-13.960 Y-42.806 Z4.500 E0.37991 F2100
G1 X-13.546 Y-42.961 Z4.500 E0.11040 F2100
G1 X-12.063 Y-43.314 Z4.500 E0.38021 F2100
G1 X-11.635 Y-43.422 Z4.500 E0.11010 F2100
G1 X-10.175 Y-43.856 Z4.500 E0.37986 F2100
G1 X-9.750 Y-43.978 Z4.500 E0.11044 F2100
